;FLAVOR:Marlin
;TIME:11287
;Filament used: 7.81086m
;Layer height: 0.2
;MINX:54.6
;MINY:27.188
;MINZ:0.2
;MAXX:165.4
;MAXY:187.897
;MAXZ:6
;TARGET_MACHINE.NAME:Creality Ender-3 Pro
;Generated with Cura_SteamEngine 5.10.1
; Ender 3 Custom Start G-code
G92 E0 ; Reset Extruder
G28 ; Home all axes
M420 S1 Z10 ; use bed levelling
M104 S175 ; Start heating up the nozzle most of the way
M190 S60 ; Start heating the bed, wait until target temperature reached
M109 S200 ; Finish heating the nozzle

G1 Z2.0 F3000 ; Move Z Axis up little to prevent scratching of Heat Bed
G1 X0.1 Y20 Z0.3 F5000.0 ; Move to start position

G1 F3000 Z20 ; Move Z Axis up 20 mm to allow filament ooze freely
G1 F300 E50 ; Slowly extrude a 50mm spaghetti

G1 X0.1 Y20 Z0.3 F5000.0 ; Move to start position
; G1 X0.1 Y200.0 Z0.3 F1500.0 E15 ; Draw the first line
; G1 X0.4 Y200.0 Z0.3 F5000.0 ; Move to side a little
; G1 X0.4 Y20 Z0.3 F1500.0 E30 ; Draw the second line
; G92 E0 ; Reset Extruder
G1 Z2.0 F3000 ; Move Z Axis up little to prevent scratching of Heat Bed
G1 X5 Y20 Z0.3 F5000.0 ; Move over to prevent blob squish
M82 ;absolute extrusion mode
G92 E0
G92 E0
G1 F1500 E-6.5
;LAYER_COUNT:30
;LAYER:0
M107
G0 F6000 X57.69 Y34.56 Z0.2
;TYPE:SKIRT
G1 F1500 E0
G1 F1200 X58.224 Y33.696 E0.03378
G1 X58.807 Y32.917 E0.06614
G1 X59.458 Y32.192 E0.09855
G1 X60.17 Y31.528 E0.13093
G1 X60.88 Y30.971 E0.16095
G1 X61.757 Y30.401 E0.19574
G1 X62.619 Y29.947 E0.22814
G1 X63.515 Y29.572 E0.26045
G1 X64.375 Y29.295 E0.2905
G1 X65.133 Y29.114 E0.31642
G1 X65.727 Y28.994 E0.33657
G1 X68.287 Y28.44 E0.42369
G1 X70.85 Y27.809 E0.51148
G1 X72.219 Y27.459 E0.55848
G1 X73.1 Y27.302 E0.58824
G1 X74.255 Y27.203 E0.6268
G1 X74.912 Y27.188 E0.64866
G1 X94.503 Y27.188 E1.30026
G1 X95.371 Y27.199 E1.32913
G1 X95.935 Y27.223 E1.3479
G1 X97.003 Y27.324 E1.38358
G1 X98.469 Y27.489 E1.43265
G1 X101.004 Y27.708 E1.51728
G1 X103.454 Y27.847 E1.5989
G1 X106.022 Y27.92 E1.68434
G1 X108.513 Y27.922 E1.7672
G1 X111.044 Y27.851 E1.85141
G1 X113.525 Y27.713 E1.93406
G1 X116.104 Y27.492 E2.02015
G1 X118.187 Y27.266 E2.08984
G1 X119.106 Y27.201 E2.12048
G1 X119.73 Y27.188 E2.14124
G1 X130.451 Y27.189 E2.49782
G1 X131.184 Y27.201 E2.5222
G1 X132.126 Y27.258 E2.55359
G1 X132.899 Y27.365 E2.57955
G1 X135.52 Y27.814 E2.66799
G1 X138.002 Y28.167 E2.75137
G1 X140.512 Y28.451 E2.83539
G1 X143.025 Y28.667 E2.91928
G1 X145.476 Y28.804 E3.00093
G1 X149.443 Y28.888 E3.1329
G1 X151.65 Y28.889 E3.2063
G1 X152.387 Y28.901 E3.23082
G1 X153.359 Y28.96 E3.26321
G1 X154.322 Y29.106 E3.2956
G1 X155.269 Y29.337 E3.32803
G1 X156.19 Y29.65 E3.36038
G1 X157.082 Y30.044 E3.39281
G1 X157.935 Y30.515 E3.42522
G1 X158.741 Y31.058 E3.45754
G1 X159.444 Y31.624 E3.48756
G1 X159.994 Y32.143 E3.51271
G1 X160.534 Y32.726 E3.53914
G1 X162.676 Y35.157 E3.64691
G1 X162.969 Y35.507 E3.66209
G1 X163.573 Y36.338 E3.69626
G1 X164.073 Y37.174 E3.72866
G1 X164.497 Y38.051 E3.76106
G1 X164.841 Y38.963 E3.79348
G1 X165.103 Y39.901 E3.82587
G1 X165.271 Y40.788 E3.8559
G1 X165.385 Y42.061 E3.89841
G1 X165.4 Y42.718 E3.92026
G1 X165.399 Y98.159 E5.76424
G1 X165.389 Y98.88 E5.78822
G1 X165.362 Y99.483 E5.8083
G1 X165.228 Y101.254 E5.86737
G1 X165.086 Y103.762 E5.95092
G1 X165.013 Y106.301 E6.0354
G1 X165.013 Y108.813 E6.11895
G1 X165.084 Y111.317 E6.20227
G1 X165.228 Y113.858 E6.28692
G1 X165.349 Y115.403 E6.33846
G1 X165.385 Y116.015 E6.35885
G1 X165.4 Y116.672 E6.38071
G1 X165.399 Y172.113 E8.22468
G1 X165.387 Y172.84 E8.24887
G1 X165.342 Y173.667 E8.27641
G1 X165.21 Y174.631 E8.30878
G1 X164.994 Y175.58 E8.34115
G1 X164.695 Y176.506 E8.37351
G1 X164.344 Y177.339 E8.40358
G1 X163.855 Y178.263 E8.43835
G1 X163.364 Y179.02 E8.46836
G1 X162.647 Y179.925 E8.50676
G1 X161.941 Y180.727 E8.5423
G1 X160.45 Y182.457 E8.61826
G1 X159.947 Y182.989 E8.64261
G1 X159.227 Y183.645 E8.67501
G1 X158.51 Y184.194 E8.70504
G1 X157.626 Y184.752 E8.73981
G1 X156.759 Y185.196 E8.77221
G1 X155.923 Y185.536 E8.80223
G1 X154.936 Y185.84 E8.83658
G1 X154.368 Y185.97 E8.85596
G1 X153.352 Y186.126 E8.89015
G1 X152.495 Y186.184 E8.91871
G1 X151.888 Y186.197 E8.93891
G1 X149.442 Y186.197 E9.02026
G1 X146.858 Y186.234 E9.10622
G1 X144.29 Y186.343 E9.1917
G1 X141.816 Y186.518 E9.2742
G1 X139.313 Y186.766 E9.35785
G1 X136.839 Y187.083 E9.44081
G1 X134.132 Y187.509 E9.53195
G1 X132.856 Y187.729 E9.57502
G1 X132.412 Y187.791 E9.58993
G1 X131.345 Y187.882 E9.62555
G1 X130.67 Y187.897 E9.64801
G1 X119.949 Y187.896 E10.00459
G1 X119.213 Y187.884 E10.02907
G1 X118.196 Y187.82 E10.06296
G1 X117.697 Y187.753 E10.07971
G1 X116.685 Y187.595 E10.11377
G1 X114.075 Y187.223 E10.20146
G1 X111.623 Y186.944 E10.28354
G1 X109.075 Y186.726 E10.3686
G1 X106.613 Y186.586 E10.45062
G1 X104.048 Y186.513 E10.53596
G1 X101.558 Y186.513 E10.61878
G1 X99.023 Y186.584 E10.70313
G1 X96.542 Y186.724 E10.78578
G1 X93.983 Y186.939 E10.87119
G1 X91.498 Y187.222 E10.95438
G1 X89.01 Y187.576 E11.03796
G1 X87.689 Y187.784 E11.08244
G1 X86.545 Y187.882 E11.12063
G1 X85.87 Y187.897 E11.14308
G1 X75.15 Y187.896 E11.49963
G1 X74.414 Y187.884 E11.52412
G1 X73.449 Y187.825 E11.55627
G1 X72.671 Y187.716 E11.5824
G1 X71.991 Y187.574 E11.60551
G1 X69.465 Y186.922 E11.69227
G1 X67.005 Y186.357 E11.77622
G1 X65.796 Y186.114 E11.81724
G1 X64.963 Y185.935 E11.84558
G1 X64.021 Y185.685 E11.87799
G1 X63.106 Y185.354 E11.91036
G1 X62.223 Y184.942 E11.94277
G1 X61.38 Y184.454 E11.97516
G1 X60.584 Y183.893 E12.00755
G1 X59.841 Y183.265 E12.03991
G1 X59.155 Y182.573 E12.07232
G1 X58.534 Y181.823 E12.1047
G1 X57.981 Y181.021 E12.13711
G1 X57.517 Y180.202 E12.16841
G1 X57.045 Y179.15 E12.20676
G1 X56.438 Y177.561 E12.26334
G1 X55.448 Y175.106 E12.35138
G1 X55.137 Y174.258 E12.38142
G1 X54.931 Y173.529 E12.40662
G1 X54.759 Y172.694 E12.43497
G1 X54.645 Y171.764 E12.46614
G1 X54.613 Y171.191 E12.48523
G1 X54.6 Y170.567 E12.50598
G1 X54.601 Y118.691 E14.23139
G1 X54.611 Y117.967 E14.25547
G1 X54.644 Y117.275 E14.27851
G1 X54.732 Y116.357 E14.30918
G1 X54.948 Y113.838 E14.39327
G1 X55.089 Y111.323 E14.47705
G1 X55.161 Y108.789 E14.56137
G1 X55.161 Y106.279 E14.64485
G1 X55.089 Y103.767 E14.72844
G1 X54.947 Y101.273 E14.81152
G1 X54.653 Y97.856 E14.92559
G1 X54.613 Y97.237 E14.94622
G1 X54.6 Y96.613 E14.96698
G1 X54.601 Y44.737 E16.69238
G1 X54.613 Y44 E16.7169
G1 X54.683 Y42.938 E16.7523
G1 X54.835 Y41.981 E16.78453
G1 X55.027 Y41.191 E16.81157
G1 X55.411 Y40.068 E16.85104
G1 X56.096 Y38.395 E16.91117
G1 X57.123 Y35.74 E17.00585
G1 X57.69 Y34.56 E17.0494
G0 F6000 X58.051 Y34.733
G1 F1200 X58.544 Y33.935 E17.08059
G1 X59.105 Y33.184 E17.11177
G1 X59.731 Y32.484 E17.14301
G1 X60.417 Y31.843 E17.17423
G1 X61.127 Y31.286 E17.20425
G1 X61.944 Y30.755 E17.23666
G1 X62.774 Y30.316 E17.26788
G1 X63.638 Y29.953 E17.29905
G1 X64.498 Y29.676 E17.32911
G1 X65.212 Y29.506 E17.35352
G1 X65.812 Y29.385 E17.37388
G1 X68.372 Y28.831 E17.46099
G1 X70.949 Y28.197 E17.54926
G1 X72.318 Y27.847 E17.59626
G1 X73.134 Y27.701 E17.62383
G1 X74.289 Y27.602 E17.66238
G1 X74.921 Y27.588 E17.68341
G1 X94.498 Y27.588 E18.33454
G1 X95.354 Y27.599 E18.36302
G1 X95.918 Y27.623 E18.38179
G1 X96.958 Y27.721 E18.41654
G1 X98.435 Y27.888 E18.46597
G1 X100.97 Y28.106 E18.5506
G1 X103.443 Y28.247 E18.63299
G1 X106.011 Y28.32 E18.71843
G1 X108.524 Y28.322 E18.80202
G1 X111.055 Y28.251 E18.88623
G1 X113.559 Y28.111 E18.96964
G1 X116.138 Y27.891 E19.05573
G1 X118.215 Y27.665 E19.12522
G1 X119.114 Y27.601 E19.1552
G1 X119.73 Y27.588 E19.17569
G1 X130.445 Y27.589 E19.53207
G1 X131.16 Y27.6 E19.55586
G1 X132.071 Y27.654 E19.58621
G1 X132.831 Y27.759 E19.61173
G1 X135.464 Y28.21 E19.70058
G1 X137.946 Y28.563 E19.78396
G1 X140.478 Y28.85 E19.86871
G1 X142.991 Y29.065 E19.9526
G1 X145.468 Y29.204 E20.03512
G1 X149.435 Y29.288 E20.16709
G1 X151.644 Y29.289 E20.24056
G1 X152.363 Y29.3 E20.26448
G1 X153.3 Y29.356 E20.2957
G1 X154.228 Y29.495 E20.32691
G1 X155.141 Y29.716 E20.35815
G1 X156.029 Y30.016 E20.38933
G1 X156.889 Y30.394 E20.42057
G1 X157.712 Y30.847 E20.45182
G1 X158.49 Y31.37 E20.483
G1 X159.193 Y31.936 E20.51302
G1 X159.701 Y32.415 E20.53624
G1 X160.234 Y32.99 E20.56231
G1 X162.369 Y35.414 E20.66975
G1 X162.662 Y35.764 E20.68493
G1 X163.23 Y36.544 E20.71703
G1 X163.713 Y37.349 E20.74825
G1 X164.123 Y38.193 E20.77946
G1 X164.456 Y39.071 E20.81069
G1 X164.71 Y39.975 E20.84192
G1 X164.878 Y40.862 E20.87195
G1 X164.985 Y42.07 E20.91228
G1 X165 Y42.718 E20.93384
G1 X164.999 Y98.153 E22.77762
G1 X164.989 Y98.862 E22.8012
G1 X164.963 Y99.453 E22.82088
G1 X164.829 Y101.224 E22.87995
G1 X164.686 Y103.751 E22.96413
G1 X164.613 Y106.29 E23.04861
G1 X164.613 Y108.813 E23.13253
G1 X164.684 Y111.328 E23.21621
G1 X164.829 Y113.889 E23.30153
G1 X164.95 Y115.426 E23.35281
G1 X164.985 Y116.024 E23.37273
G1 X165 Y116.672 E23.39429
G1 X164.999 Y172.107 E25.23806
G1 X164.988 Y172.819 E25.26175
G1 X164.946 Y173.613 E25.28819
G1 X164.82 Y174.543 E25.31941
G1 X164.613 Y175.458 E25.35061
G1 X164.326 Y176.351 E25.38181
G1 X163.975 Y177.184 E25.41187
G1 X163.519 Y178.045 E25.44428
G1 X163.028 Y178.802 E25.47429
G1 X162.347 Y179.661 E25.51075
G1 X161.641 Y180.463 E25.54629
G1 X160.159 Y182.183 E25.6218
G1 X159.677 Y182.694 E25.64516
G1 X158.984 Y183.327 E25.67638
G1 X158.267 Y183.876 E25.70642
G1 X157.443 Y184.396 E25.73882
G1 X156.608 Y184.825 E25.77005
G1 X155.772 Y185.165 E25.80006
G1 X154.847 Y185.45 E25.83226
G1 X154.279 Y185.58 E25.85164
G1 X153.325 Y185.727 E25.88374
G1 X152.486 Y185.784 E25.91171
G1 X151.879 Y185.797 E25.9319
G1 X149.436 Y185.797 E26.01316
G1 X146.841 Y185.834 E26.09948
G1 X144.273 Y185.943 E26.18497
G1 X141.785 Y186.119 E26.26792
G1 X139.262 Y186.369 E26.35225
G1 X136.788 Y186.686 E26.43521
G1 X134.07 Y187.114 E26.52672
G1 X132.801 Y187.333 E26.56955
G1 X132.378 Y187.392 E26.58376
G1 X131.311 Y187.483 E26.61938
G1 X130.67 Y187.497 E26.6407
G1 X119.955 Y187.496 E26.99708
G1 X119.238 Y187.485 E27.02094
G1 X118.249 Y187.423 E27.05389
G1 X117.759 Y187.358 E27.07033
G1 X116.741 Y187.199 E27.1046
G1 X114.131 Y186.827 E27.19229
G1 X111.657 Y186.545 E27.27511
G1 X109.109 Y186.328 E27.36016
G1 X106.624 Y186.186 E27.44295
G1 X104.059 Y186.113 E27.52829
G1 X101.547 Y186.113 E27.61184
G1 X99.012 Y186.184 E27.69619
G1 X96.508 Y186.325 E27.77961
G1 X93.949 Y186.541 E27.86502
G1 X91.442 Y186.826 E27.94894
G1 X88.954 Y187.18 E28.03253
G1 X87.655 Y187.385 E28.07627
G1 X86.511 Y187.483 E28.11446
G1 X85.87 Y187.497 E28.13578
G1 X75.156 Y187.496 E28.49213
G1 X74.438 Y187.485 E28.51601
G1 X73.504 Y187.429 E28.54713
G1 X72.753 Y187.324 E28.57236
G1 X72.073 Y187.182 E28.59546
G1 X69.555 Y186.532 E28.68195
G1 X67.095 Y185.967 E28.7659
G1 X65.88 Y185.723 E28.80712
G1 X65.065 Y185.548 E28.83485
G1 X64.157 Y185.309 E28.86608
G1 X63.274 Y184.991 E28.89729
G1 X62.423 Y184.596 E28.9285
G1 X61.61 Y184.127 E28.95971
G1 X60.842 Y183.587 E28.99094
G1 X60.125 Y182.983 E29.02212
G1 X59.463 Y182.317 E29.05335
G1 X58.863 Y181.595 E29.08458
G1 X58.329 Y180.823 E29.1158
G1 X57.882 Y180.038 E29.14584
G1 X57.419 Y179.007 E29.18343
G1 X56.812 Y177.418 E29.24001
G1 X55.824 Y174.968 E29.32787
G1 X55.513 Y174.12 E29.35791
G1 X55.323 Y173.448 E29.38114
G1 X55.156 Y172.645 E29.40842
G1 X55.042 Y171.715 E29.43958
G1 X55.013 Y171.183 E29.4573
G1 X55 Y170.567 E29.4778
G1 X55.001 Y118.697 E31.203
G1 X55.011 Y117.986 E31.22665
G1 X55.044 Y117.294 E31.24969
G1 X55.131 Y116.391 E31.27987
G1 X55.346 Y113.872 E31.36395
G1 X55.489 Y111.334 E31.4485
G1 X55.561 Y108.8 E31.53282
G1 X55.561 Y106.279 E31.61667
G1 X55.489 Y103.756 E31.70061
G1 X55.346 Y101.239 E31.78447
G1 X55.052 Y97.83 E31.89827
G1 X55.013 Y97.229 E31.9183
G1 X55 Y96.613 E31.93879
G1 X55.001 Y44.743 E33.664
G1 X55.012 Y44.026 E33.68785
G1 X55.078 Y43 E33.72204
G1 X55.224 Y42.075 E33.75319
G1 X55.416 Y41.285 E33.78023
G1 X55.781 Y40.22 E33.81767
G1 X56.466 Y38.547 E33.8778
G1 X57.484 Y35.913 E33.97173
G1 X58.051 Y34.733 E34.01527
G0 F6000 X58.392 Y34.943
G1 F1200 X58.865 Y34.174 E34.0453
G1 X59.404 Y33.45 E34.07532
G1 X60.005 Y32.776 E34.10535
G1 X60.664 Y32.158 E34.1354
G1 X61.374 Y31.601 E34.16541
G1 X62.131 Y31.108 E34.19546
G1 X62.929 Y30.685 E34.2255
G1 X63.761 Y30.334 E34.25554
G1 X64.621 Y30.057 E34.28559
G1 X65.291 Y29.898 E34.30849
G1 X65.897 Y29.776 E34.32905
G1 X68.457 Y29.222 E34.41617
G1 X71.05 Y28.584 E34.50498
G1 X72.389 Y28.241 E34.55096
G1 X73.168 Y28.1 E34.57729
G1 X74.323 Y28.001 E34.61584
G1 X74.93 Y27.988 E34.63604
G1 X94.493 Y27.988 E35.2867
G1 X95.337 Y27.999 E35.31478
G1 X95.901 Y28.023 E35.33355
G1 X96.913 Y28.118 E35.36736
G1 X98.401 Y28.287 E35.41717
G1 X100.936 Y28.504 E35.50179
G1 X103.432 Y28.647 E35.58495
G1 X106 Y28.72 E35.67039
G1 X108.535 Y28.722 E35.75471
G1 X111.066 Y28.651 E35.83892
G1 X113.593 Y28.509 E35.9231
G1 X116.172 Y28.29 E36.00919
G1 X118.244 Y28.064 E36.07851
G1 X119.123 Y28.001 E36.10782
G1 X119.73 Y27.988 E36.12802
G1 X130.439 Y27.989 E36.4842
G1 X131.137 Y27.999 E36.50742
G1 X132.016 Y28.05 E36.5367
G1 X132.763 Y28.153 E36.56178
G1 X135.408 Y28.606 E36.65104
G1 X137.89 Y28.959 E36.73442
G1 X140.444 Y29.249 E36.81991
G1 X142.957 Y29.463 E36.9038
G1 X145.46 Y29.604 E36.98718
G1 X149.427 Y29.688 E37.11915
G1 X151.638 Y29.689 E37.19269
G1 X152.34 Y29.699 E37.21604
G1 X153.242 Y29.752 E37.24609
G1 X154.135 Y29.884 E37.27612
G1 X155.013 Y30.095 E37.30615
G1 X155.869 Y30.383 E37.33619
G1 X156.697 Y30.745 E37.36625
G1 X157.489 Y31.179 E37.39628
G1 X158.239 Y31.682 E37.42632
G1 X158.942 Y32.248 E37.45634
G1 X159.408 Y32.687 E37.47763
G1 X159.934 Y33.254 E37.50336
G1 X162.062 Y35.671 E37.61046
G1 X162.355 Y36.021 E37.62564
G1 X162.887 Y36.751 E37.65569
G1 X163.353 Y37.524 E37.68571
G1 X163.749 Y38.336 E37.71576
G1 X164.071 Y39.18 E37.7458
G1 X164.317 Y40.049 E37.77584
G1 X164.485 Y40.936 E37.80587
G1 X164.585 Y42.079 E37.84403
G1 X164.6 Y42.718 E37.86529
G1 X164.599 Y98.147 E39.70886
G1 X164.589 Y98.845 E39.73208
G1 X164.564 Y99.423 E39.75132
G1 X164.43 Y101.194 E39.8104
G1 X164.286 Y103.74 E39.89521
G1 X164.213 Y106.279 E39.97969
G1 X164.213 Y108.813 E40.06397
G1 X164.284 Y111.339 E40.14802
G1 X164.43 Y113.921 E40.23404
G1 X164.551 Y115.449 E40.28502
G1 X164.585 Y116.033 E40.30448
G1 X164.6 Y116.672 E40.32573
G1 X164.599 Y172.101 E42.16931
G1 X164.589 Y172.799 E42.19253
G1 X164.55 Y173.56 E42.21787
G1 X164.43 Y174.455 E42.24791
G1 X164.232 Y175.336 E42.27794
G1 X163.957 Y176.196 E42.30797
G1 X163.606 Y177.029 E42.33804
G1 X163.183 Y177.827 E42.36808
G1 X162.692 Y178.584 E42.39809
G1 X162.047 Y179.397 E42.4326
G1 X161.341 Y180.199 E42.46814
G1 X159.868 Y181.909 E42.54321
G1 X159.407 Y182.399 E42.56558
G1 X158.741 Y183.009 E42.59562
G1 X158.024 Y183.558 E42.62566
G1 X157.26 Y184.04 E42.6557
G1 X156.457 Y184.454 E42.68575
G1 X155.621 Y184.794 E42.71577
G1 X154.758 Y185.06 E42.7458
G1 X154.19 Y185.19 E42.76518
G1 X153.298 Y185.328 E42.7952
G1 X152.477 Y185.384 E42.82257
G1 X151.87 Y185.397 E42.84277
G1 X149.43 Y185.397 E42.92392
G1 X146.824 Y185.434 E43.01061
G1 X144.256 Y185.543 E43.0961
G1 X141.754 Y185.72 E43.17952
G1 X139.211 Y185.972 E43.26452
G1 X136.737 Y186.289 E43.34747
G1 X134.008 Y186.719 E43.43936
G1 X132.746 Y186.937 E43.48196
G1 X132.344 Y186.993 E43.49546
G1 X131.277 Y187.084 E43.53107
G1 X130.67 Y187.097 E43.55127
G1 X119.961 Y187.096 E43.90745
G1 X119.263 Y187.086 E43.93067
G1 X118.274 Y187.024 E43.96363
G1 X117.821 Y186.963 E43.97883
G1 X116.797 Y186.803 E44.0133
G1 X114.187 Y186.431 E44.10099
G1 X111.691 Y186.146 E44.18454
G1 X109.143 Y185.93 E44.2696
G1 X106.635 Y185.786 E44.35315
G1 X104.07 Y185.713 E44.4385
G1 X101.536 Y185.713 E44.52278
G1 X99.001 Y185.784 E44.60712
G1 X96.474 Y185.926 E44.69131
G1 X93.915 Y186.143 E44.77672
G1 X91.386 Y186.43 E44.86138
G1 X88.891 Y186.785 E44.9452
G1 X87.621 Y186.986 E44.98796
G1 X86.477 Y187.084 E45.02615
G1 X85.87 Y187.097 E45.04635
G1 X75.162 Y187.096 E45.4025
G1 X74.461 Y187.086 E45.42581
G1 X73.559 Y187.033 E45.45587
G1 X72.835 Y186.932 E45.48018
G1 X72.155 Y186.79 E45.50329
G1 X69.645 Y186.142 E45.58951
G1 X67.185 Y185.577 E45.67346
G1 X65.964 Y185.332 E45.71488
G1 X65.166 Y185.161 E45.74202
G1 X64.292 Y184.933 E45.77206
