;FLAVOR:Marlin
;TIME:22046
;Filament used: 14.0156m
;Layer height: 0.2
;MINX:55.94
;MINY:39
;MINZ:0.2
;MAXX:164.06
;MAXY:181
;MAXZ:29
;TARGET_MACHINE.NAME:Creality Ender-3 Pro
;Generated with Cura_SteamEngine 5.10.1
; Ender 3 Custom Start G-code
G92 E0 ; Reset Extruder
G28 ; Home all axes
M420 S1 Z10 ; use bed levelling
M104 S175 ; Start heating up the nozzle most of the way
M190 S60 ; Start heating the bed, wait until target temperature reached
M109 S200 ; Finish heating the nozzle

G1 Z2.0 F3000 ; Move Z Axis up little to prevent scratching of Heat Bed
G1 X0.1 Y20 Z0.3 F5000.0 ; Move to start position

G1 F3000 Z20 ; Move Z Axis up 20 mm to allow filament ooze freely
G1 F300 E50 ; Slowly extrude a 50mm spaghetti

G1 X0.1 Y20 Z0.3 F5000.0 ; Move to start position
; G1 X0.1 Y200.0 Z0.3 F1500.0 E15 ; Draw the first line
; G1 X0.4 Y200.0 Z0.3 F5000.0 ; Move to side a little
; G1 X0.4 Y20 Z0.3 F1500.0 E30 ; Draw the second line
; G92 E0 ; Reset Extruder
G1 Z2.0 F3000 ; Move Z Axis up little to prevent scratching of Heat Bed
G1 X5 Y20 Z0.3 F5000.0 ; Move over to prevent blob squish
M82 ;absolute extrusion mode
G92 E0
G92 E0
G1 F1500 E-6.5
;LAYER_COUNT:145
;LAYER:0
M107
G0 F6000 X58.116 Y43.454 Z0.2
;TYPE:SKIRT
G1 F1500 E0
G1 F1200 X58.707 Y42.726 E0.03119
G1 X59.409 Y42.001 E0.06475
G1 X60.119 Y41.387 E0.09597
G1 X60.938 Y40.797 E0.12955
G1 X61.777 Y40.301 E0.16196
G1 X62.591 Y39.91 E0.192
G1 X63.568 Y39.542 E0.22672
G1 X64.472 Y39.292 E0.25792
G1 X65.474 Y39.109 E0.2918
G1 X66.645 Y39.013 E0.33087
G1 X67.252 Y39 E0.35107
G1 X152.364 Y39 E3.1819
G1 X153.244 Y39.013 E3.21118
G1 X154.216 Y39.072 E3.24356
G1 X155.179 Y39.218 E3.27596
G1 X156.126 Y39.449 E3.30838
G1 X157.014 Y39.749 E3.33956
G1 X157.906 Y40.139 E3.37194
G1 X158.789 Y40.626 E3.40547
G1 X159.54 Y41.128 E3.43552
G1 X160.355 Y41.786 E3.47036
G1 X161.053 Y42.464 E3.50272
G1 X161.689 Y43.201 E3.5351
G1 X162.259 Y43.991 E3.5675
G1 X162.721 Y44.767 E3.59754
G1 X163.175 Y45.709 E3.63232
G1 X163.504 Y46.587 E3.66351
G1 X163.773 Y47.559 E3.69705
G1 X163.95 Y48.525 E3.72971
G1 X164.045 Y49.655 E3.76743
G1 X164.06 Y50.33 E3.78989
G1 X164.059 Y169.416 E7.7507
G1 X164.047 Y170.177 E7.77602
G1 X163.989 Y171.15 E7.80844
G1 X163.843 Y172.113 E7.84083
G1 X163.612 Y173.06 E7.87325
G1 X163.299 Y173.982 E7.90564
G1 X162.907 Y174.873 E7.93801
G1 X162.455 Y175.695 E7.96921
G1 X161.893 Y176.533 E8.00277
G1 X161.303 Y177.263 E8.03399
G1 X160.6 Y177.989 E8.0676
G1 X159.864 Y178.625 E8.09996
G1 X159.074 Y179.195 E8.13236
G1 X158.298 Y179.658 E8.16241
G1 X157.358 Y180.111 E8.19712
G1 X156.445 Y180.453 E8.22955
G1 X155.507 Y180.712 E8.26191
G1 X154.541 Y180.889 E8.29458
G1 X153.405 Y180.985 E8.33249
G1 X152.73 Y181 E8.35495
G1 X67.489 Y180.999 E11.19008
G1 X66.756 Y180.987 E11.21446
G1 X65.784 Y180.928 E11.24685
G1 X64.821 Y180.782 E11.27924
G1 X63.874 Y180.551 E11.31166
G1 X62.986 Y180.251 E11.34284
G1 X62.094 Y179.861 E11.37522
G1 X61.211 Y179.374 E11.40876
G1 X60.46 Y178.872 E11.4388
G1 X59.645 Y178.214 E11.47364
G1 X58.947 Y177.536 E11.50601
G1 X58.311 Y176.799 E11.53839
G1 X57.741 Y176.009 E11.57079
G1 X57.279 Y175.233 E11.60082
G1 X56.825 Y174.291 E11.6356
G1 X56.496 Y173.413 E11.66679
G1 X56.227 Y172.44 E11.70037
G1 X56.05 Y171.473 E11.73306
G1 X55.954 Y170.308 E11.77194
G1 X55.94 Y169.658 E11.79357
G1 X55.941 Y50.509 E15.75648
G1 X55.953 Y49.808 E15.7798
G1 X56.013 Y48.835 E15.81222
G1 X56.16 Y47.874 E15.84455
G1 X56.391 Y46.926 E15.87701
G1 X56.693 Y46.037 E15.90824
G1 X57.1 Y45.115 E15.94176
G1 X57.571 Y44.263 E15.97414
G1 X58.116 Y43.454 E16.00658
G0 F6000 X58.427 Y43.706
G1 F1200 X59.018 Y42.978 E16.03777
G1 X59.671 Y42.304 E16.06898
G1 X60.381 Y41.69 E16.1002
G1 X61.142 Y41.141 E16.13141
G1 X61.95 Y40.662 E16.16265
G1 X62.764 Y40.271 E16.19269
G1 X63.675 Y39.928 E16.22506
G1 X64.579 Y39.678 E16.25626
G1 X65.507 Y39.508 E16.28764
G1 X66.654 Y39.413 E16.32592
G1 X67.261 Y39.4 E16.34611
G1 X152.358 Y39.4 E19.17645
G1 X153.22 Y39.412 E19.20512
G1 X154.157 Y39.468 E19.23634
G1 X155.085 Y39.607 E19.26755
G1 X155.998 Y39.828 E19.2988
G1 X156.854 Y40.116 E19.32883
G1 X157.746 Y40.506 E19.36121
G1 X158.567 Y40.959 E19.3924
G1 X159.318 Y41.461 E19.42245
G1 X160.077 Y42.073 E19.45488
G1 X160.751 Y42.726 E19.48609
G1 X161.365 Y43.435 E19.51728
G1 X161.915 Y44.196 E19.54851
G1 X162.377 Y44.972 E19.57855
G1 X162.8 Y45.849 E19.61094
G1 X163.129 Y46.727 E19.64212
G1 X163.38 Y47.632 E19.67336
G1 X163.551 Y48.559 E19.70471
G1 X163.646 Y49.689 E19.74243
G1 X163.66 Y50.33 E19.76375
G1 X163.659 Y169.41 E23.72437
G1 X163.648 Y170.154 E23.74912
G1 X163.593 Y171.091 E23.78033
G1 X163.454 Y172.019 E23.81154
G1 X163.233 Y172.932 E23.84279
G1 X162.933 Y173.821 E23.87399
G1 X162.556 Y174.68 E23.9052
G1 X162.104 Y175.502 E23.9364
G1 X161.581 Y176.282 E23.96763
G1 X161.015 Y176.985 E23.99765
G1 X160.338 Y177.687 E24.03009
G1 X159.63 Y178.301 E24.06126
G1 X158.869 Y178.851 E24.09249
G1 X158.093 Y179.314 E24.12254
G1 X157.217 Y179.737 E24.1549
G1 X156.338 Y180.068 E24.18614
G1 X155.434 Y180.319 E24.21734
G1 X154.507 Y180.49 E24.24869
G1 X153.371 Y180.586 E24.28661
G1 X152.73 Y180.6 E24.30794
G1 X67.495 Y180.599 E27.14286
G1 X66.78 Y180.588 E27.16665
G1 X65.843 Y180.532 E27.19787
G1 X64.915 Y180.393 E27.22908
G1 X64.002 Y180.172 E27.26032
G1 X63.146 Y179.884 E27.29036
G1 X62.254 Y179.494 E27.32274
G1 X61.433 Y179.041 E27.35393
G1 X60.682 Y178.539 E27.38397
G1 X59.923 Y177.927 E27.4164
G1 X59.249 Y177.274 E27.44761
G1 X58.635 Y176.565 E27.47881
G1 X58.085 Y175.804 E27.51004
G1 X57.623 Y175.028 E27.54008
G1 X57.2 Y174.151 E27.57246
G1 X56.871 Y173.273 E27.60365
G1 X56.62 Y172.368 E27.63488
G1 X56.449 Y171.44 E27.66627
G1 X56.353 Y170.275 E27.70515
G1 X56.34 Y169.658 E27.72567
G1 X56.341 Y50.515 E31.68838
G1 X56.352 Y49.832 E31.7111
G1 X56.409 Y48.895 E31.74233
G1 X56.549 Y47.968 E31.77351
G1 X56.77 Y47.055 E31.80475
G1 X57.072 Y46.166 E31.83598
G1 X57.45 Y45.308 E31.86716
G1 X57.903 Y44.486 E31.89838
G1 X58.427 Y43.706 E31.92963
G0 F6000 X58.738 Y43.958
G1 F1200 X59.306 Y43.256 E31.95967
G1 X59.933 Y42.606 E31.98971
G1 X60.615 Y42.014 E32.01974
G1 X61.347 Y41.485 E32.04978
G1 X62.123 Y41.023 E32.07982
G1 X62.937 Y40.632 E32.10985
G1 X63.782 Y40.313 E32.1399
G1 X64.652 Y40.071 E32.16993
G1 X65.54 Y39.907 E32.19997
G1 X66.663 Y39.813 E32.23745
G1 X67.27 Y39.8 E32.25764
G1 X152.353 Y39.8 E35.08751
G1 X153.197 Y39.811 E35.11559
G1 X154.099 Y39.864 E35.14564
G1 X154.992 Y39.996 E35.17566
G1 X155.87 Y40.207 E35.2057
G1 X156.726 Y40.495 E35.23574
G1 X157.553 Y40.857 E35.26576
G1 X158.345 Y41.292 E35.29582
G1 X159.096 Y41.794 E35.32586
G1 X159.799 Y42.361 E35.3559
G1 X160.449 Y42.988 E35.38594
G1 X161.041 Y43.67 E35.41597
G1 X161.571 Y44.401 E35.44601
G1 X162.033 Y45.177 E35.47604
G1 X162.426 Y45.99 E35.50608
G1 X162.744 Y46.835 E35.53611
G1 X162.987 Y47.705 E35.56615
G1 X163.152 Y48.593 E35.59619
G1 X163.247 Y49.723 E35.63391
G1 X163.26 Y50.33 E35.6541
G1 X163.259 Y169.404 E39.61452
G1 X163.249 Y170.131 E39.6387
G1 X163.197 Y171.033 E39.66875
G1 X163.065 Y171.926 E39.69878
G1 X162.854 Y172.805 E39.72884
G1 X162.567 Y173.661 E39.75887
G1 X162.205 Y174.488 E39.7889
G1 X161.771 Y175.28 E39.81893
G1 X161.269 Y176.031 E39.84898
G1 X160.703 Y176.734 E39.879
G1 X160.076 Y177.385 E39.90906
G1 X159.395 Y177.977 E39.93907
G1 X158.664 Y178.507 E39.9691
G1 X157.888 Y178.97 E39.99916
G1 X157.075 Y179.363 E40.02919
G1 X156.23 Y179.683 E40.05924
G1 X155.361 Y179.926 E40.08926
G1 X154.473 Y180.091 E40.1193
G1 X153.337 Y180.187 E40.15721
G1 X152.73 Y180.2 E40.17741
G1 X67.501 Y180.199 E43.01214
G1 X66.803 Y180.189 E43.03535
G1 X65.901 Y180.136 E43.06541
G1 X65.008 Y180.004 E43.09543
G1 X64.13 Y179.793 E43.12546
G1 X63.274 Y179.505 E43.1555
G1 X62.447 Y179.143 E43.18553
G1 X61.655 Y178.708 E43.21558
G1 X60.904 Y178.206 E43.24563
G1 X60.201 Y177.639 E43.27567
G1 X59.551 Y177.012 E43.3057
G1 X58.959 Y176.33 E43.33574
G1 X58.429 Y175.599 E43.36577
G1 X57.967 Y174.823 E43.39581
G1 X57.574 Y174.01 E43.42584
G1 X57.256 Y173.165 E43.45587
G1 X57.013 Y172.295 E43.48592
G1 X56.848 Y171.407 E43.51596
G1 X56.753 Y170.266 E43.55404
G1 X56.74 Y169.658 E43.57427
G1 X56.741 Y50.521 E47.53678
G1 X56.751 Y49.856 E47.5589
G1 X56.805 Y48.954 E47.58895
G1 X56.938 Y48.061 E47.61898
G1 X57.149 Y47.183 E47.64902
G1 X57.438 Y46.327 E47.67907
G1 X57.801 Y45.5 E47.7091
G1 X58.235 Y44.709 E47.73911
G1 X58.738 Y43.958 E47.76918
G1 F1500 E41.26918
;MESH:1.1_etho_v1.8_LIGHT_BOX.stl
G0 F6000 X72.019 Y75.507
G0 X75.397 Y92.246
;TYPE:WALL-INNER
G1 F1500 E47.76918
G1 F1200 X74.607 Y92.248 E47.79545
G1 X74.094 Y92.161 E47.81276
G1 X73.509 Y91.911 E47.83392
G1 X73.056 Y91.585 E47.85248
G1 X72.606 Y91.083 E47.8749
G1 X72.321 Y90.456 E47.89781
G1 X72.2 Y89.873 E47.91761
G1 X72.2 Y75.527 E48.39476
G1 X72.321 Y74.948 E48.41444
G1 X72.542 Y74.454 E48.43244
G1 X72.855 Y74.011 E48.45048
G1 X73.255 Y73.648 E48.46844
G1 X73.743 Y73.368 E48.48716
G1 X74.181 Y73.225 E48.50248
G1 X74.601 Y73.148 E48.51668
G1 X75.386 Y73.149 E48.54279
G1 X75.914 Y73.233 E48.56058
G1 X76.477 Y73.481 E48.58104
G1 X76.939 Y73.814 E48.59998
G1 X77.394 Y74.313 E48.62244
G1 X77.676 Y74.947 E48.64552
G1 X77.795 Y75.5 E48.66433
G1 X77.796 Y89.881 E49.14265
G1 X77.675 Y90.442 E49.16173
G1 X77.471 Y90.914 E49.17884
G1 X77.139 Y91.387 E49.19806
G1 X76.739 Y91.749 E49.216
G1 X76.257 Y92.023 E49.23444
G1 X75.774 Y92.183 E49.25136
G1 X75.397 Y92.246 E49.26408
G1 F1500 E42.76408
G0 F6000 X75.818 Y92.358
G0 X75.818 Y169.2
G0 X110 Y169.4
G1 F1500 E49.26408
G1 F1200 X152.412 Y169.4 E50.67471
G1 X152.412 Y50.6 E54.62601
G1 X67.588 Y50.6 E57.44727
G1 X67.588 Y169.4 E61.39857
G1 X110 Y169.4 E62.8092
G0 F6000 X110 Y169.8
;TYPE:WALL-OUTER
G1 F1200 X152.812 Y169.8 E64.23313
G1 X152.812 Y50.2 E68.21105
G1 X67.188 Y50.2 E71.05891
G1 X67.188 Y169.8 E75.03682
G1 X110 Y169.8 E76.46076
G1 F1500 E69.96076
G0 F6000 X110 Y169.49
G0 X75.362 Y169.2
G0 X75.082 Y92.446
G0 X75.362 Y91.848
G1 F1500 E76.46076
G1 F1200 X74.628 Y91.846 E76.48517
G1 X74.204 Y91.777 E76.49946
G1 X73.723 Y91.568 E76.5169
G1 X73.311 Y91.27 E76.53381
G1 X72.945 Y90.861 E76.55207
G1 X72.713 Y90.351 E76.5707
G1 X72.603 Y89.847 E76.58786
G1 X72.604 Y75.551 E77.06335
G1 X72.713 Y75.05 E77.0804
G1 X72.9 Y74.64 E77.09539
G1 X73.173 Y74.263 E77.11087
G1 X73.477 Y73.987 E77.12453
G1 X73.925 Y73.729 E77.14172
G1 X74.305 Y73.605 E77.15502
G1 X74.623 Y73.55 E77.16575
G1 X75.353 Y73.548 E77.19003
G1 X75.785 Y73.616 E77.20458
G1 X76.303 Y73.842 E77.22337
G1 X76.671 Y74.111 E77.23853
G1 X77.053 Y74.535 E77.25752
G1 X77.294 Y75.077 E77.27724
G1 X77.399 Y75.556 E77.29355
G1 X77.4 Y89.822 E77.76804
G1 X77.291 Y90.33 E77.78532
G1 X77.099 Y90.757 E77.8009
G1 X76.823 Y91.133 E77.81641
G1 X76.504 Y91.421 E77.8307
G1 X76.091 Y91.659 E77.84656
G1 X75.677 Y91.795 E77.86105
G1 X75.362 Y91.848 E77.87167
G1 F1500 E71.37167
G0 F6000 X75.362 Y92.16
G0 X75.818 Y92.358
G0 X75.818 Y169.2
G0 X110 Y169.04
;TYPE:SKIN
G1 F1500 E77.87167
G1 F1200 X67.948 Y169.04 E79.27033
G1 X67.948 Y50.96 E83.19769
G1 X152.052 Y50.96 E85.995
G1 X152.052 Y169.04 E89.92235
G1 X110 Y169.04 E91.32101
G1 F1500 E84.82101
G0 F6000 X110 Y169.3
G0 X75.406 Y169.2
G0 X75.126 Y92.446
G0 X75.426 Y92.604
G1 F1500 E91.32101
G1 F1200 X75.861 Y92.531 E91.33568
G1 X76.405 Y92.35 E91.35475
G1 X76.971 Y92.02 E91.37654
G1 X77.408 Y91.616 E91.39633
G1 X77.769 Y91.127 E91.41655
G1 X78.015 Y90.571 E91.43677
G1 X78.16 Y89.898 E91.45967
G1 X78.156 Y75.482 E91.93915
G1 X78.007 Y74.818 E91.96178
G1 X77.695 Y74.111 E91.98748
G1 X77.183 Y73.547 E92.01282
G1 X76.662 Y73.166 E92.03429
G1 X75.993 Y72.88 E92.05849
G1 X75.413 Y72.788 E92.07802
G1 X74.556 Y72.79 E92.10652
G1 X74.125 Y72.861 E92.12105
G1 X73.613 Y73.029 E92.13897
G1 X73.024 Y73.368 E92.16158
G1 X72.573 Y73.787 E92.18205
G1 X72.233 Y74.259 E92.2014
G1 X71.981 Y74.819 E92.22182
G1 X71.844 Y75.463 E92.24372
G1 X71.842 Y89.923 E92.72466
G1 X71.985 Y90.595 E92.74752
G1 X72.293 Y91.274 E92.77231
G1 X72.803 Y91.842 E92.7977
G1 X73.307 Y92.211 E92.81848
G1 X73.974 Y92.497 E92.84262
G1 X74.557 Y92.605 E92.86234
G1 X75.426 Y92.604 E92.89124
G1 F1500 E86.39124
G0 F6000 X75.406 Y92.346
G0 X74.594 Y92.429
G0 X74.594 Y169.2
G0 X68.713 Y168.839
G1 F1500 E92.89124
G1 F1200 X68.147 Y168.274 E92.91784
G0 F6000 X68.147 Y167.708
G1 F1200 X69.279 Y168.839 E92.97106
G0 F6000 X69.844 Y168.839
G1 F1200 X68.147 Y167.142 E93.05088
G0 F6000 X68.147 Y166.577
G1 F1200 X70.41 Y168.839 E93.15731
G0 F6000 X70.976 Y168.839
G1 F1200 X68.147 Y166.011 E93.29035
G0 F6000 X68.147 Y165.445
G1 F1200 X71.542 Y168.839 E93.45002
G0 F6000 X72.107 Y168.839
G1 F1200 X68.147 Y164.88 E93.63626
G0 F6000 X68.147 Y164.314
G1 F1200 X72.673 Y168.839 E93.84912
G0 F6000 X73.239 Y168.839
G1 F1200 X68.147 Y163.748 E94.08861
G0 F6000 X68.147 Y163.183
G1 F1200 X73.804 Y168.839 E94.35468
G0 F6000 X74.37 Y168.839
G1 F1200 X68.147 Y162.617 E94.64736
G0 F6000 X68.147 Y162.051
G1 F1200 X74.936 Y168.839 E94.96667
G0 F6000 X75.501 Y168.839
G1 F1200 X68.147 Y161.486 E95.31256
G0 F6000 X68.147 Y160.92
G1 F1200 X76.067 Y168.839 E95.68507
G0 F6000 X76.633 Y168.839
G1 F1200 X68.147 Y160.354 E96.0842
G0 F6000 X68.147 Y159.788
G1 F1200 X77.198 Y168.839 E96.50993
G0 F6000 X77.764 Y168.839
G1 F1200 X68.147 Y159.223 E96.96226
G0 F6000 X68.147 Y158.657
G1 F1200 X78.33 Y168.839 E97.44122
G0 F6000 X78.895 Y168.839
G1 F1200 X68.147 Y158.091 E97.94677
G0 F6000 X68.147 Y157.526
G1 F1200 X79.461 Y168.839 E98.47892
G0 F6000 X80.027 Y168.839
G1 F1200 X68.147 Y156.96 E99.0377
G0 F6000 X68.147 Y156.394
G1 F1200 X80.592 Y168.839 E99.62307
G0 F6000 X81.158 Y168.839
G1 F1200 X68.147 Y155.829 E100.23505
G0 F6000 X68.147 Y155.263
G1 F1200 X81.724 Y168.839 E100.87364
G0 F6000 X82.29 Y168.839
G1 F1200 X68.147 Y154.697 E101.53886
G0 F6000 X68.147 Y154.132
G1 F1200 X82.855 Y168.839 E102.23066
G0 F6000 X83.421 Y168.839
G1 F1200 X68.147 Y153.566 E102.94908
G0 F6000 X68.147 Y153
G1 F1200 X83.987 Y168.839 E103.69412
G0 F6000 X84.552 Y168.839
G1 F1200 X68.147 Y152.435 E104.46574
G0 F6000 X68.147 Y151.869
G1 F1200 X85.118 Y168.839 E105.26398
G0 F6000 X85.684 Y168.839
G1 F1200 X68.147 Y151.303 E106.08884
G0 F6000 X68.147 Y150.737
G1 F1200 X86.249 Y168.839 E106.9403
G0 F6000 X86.815 Y168.839
G1 F1200 X68.147 Y150.172 E107.81836
G0 F6000 X68.147 Y149.606
G1 F1200 X87.381 Y168.839 E108.72305
G0 F6000 X87.946 Y168.839
G1 F1200 X68.147 Y149.04 E109.65433
G0 F6000 X68.147 Y148.475
G1 F1200 X88.512 Y168.839 E110.61222
G0 F6000 X89.078 Y168.839
G1 F1200 X68.147 Y147.909 E111.59672
G0 F6000 X68.147 Y147.343
G1 F1200 X89.643 Y168.839 E112.60783
G0 F6000 X90.209 Y168.839
G1 F1200 X68.147 Y146.778 E113.64554
G0 F6000 X68.147 Y146.212
G1 F1200 X90.775 Y168.839 E114.70986
G0 F6000 X91.341 Y168.839
G1 F1200 X68.147 Y145.646 E115.80081
G0 F6000 X68.147 Y145.081
G1 F1200 X91.906 Y168.839 E116.91834
G0 F6000 X92.472 Y168.839
G1 F1200 X68.147 Y144.515 E118.06249
G0 F6000 X68.147 Y143.949
G1 F1200 X93.038 Y168.839 E119.23326
G0 F6000 X93.603 Y168.839
G1 F1200 X68.147 Y143.384 E120.43061
G0 F6000 X68.147 Y142.818
G1 F1200 X94.169 Y168.839 E121.65458
G0 F6000 X94.735 Y168.839
G1 F1200 X68.147 Y142.252 E122.90518
G0 F6000 X68.147 Y141.687
G1 F1200 X95.3 Y168.839 E124.18235
G0 F6000 X95.866 Y168.839
G1 F1200 X68.147 Y141.121 E125.48614
G0 F6000 X68.147 Y140.555
G1 F1200 X96.432 Y168.839 E126.81656
G0 F6000 X96.997 Y168.839
G1 F1200 X68.147 Y139.989 E128.17357
G0 F6000 X68.147 Y139.424
G1 F1200 X97.563 Y168.839 E129.55719
G0 F6000 X98.129 Y168.839
G1 F1200 X68.147 Y138.858 E130.96743
G0 F6000 X68.147 Y138.292
G1 F1200 X98.694 Y168.839 E132.40426
G0 F6000 X99.26 Y168.839
G1 F1200 X68.147 Y137.727 E133.8677
G0 F6000 X68.147 Y137.161
G1 F1200 X99.826 Y168.839 E135.35776
G0 F6000 X100.391 Y168.839
G1 F1200 X68.147 Y136.595 E136.87442
G0 F6000 X68.147 Y136.03
G1 F1200 X100.957 Y168.839 E138.41768
G0 F6000 X101.523 Y168.839
G1 F1200 X68.147 Y135.464 E139.98756
G0 F6000 X68.147 Y134.898
G1 F1200 X102.089 Y168.839 E141.58406
G0 F6000 X102.654 Y168.839
G1 F1200 X68.147 Y134.333 E143.20714
G0 F6000 X68.147 Y133.767
G1 F1200 X103.22 Y168.839 E144.85685
G0 F6000 X103.786 Y168.839
