;FLAVOR:Marlin
;TIME:4791
;Filament used: 2.54917m
;Layer height: 0.2
;MINX:60.25
;MINY:57.45
;MINZ:0.2
;MAXX:159.75
;MAXY:162.55
;MAXZ:9
;TARGET_MACHINE.NAME:Creality Ender-3 Pro
;Generated with Cura_SteamEngine 5.10.1
; Ender 3 Custom Start G-code
G92 E0 ; Reset Extruder
G28 ; Home all axes
M420 S1 Z10 ; use bed levelling
M104 S175 ; Start heating up the nozzle most of the way
M190 S60 ; Start heating the bed, wait until target temperature reached
M109 S200 ; Finish heating the nozzle

G1 Z2.0 F3000 ; Move Z Axis up little to prevent scratching of Heat Bed
G1 X0.1 Y20 Z0.3 F5000.0 ; Move to start position

G1 F3000 Z20 ; Move Z Axis up 20 mm to allow filament ooze freely
G1 F300 E50 ; Slowly extrude a 50mm spaghetti

G1 X0.1 Y20 Z0.3 F5000.0 ; Move to start position
; G1 X0.1 Y200.0 Z0.3 F1500.0 E15 ; Draw the first line
; G1 X0.4 Y200.0 Z0.3 F5000.0 ; Move to side a little
; G1 X0.4 Y20 Z0.3 F1500.0 E30 ; Draw the second line
; G92 E0 ; Reset Extruder
G1 Z2.0 F3000 ; Move Z Axis up little to prevent scratching of Heat Bed
G1 X5 Y20 Z0.3 F5000.0 ; Move over to prevent blob squish
M82 ;absolute extrusion mode
G92 E0
G92 E0
G1 F1500 E-6.5
;LAYER_COUNT:45
;LAYER:0
M107
G0 F6000 X86.349 Y61.938 Z0.2
;TYPE:SKIRT
G1 F1500 E0
G1 F1200 X86.779 Y61.391 E0.02314
G1 X87.436 Y60.673 E0.05551
G1 X88.129 Y60.039 E0.08675
G1 X88.931 Y59.427 E0.12031
G1 X89.755 Y58.906 E0.15273
G1 X90.59 Y58.476 E0.18397
G1 X91.529 Y58.094 E0.21769
G1 X92.576 Y57.78 E0.25404
G1 X93.461 Y57.6 E0.28408
G1 X94.905 Y57.463 E0.33232
G1 X95.512 Y57.45 E0.35252
G1 X124.104 Y57.45 E1.30349
G1 X124.986 Y57.463 E1.33283
G1 X125.958 Y57.522 E1.36522
G1 X126.921 Y57.668 E1.39761
G1 X127.869 Y57.899 E1.43007
G1 X128.725 Y58.187 E1.4601
G1 X129.681 Y58.606 E1.49482
G1 X130.534 Y59.077 E1.52723
G1 X131.341 Y59.622 E1.55962
G1 X132.096 Y60.235 E1.59196
G1 X132.795 Y60.913 E1.62435
G1 X133.436 Y61.655 E1.65697
G1 X134.048 Y62.515 E1.69207
G1 X134.909 Y63.879 E1.74572
G1 X136.296 Y66.002 E1.83007
G1 X137.735 Y68.068 E1.91381
G1 X139.215 Y70.073 E1.99669
G1 X140.798 Y72.096 E2.08213
G1 X142.366 Y73.985 E2.16378
G1 X144.066 Y75.92 E2.24945
G1 X145.737 Y77.718 E2.33109
G1 X147.545 Y79.554 E2.4168
G1 X149.331 Y81.27 E2.49917
G1 X151.199 Y82.964 E2.58305
G1 X153.103 Y84.597 E2.66648
G1 X155.564 Y86.579 E2.77157
G1 X156.301 Y87.217 E2.804
G1 X156.977 Y87.917 E2.83636
G1 X157.59 Y88.674 E2.86876
G1 X158.115 Y89.452 E2.89998
G1 X158.603 Y90.336 E2.93356
G1 X158.995 Y91.227 E2.96594
G1 X159.297 Y92.116 E2.99716
G1 X159.528 Y93.061 E3.02952
G1 X159.679 Y94.054 E3.06293
G1 X159.735 Y94.873 E3.09023
G1 X159.75 Y95.53 E3.11209
G1 X159.749 Y124.228 E4.06659
G1 X159.737 Y124.974 E4.0914
G1 X159.692 Y125.804 E4.11905
G1 X159.56 Y126.768 E4.15141
G1 X159.344 Y127.717 E4.18378
G1 X159.045 Y128.643 E4.21615
G1 X158.694 Y129.476 E4.24621
G1 X158.204 Y130.4 E4.281
G1 X157.672 Y131.215 E4.31337
G1 X157.115 Y131.926 E4.34341
G1 X156.398 Y132.69 E4.37826
G1 X155.652 Y133.351 E4.41141
G1 X154.849 Y134 E4.44575
G1 X154.104 Y134.584 E4.47723
G1 X152.163 Y136.199 E4.56122
G1 X150.28 Y137.859 E4.64471
G1 X148.444 Y139.572 E4.72822
G1 X146.642 Y141.349 E4.8124
G1 X144.898 Y143.171 E4.89629
G1 X143.208 Y145.04 E4.98009
G1 X141.579 Y146.946 E5.06349
G1 X139.996 Y148.909 E5.14736
G1 X138.486 Y150.894 E5.23031
G1 X137.01 Y152.951 E5.31452
G1 X135.608 Y155.027 E5.39784
G1 X134.156 Y157.317 E5.48803
G1 X133.574 Y158.166 E5.52226
G1 X132.963 Y158.908 E5.55423
G1 X132.586 Y159.304 E5.57242
G1 X131.826 Y159.998 E5.60665
G1 X131.109 Y160.547 E5.63668
G1 X130.225 Y161.105 E5.67145
G1 X129.357 Y161.549 E5.70388
G1 X128.451 Y161.913 E5.73635
G1 X127.424 Y162.22 E5.77201
G1 X126.539 Y162.4 E5.80204
G1 X125.094 Y162.537 E5.85032
G1 X124.47 Y162.55 E5.87108
G1 X95.749 Y162.549 E6.82634
G1 X95.021 Y162.537 E6.85056
G1 X94.197 Y162.492 E6.87801
G1 X93.233 Y162.36 E6.91037
G1 X92.284 Y162.144 E6.94274
G1 X91.358 Y161.845 E6.9751
G1 X90.525 Y161.494 E7.00517
G1 X89.601 Y161.004 E7.03996
G1 X88.786 Y160.472 E7.07233
G1 X88.048 Y159.892 E7.10355
G1 X87.312 Y159.199 E7.13717
G1 X86.685 Y158.495 E7.16852
G1 X85.924 Y157.445 E7.21166
G1 X85.087 Y156.114 E7.26395
G1 X83.704 Y153.998 E7.34803
G1 X82.265 Y151.932 E7.43177
G1 X80.771 Y149.909 E7.51541
G1 X79.202 Y147.904 E7.60009
G1 X77.634 Y146.015 E7.68174
G1 X75.934 Y144.08 E7.76741
G1 X74.263 Y142.282 E7.84905
G1 X72.455 Y140.446 E7.93476
G1 X70.669 Y138.73 E8.01713
G1 X68.783 Y137.02 E8.10181
G1 X66.897 Y135.403 E8.18444
G1 X64.453 Y133.435 E8.2888
G1 X63.715 Y132.799 E8.32121
G1 X63.037 Y132.1 E8.35359
G1 X62.423 Y131.344 E8.38599
G1 X61.877 Y130.536 E8.41842
G1 X61.407 Y129.684 E8.45078
G1 X61.013 Y128.793 E8.48319
G1 X60.71 Y127.905 E8.51439
G1 X60.467 Y126.912 E8.5484
G1 X60.321 Y125.952 E8.58069
G1 X60.263 Y125.094 E8.6093
G1 X60.25 Y124.47 E8.63005
G1 X60.251 Y95.749 E9.58532
G1 X60.263 Y95.022 E9.6095
G1 X60.308 Y94.196 E9.63702
G1 X60.44 Y93.232 E9.66938
G1 X60.656 Y92.283 E9.70175
G1 X60.955 Y91.357 E9.73411
G1 X61.306 Y90.524 E9.76418
G1 X61.796 Y89.6 E9.79896
G1 X62.328 Y88.785 E9.83134
G1 X62.885 Y88.074 E9.86138
G1 X63.602 Y87.31 E9.89622
G1 X64.348 Y86.649 E9.92938
G1 X65.151 Y86 E9.96372
G1 X65.896 Y85.416 E9.9952
G1 X67.837 Y83.801 E10.07918
G1 X69.72 Y82.141 E10.16267
G1 X71.556 Y80.428 E10.24619
G1 X73.358 Y78.651 E10.33037
G1 X75.102 Y76.829 E10.41425
G1 X76.792 Y74.96 E10.49806
G1 X78.421 Y73.054 E10.58145
G1 X80.004 Y71.091 E10.66533
G1 X81.514 Y69.106 E10.74828
G1 X82.99 Y67.049 E10.83249
G1 X84.392 Y64.973 E10.91581
G1 X85.843 Y62.686 E11.00589
G1 X86.349 Y61.938 E11.03593
G0 F6000 X86.68 Y62.162
G1 F1200 X87.074 Y61.661 E11.05712
G1 X87.707 Y60.968 E11.08834
G1 X88.372 Y60.357 E11.11838
G1 X89.145 Y59.765 E11.15076
G1 X89.938 Y59.262 E11.182
G1 X90.773 Y58.832 E11.21323
G1 X91.644 Y58.477 E11.24452
G1 X92.656 Y58.172 E11.27967
G1 X93.541 Y57.992 E11.30971
G1 X94.914 Y57.863 E11.35558
G1 X95.521 Y57.85 E11.37577
G1 X124.098 Y57.85 E12.32625
G1 X124.962 Y57.862 E12.35499
G1 X125.899 Y57.918 E12.38621
G1 X126.827 Y58.057 E12.41742
G1 X127.741 Y58.278 E12.44869
G1 X128.597 Y58.566 E12.47873
G1 X129.488 Y58.956 E12.51108
G1 X130.311 Y59.409 E12.54233
G1 X131.089 Y59.933 E12.57352
G1 X131.818 Y60.523 E12.60472
G1 X132.493 Y61.175 E12.63593
G1 X133.11 Y61.887 E12.66727
G1 X133.722 Y62.747 E12.70237
G1 X134.574 Y64.098 E12.7555
G1 X135.962 Y66.221 E12.83986
G1 X137.413 Y68.306 E12.92435
G1 X138.9 Y70.32 E13.00761
G1 X140.483 Y72.343 E13.09305
G1 X142.065 Y74.249 E13.17544
G1 X143.765 Y76.184 E13.2611
G1 X145.452 Y77.999 E13.34352
G1 X147.26 Y79.835 E13.42922
G1 X149.062 Y81.566 E13.51233
G1 X150.939 Y83.268 E13.5966
G1 X152.852 Y84.909 E13.68043
G1 X155.303 Y86.882 E13.78508
G1 X156.014 Y87.495 E13.81631
G1 X156.666 Y88.169 E13.8475
G1 X157.258 Y88.898 E13.87873
G1 X157.783 Y89.676 E13.90995
G1 X158.237 Y90.498 E13.94118
G1 X158.616 Y91.356 E13.97238
G1 X158.908 Y92.211 E14.00243
G1 X159.139 Y93.156 E14.03479
G1 X159.28 Y94.081 E14.06591
G1 X159.335 Y94.882 E14.09261
G1 X159.35 Y95.53 E14.11417
G1 X159.349 Y124.222 E15.06847
G1 X159.338 Y124.953 E15.09279
G1 X159.296 Y125.75 E15.11933
G1 X159.17 Y126.68 E15.15054
G1 X158.963 Y127.595 E15.18175
G1 X158.676 Y128.488 E15.21294
G1 X158.325 Y129.321 E15.24301
G1 X157.869 Y130.182 E15.27541
G1 X157.357 Y130.968 E15.30661
G1 X156.8 Y131.679 E15.33665
G1 X156.133 Y132.391 E15.3691
G1 X155.401 Y133.04 E15.40164
G1 X154.602 Y133.685 E15.43579
G1 X153.857 Y134.269 E15.46728
G1 X151.898 Y135.899 E15.55204
G1 X150.015 Y137.559 E15.63553
G1 X148.171 Y139.279 E15.7194
G1 X146.361 Y141.064 E15.80395
G1 X144.609 Y142.894 E15.88822
G1 X142.911 Y144.772 E15.97243
G1 X141.275 Y146.686 E16.05617
G1 X139.685 Y148.658 E16.14042
G1 X138.161 Y150.661 E16.22414
G1 X136.685 Y152.718 E16.30834
G1 X135.27 Y154.813 E16.39243
G1 X133.826 Y157.091 E16.48213
G1 X133.265 Y157.912 E16.51521
G1 X132.673 Y158.632 E16.54621
G1 X132.296 Y159.028 E16.56439
G1 X131.583 Y159.68 E16.59653
G1 X130.866 Y160.229 E16.62656
G1 X130.042 Y160.749 E16.65897
G1 X129.207 Y161.178 E16.69019
G1 X128.336 Y161.53 E16.72144
G1 X127.344 Y161.828 E16.75589
G1 X126.459 Y162.008 E16.78593
G1 X125.086 Y162.137 E16.8318
G1 X124.47 Y162.15 E16.85229
G1 X95.755 Y162.149 E17.80735
G1 X95.042 Y162.138 E17.83107
G1 X94.251 Y162.096 E17.85742
G1 X93.321 Y161.97 E17.88863
G1 X92.406 Y161.763 E17.91983
G1 X91.513 Y161.476 E17.95103
G1 X90.68 Y161.125 E17.9811
G1 X89.819 Y160.669 E18.0135
G1 X89.033 Y160.157 E18.0447
G1 X88.322 Y159.6 E18.07474
G1 X87.611 Y158.933 E18.10717
G1 X86.984 Y158.229 E18.13852
G1 X86.263 Y157.232 E18.17944
G1 X85.426 Y155.901 E18.23174
G1 X84.038 Y153.779 E18.31608
G1 X82.587 Y151.694 E18.40056
G1 X81.093 Y149.671 E18.48421
G1 X79.517 Y147.657 E18.56926
G1 X77.935 Y145.751 E18.65165
G1 X76.235 Y143.816 E18.73732
G1 X74.548 Y142.001 E18.81974
G1 X72.74 Y140.165 E18.90544
G1 X70.938 Y138.434 E18.98855
G1 X69.052 Y136.724 E19.07322
G1 X67.148 Y135.091 E19.15665
G1 X64.714 Y133.132 E19.26057
G1 X64.002 Y132.52 E19.29179
G1 X63.347 Y131.847 E19.32303
G1 X62.754 Y131.12 E19.35423
G1 X62.227 Y130.342 E19.38549
G1 X61.773 Y129.522 E19.41666
G1 X61.392 Y128.664 E19.44789
G1 X61.089 Y127.776 E19.47909
G1 X60.862 Y126.851 E19.51077
G1 X60.72 Y125.925 E19.54193
G1 X60.663 Y125.086 E19.5699
G1 X60.65 Y124.47 E19.59039
G1 X60.651 Y95.755 E20.54546
G1 X60.662 Y95.043 E20.56914
G1 X60.704 Y94.25 E20.59555
G1 X60.83 Y93.32 E20.62677
G1 X61.037 Y92.405 E20.65797
G1 X61.324 Y91.512 E20.68917
G1 X61.675 Y90.679 E20.71923
G1 X62.131 Y89.818 E20.75164
G1 X62.643 Y89.032 E20.78284
G1 X63.2 Y88.321 E20.81288
G1 X63.867 Y87.609 E20.84533
G1 X64.599 Y86.96 E20.87787
G1 X65.398 Y86.315 E20.91202
G1 X66.143 Y85.731 E20.9435
G1 X68.102 Y84.101 E21.02827
G1 X69.985 Y82.441 E21.11176
G1 X71.829 Y80.721 E21.19563
G1 X73.639 Y78.936 E21.28018
G1 X75.391 Y77.106 E21.36444
G1 X77.089 Y75.228 E21.44865
G1 X78.725 Y73.314 E21.5324
G1 X80.315 Y71.342 E21.61665
G1 X81.839 Y69.339 E21.70036
G1 X83.315 Y67.282 E21.78457
G1 X84.73 Y65.187 E21.86865
G1 X86.174 Y62.91 E21.95833
G1 X86.68 Y62.162 E21.98837
G0 F6000 X87.011 Y62.386
G1 F1200 X87.37 Y61.93 E22.00767
G1 X87.978 Y61.263 E22.03769
G1 X88.643 Y60.652 E22.06772
G1 X89.36 Y60.102 E22.09778
G1 X90.122 Y59.617 E22.12782
G1 X90.924 Y59.202 E22.15786
G1 X91.76 Y58.86 E22.1879
G1 X92.736 Y58.564 E22.22182
G1 X93.621 Y58.384 E22.25186
G1 X94.923 Y58.263 E22.29535
G1 X95.53 Y58.25 E22.31554
G1 X124.093 Y58.25 E23.26555
G1 X124.939 Y58.261 E23.29369
G1 X125.841 Y58.314 E23.32374
G1 X126.734 Y58.446 E23.35377
G1 X127.613 Y58.657 E23.38383
G1 X128.469 Y58.945 E23.41387
G1 X129.296 Y59.307 E23.4439
G1 X130.088 Y59.741 E23.47394
G1 X130.838 Y60.244 E23.50397
G1 X131.541 Y60.811 E23.53401
G1 X132.191 Y61.437 E23.56403
G1 X132.784 Y62.119 E23.59409
G1 X133.396 Y62.979 E23.62919
G1 X134.239 Y64.317 E23.68179
G1 X135.628 Y66.44 E23.76617
G1 X137.091 Y68.544 E23.85141
G1 X138.585 Y70.567 E23.93505
G1 X140.168 Y72.59 E24.02049
G1 X141.764 Y74.513 E24.10361
G1 X143.464 Y76.448 E24.18927
G1 X145.167 Y78.28 E24.27247
G1 X146.975 Y80.116 E24.35817
G1 X148.793 Y81.862 E24.44201
G1 X150.679 Y83.572 E24.52668
G1 X152.601 Y85.221 E24.61091
G1 X155.042 Y87.186 E24.71514
G1 X155.727 Y87.774 E24.74516
G1 X156.356 Y88.422 E24.7752
G1 X156.927 Y89.122 E24.80524
G1 X157.433 Y89.87 E24.83528
G1 X157.871 Y90.66 E24.86532
G1 X158.237 Y91.485 E24.89534
G1 X158.529 Y92.34 E24.92539
G1 X158.744 Y93.217 E24.95543
G1 X158.881 Y94.109 E24.98544
G1 X158.935 Y94.891 E25.01151
G1 X158.95 Y95.53 E25.03277
G1 X158.949 Y124.216 E25.98687
G1 X158.939 Y124.933 E26.01072
G1 X158.9 Y125.697 E26.03617
G1 X158.78 Y126.592 E26.0662
G1 X158.582 Y127.473 E26.09623
G1 X158.307 Y128.333 E26.12626
G1 X157.956 Y129.166 E26.15633
G1 X157.533 Y129.964 E26.18637
G1 X157.042 Y130.721 E26.21638
G1 X156.485 Y131.432 E26.24642
G1 X155.867 Y132.092 E26.27649
G1 X155.15 Y132.729 E26.30839
G1 X154.355 Y133.37 E26.34236
G1 X153.61 Y133.954 E26.37384
G1 X151.642 Y135.592 E26.45901
G1 X149.742 Y137.266 E26.54323
G1 X147.898 Y138.986 E26.6271
G1 X146.08 Y140.779 E26.71203
G1 X144.32 Y142.617 E26.79667
G1 X142.614 Y144.504 E26.88127
G1 X140.971 Y146.426 E26.96537
G1 X139.374 Y148.407 E27.05001
G1 X137.836 Y150.428 E27.13448
G1 X136.36 Y152.485 E27.21868
G1 X134.932 Y154.599 E27.30353
G1 X133.495 Y156.866 E27.39281
G1 X132.956 Y157.658 E27.42467
G1 X132.383 Y158.356 E27.45471
G1 X132.006 Y158.752 E27.47289
G1 X131.34 Y159.362 E27.50293
G1 X130.623 Y159.911 E27.53296
G1 X129.859 Y160.393 E27.56301
G1 X129.056 Y160.807 E27.59306
G1 X128.22 Y161.147 E27.62308
G1 X127.264 Y161.436 E27.65629
G1 X126.379 Y161.616 E27.68633
G1 X125.077 Y161.737 E27.72982
G1 X124.47 Y161.75 E27.75002
G1 X95.761 Y161.749 E28.70488
G1 X95.063 Y161.739 E28.7281
G1 X94.304 Y161.7 E28.75338
G1 X93.409 Y161.58 E28.78341
G1 X92.528 Y161.382 E28.81344
G1 X91.668 Y161.107 E28.84347
G1 X90.835 Y160.756 E28.87354
G1 X90.037 Y160.333 E28.90358
G1 X89.28 Y159.842 E28.93359
G1 X88.569 Y159.285 E28.96363
G1 X87.909 Y158.667 E28.9937
G1 X87.308 Y157.994 E29.02371
G1 X86.602 Y157.019 E29.06375
G1 X85.765 Y155.688 E29.11605
G1 X84.372 Y153.56 E29.20064
G1 X82.909 Y151.456 E29.28587
G1 X81.415 Y149.433 E29.36952
G1 X79.832 Y147.41 E29.45495
G1 X78.236 Y145.487 E29.53807
G1 X76.536 Y143.552 E29.62374
G1 X74.833 Y141.72 E29.70693
G1 X73.025 Y139.884 E29.79264
G1 X71.207 Y138.138 E29.87647
G1 X69.321 Y136.428 E29.96115
G1 X67.399 Y134.779 E30.04538
G1 X64.974 Y132.828 E30.1489
G1 X64.288 Y132.24 E30.17895
G1 X63.657 Y131.594 E30.20898
G1 X63.085 Y130.895 E30.23902
G1 X62.577 Y130.148 E30.26907
G1 X62.138 Y129.359 E30.2991
G1 X61.77 Y128.534 E30.32915
G1 X61.477 Y127.68 E30.35918
G1 X61.257 Y126.79 E30.38967
G1 X61.119 Y125.898 E30.41969
G1 X61.063 Y125.077 E30.44706
G1 X61.05 Y124.47 E30.46725
G1 X61.051 Y95.761 E31.42212
G1 X61.061 Y95.063 E31.44534
G1 X61.1 Y94.303 E31.47065
G1 X61.22 Y93.408 E31.50068
G1 X61.418 Y92.527 E31.53071
G1 X61.693 Y91.667 E31.56074
G1 X62.044 Y90.834 E31.59081
G1 X62.467 Y90.036 E31.62085
G1 X62.958 Y89.279 E31.65086
G1 X63.515 Y88.568 E31.6809
G1 X64.133 Y87.908 E31.71097
G1 X64.85 Y87.271 E31.74287
G1 X65.645 Y86.63 E31.77684
G1 X66.39 Y86.046 E31.80832
G1 X68.358 Y84.408 E31.89349
G1 X70.258 Y82.734 E31.97771
G1 X72.102 Y81.014 E32.06158
G1 X73.92 Y79.221 E32.14651
G1 X75.68 Y77.383 E32.23115
G1 X77.386 Y75.496 E32.31575
G1 X79.029 Y73.574 E32.39985
G1 X80.626 Y71.593 E32.48449
G1 X82.164 Y69.572 E32.56896
G1 X83.64 Y67.515 E32.65316
G1 X85.068 Y65.401 E32.73801
G1 X86.505 Y63.134 E32.82729
G1 X87.011 Y62.386 E32.85732
G1 F1500 E26.35732
;MESH:2.3_etho_v1.7_CASE_CAMERA_COVER.stl(4)
G0 F6000 X104.417 Y79.396
G0 X110 Y86.495
;TYPE:WALL-INNER
G1 F1500 E32.85732
G1 F1200 X109.969 Y86.496 E32.85835
G1 X109.358 Y86.461 E32.87871
G1 X108.822 Y86.373 E32.89678
G1 X108.173 Y86.194 E32.91917
G1 X107.681 Y85.998 E32.93678
G1 X107.086 Y85.679 E32.95924
G1 X106.582 Y85.337 E32.97949
G1 X106.17 Y84.985 E32.99752
G1 X105.714 Y84.504 E33.01956
G1 X105.345 Y84.013 E33.03999
G1 X105.037 Y83.492 E33.06012
G1 X104.782 Y82.941 E33.08031
G1 X104.594 Y82.363 E33.10053
G1 X104.473 Y81.816 E33.11916
G1 X104.407 Y81.234 E33.13865
G1 X104.404 Y80.628 E33.1588
G1 X104.467 Y80.021 E33.1791
G1 X104.61 Y79.375 E33.2011
G1 X104.809 Y78.788 E33.22172
G1 X105.066 Y78.25 E33.24155
G1 X105.381 Y77.734 E33.26166
G1 X105.756 Y77.243 E33.28221
G1 X106.17 Y76.811 E33.30211
G1 X106.638 Y76.417 E33.32246
G1 X107.136 Y76.087 E33.34233
G1 X107.681 Y75.798 E33.36284
G1 X108.173 Y75.602 E33.38046
G1 X108.822 Y75.423 E33.40285
G1 X109.425 Y75.328 E33.42315
G1 X110.032 Y75.3 E33.44336
G1 X110.638 Y75.335 E33.46355
G1 X111.174 Y75.423 E33.48162
G1 X111.823 Y75.602 E33.50401
G1 X112.375 Y75.826 E33.52382
G1 X112.916 Y76.118 E33.54427
G1 X113.412 Y76.457 E33.56425
G1 X113.878 Y76.857 E33.58468
G1 X114.281 Y77.291 E33.60438
G1 X114.617 Y77.731 E33.62279
G1 X114.965 Y78.307 E33.64517
G1 X115.214 Y78.855 E33.66519
G1 X115.386 Y79.375 E33.68341
G1 X115.529 Y80.021 E33.70542
G1 X115.589 Y80.561 E33.72349
G1 X115.589 Y81.234 E33.74587
