;FLAVOR:Marlin
;TIME:20469
;Filament used: 18.1853m
;Layer height: 0.28
;MINX:27.61
;MINY:46.714
;MINZ:0.28
;MAXX:207.934
;MAXY:181.782
;MAXZ:32.48
;TARGET_MACHINE.NAME:Creality Ender-3 Pro
;Generated with Cura_SteamEngine 5.9.0
M82 ;absolute extrusion mode
; Ender 3 Custom Start G-code
G92 E0 ; Reset Extruder
G28 ; Home all axes
M420 S1 Z10 ; use bed levelling
M104 S175 ; Start heating up the nozzle most of the way
M190 S60 ; Start heating the bed, wait until target temperature reached
M109 S200 ; Finish heating the nozzle

G1 Z2.0 F3000 ; Move Z Axis up little to prevent scratching of Heat Bed
G1 X0.1 Y20 Z0.3 F5000.0 ; Move to start position

G1 F3000 Z20 ; Move Z Axis up 20 mm to allow filament ooze freely
G1 F300 E50 ; Slowly extrude a 50mm spaghetti

G1 X0.1 Y20 Z0.3 F5000.0 ; Move to start position
; G1 X0.1 Y200.0 Z0.3 F1500.0 E15 ; Draw the first line
; G1 X0.4 Y200.0 Z0.3 F5000.0 ; Move to side a little
; G1 X0.4 Y20 Z0.3 F1500.0 E30 ; Draw the second line
; G92 E0 ; Reset Extruder
G1 Z2.0 F3000 ; Move Z Axis up little to prevent scratching of Heat Bed
G1 X5 Y20 Z0.3 F5000.0 ; Move over to prevent blob squish
G92 E0
G92 E0
G1 F1500 E-6.5
;LAYER_COUNT:116
;LAYER:0
M107
G0 F6000 X36.502 Y79.122 Z0.28
;TYPE:SKIRT
G1 F1500 E0
G1 F1200 X36.745 Y78.906 E0.01514
G1 X38.572 Y77.817 E0.11418
G1 X38.857 Y77.715 E0.12827
G1 X40.617 Y77.442 E0.21121
G1 X45.368 Y77.412 E0.43244
G1 X45.338 Y53.661 E1.53838
G1 X45.804 Y51.765 E1.6293
G1 X46.857 Y49.737 E1.7357
G1 X48.418 Y48.278 E1.83519
G1 X50.441 Y47.071 E1.94488
G1 X52.159 Y46.789 E2.02595
G1 X83.591 Y46.714 E3.48956
G1 X85.487 Y47.18 E3.58048
G1 X87.515 Y48.233 E3.68688
G1 X88.974 Y49.794 E3.78637
G1 X90.181 Y51.817 E3.89606
G1 X90.463 Y53.535 E3.97713
G1 X90.532 Y77.384 E5.08764
G1 X95.032 Y77.382 E5.29718
G1 X96.342 Y77.706 E5.36002
G1 X96.356 Y66.587 E5.87777
G1 X96.431 Y65.737 E5.9175
G1 X96.532 Y65.134 E5.94597
G1 X96.985 Y63.511 E6.02443
G1 X97.413 Y62.479 E6.07646
G1 X97.687 Y61.953 E6.10407
G1 X98.656 Y60.483 E6.18606
G1 X98.948 Y60.129 E6.20742
G1 X100.08 Y59.012 E6.28148
G1 X101.057 Y58.249 E6.3392
G1 X101.534 Y57.946 E6.36551
G1 X103.028 Y57.197 E6.44333
G1 X104.035 Y56.833 E6.49319
G1 X104.816 Y56.632 E6.53074
G1 X105.792 Y56.469 E6.57682
G1 X107.124 Y56.38 E6.63898
G1 X197.585 Y56.395 E10.85122
G1 X198.344 Y56.454 E10.88667
G1 X199.878 Y56.734 E10.95928
G1 X200.547 Y56.932 E10.99177
G1 X201.689 Y57.393 E11.04911
G1 X202.648 Y57.904 E11.09971
G1 X203.792 Y58.688 E11.16429
G1 X204.687 Y59.461 E11.21936
G1 X204.99 Y59.77 E11.23951
G1 X206.12 Y61.183 E11.32376
G1 X206.378 Y61.589 E11.34616
G1 X207.165 Y63.175 E11.4286
G1 X207.307 Y63.548 E11.44718
G1 X207.788 Y65.416 E11.537
G1 X207.845 Y65.803 E11.55522
G1 X207.934 Y67.168 E11.61891
G1 X207.91 Y162.173 E16.04274
G1 X207.828 Y163.091 E16.08566
G1 X207.735 Y163.648 E16.11196
G1 X207.313 Y165.189 E16.18635
G1 X207.065 Y165.824 E16.2181
G1 X206.225 Y167.4 E16.30125
G1 X205.633 Y168.245 E16.3493
G1 X205.256 Y168.699 E16.37678
G1 X204.233 Y169.705 E16.44358
G1 X203.131 Y170.566 E16.5087
G1 X202.725 Y170.824 E16.5311
G1 X201.178 Y171.588 E16.61144
G1 X200.369 Y171.877 E16.65144
G1 X198.932 Y172.235 E16.7204
G1 X198.58 Y172.288 E16.73698
G1 X197.145 Y172.38 E16.80394
G1 X106.554 Y172.36 E21.02223
G1 X106.265 Y172.334 E21.03574
G1 X106.265 Y172.652 E21.05055
G1 X105.811 Y174.504 E21.13934
G1 X104.743 Y176.573 E21.24776
G1 X103.188 Y178.01 E21.34635
G1 X102.391 Y178.486 E21.38958
G1 X102.199 Y178.803 E21.40683
G1 X100.685 Y180.218 E21.50333
G1 X98.662 Y181.425 E21.61302
G1 X96.944 Y181.707 E21.69409
G1 X38.793 Y181.782 E24.40185
G1 X36.897 Y181.316 E24.49276
G1 X34.861 Y180.26 E24.59956
G1 X33.503 Y178.804 E24.69227
G1 X33.363 Y178.601 E24.70375
G1 X32.333 Y178.067 E24.75777
G1 X30.848 Y176.472 E24.85925
G1 X29.667 Y174.491 E24.96664
G1 X29.38 Y172.697 E25.05124
G1 X29.313 Y155.448 E25.85443
G1 X29.144 Y155.256 E25.86634
G1 X27.967 Y153.283 E25.97332
G1 X27.685 Y151.561 E26.05457
G1 X27.61 Y138.111 E26.68087
G1 X28.059 Y136.27 E26.7691
G1 X29.102 Y134.25 E26.87496
G1 X29.31 Y134.025 E26.88923
G1 X29.31 Y110.648 E27.97776
G1 X29.136 Y110.45 E27.99004
G1 X28.006 Y108.556 E28.09273
G1 X27.955 Y108.414 E28.09976
G1 X27.675 Y106.635 E28.18362
G1 X27.61 Y93.311 E28.80404
G1 X28.059 Y91.47 E28.89228
G1 X29.102 Y89.45 E28.99814
G1 X29.31 Y89.225 E29.01241
G1 X29.31 Y86.029 E29.16123
G1 X29.776 Y84.133 E29.25214
G1 X30.829 Y82.105 E29.35854
G1 X32.402 Y80.634 E29.45882
G1 X33.999 Y79.696 E29.54507
G1 X34.793 Y79.374 E29.58496
G1 X36.502 Y79.122 E29.6654
G0 F6000 X36.95 Y79.25
G1 F1200 X38.777 Y78.161 E29.76444
G1 X38.919 Y78.11 E29.77147
G1 X40.62 Y77.842 E29.85165
G1 X45.768 Y77.809 E30.09137
G1 X45.738 Y53.707 E31.21366
G1 X46.18 Y51.908 E31.29992
G1 X47.18 Y49.982 E31.40097
G1 X48.657 Y48.602 E31.49509
G1 X50.581 Y47.454 E31.59942
G1 X52.224 Y47.184 E31.67695
G1 X83.545 Y47.114 E33.13539
G1 X85.344 Y47.556 E33.22165
G1 X87.27 Y48.556 E33.3227
G1 X88.65 Y50.033 E33.41682
G1 X89.798 Y51.957 E33.52115
G1 X90.068 Y53.6 E33.59868
G1 X90.133 Y77.784 E34.72479
G1 X94.985 Y77.782 E34.95072
G1 X96.741 Y78.217 E35.03496
G1 X96.754 Y66.622 E35.57487
G1 X96.826 Y65.803 E35.61315
G1 X96.927 Y65.2 E35.64162
G1 X97.355 Y63.664 E35.71587
G1 X97.768 Y62.664 E35.76625
G1 X98.042 Y62.138 E35.79387
G1 X98.965 Y60.738 E35.87195
G1 X99.257 Y60.384 E35.89332
G1 X100.326 Y59.327 E35.96332
G1 X101.273 Y58.586 E36.01931
G1 X101.713 Y58.304 E36.04364
G1 X103.207 Y57.555 E36.12146
G1 X104.135 Y57.22 E36.16741
G1 X104.882 Y57.027 E36.20333
G1 X105.858 Y56.864 E36.24941
G1 X107.124 Y56.78 E36.30849
G1 X197.554 Y56.794 E40.51929
G1 X198.313 Y56.853 E40.55474
G1 X199.764 Y57.118 E40.62342
G1 X200.433 Y57.316 E40.65591
G1 X201.502 Y57.747 E40.70958
G1 X202.422 Y58.234 E40.75805
G1 X203.531 Y58.991 E40.82057
G1 X204.401 Y59.741 E40.87406
G1 X204.704 Y60.05 E40.89421
G1 X205.782 Y61.398 E40.97458
G1 X206.04 Y61.804 E40.99698
G1 X206.806 Y63.352 E41.0774
G1 X206.932 Y63.688 E41.09411
G1 X207.392 Y65.474 E41.17999
G1 X207.449 Y65.861 E41.1982
G1 X207.534 Y67.168 E41.25919
G1 X207.512 Y162.138 E45.68139
G1 X207.433 Y163.025 E45.72286
G1 X207.34 Y163.582 E45.74915
G1 X206.94 Y165.043 E45.81969
G1 X206.692 Y165.678 E45.85143
G1 X205.897 Y167.171 E45.93019
G1 X205.325 Y167.989 E45.97667
G1 X204.948 Y168.443 E46.00415
G1 X203.953 Y169.419 E46.06905
G1 X202.916 Y170.228 E46.13029
G1 X202.51 Y170.486 E46.15269
G1 X201.043 Y171.211 E46.22889
G1 X200.234 Y171.5 E46.26889
G1 X198.872 Y171.839 E46.33425
G1 X198.52 Y171.892 E46.35082
G1 X197.145 Y171.98 E46.41498
G1 X106.59 Y171.962 E50.6316
G1 X105.865 Y171.896 E50.6655
G1 X105.865 Y172.602 E50.69837
G1 X105.433 Y174.365 E50.78289
G1 X104.42 Y176.327 E50.88571
G1 X102.946 Y177.689 E50.97916
G1 X102.088 Y178.201 E51.02568
G1 X101.926 Y178.511 E51.04197
G1 X100.446 Y179.894 E51.13629
G1 X98.522 Y181.042 E51.24062
G1 X96.879 Y181.312 E51.31815
G1 X38.839 Y181.382 E54.02074
G1 X37.04 Y180.94 E54.107
G1 X35.108 Y179.938 E54.20834
G1 X33.796 Y178.531 E54.29792
G1 X33.64 Y178.295 E54.31109
G1 X32.578 Y177.744 E54.3668
G1 X31.172 Y176.233 E54.46291
G1 X30.05 Y174.351 E54.56493
G1 X29.78 Y172.695 E54.64306
G1 X29.712 Y155.288 E55.45361
G1 X29.488 Y155.051 E55.4688
G1 X28.35 Y153.143 E55.57224
G1 X28.08 Y151.496 E55.64996
G1 X28.01 Y138.16 E56.27095
G1 X28.438 Y136.407 E56.35497
G1 X29.457 Y134.433 E56.45841
G1 X29.71 Y134.2 E56.47443
G1 X29.71 Y110.491 E57.57842
G1 X29.48 Y110.245 E57.5941
G1 X28.35 Y108.351 E57.6968
G1 X28.075 Y106.633 E57.77781
G1 X28.01 Y93.36 E58.39587
G1 X28.438 Y91.607 E58.47989
G1 X29.457 Y89.633 E58.58333
G1 X29.71 Y89.4 E58.59935
G1 X29.71 Y86.075 E58.75418
G1 X30.152 Y84.276 E58.84044
G1 X31.152 Y82.35 E58.94149
G1 X32.641 Y80.958 E59.0364
G1 X34.202 Y80.041 E59.1207
G1 X34.895 Y79.764 E59.15545
G1 X36.518 Y79.522 E59.23186
G1 X36.667 Y79.515 E59.23881
G1 X36.95 Y79.25 E59.25686
G0 F6000 X37.189 Y79.574
G1 F1200 X38.982 Y78.505 E59.35406
G1 X40.623 Y78.242 E59.43145
G1 X46.169 Y78.206 E59.6897
G1 X46.138 Y53.754 E60.82829
G1 X46.557 Y52.05 E60.91
G1 X47.503 Y50.227 E61.00563
G1 X48.899 Y48.923 E61.09458
G1 X50.719 Y47.837 E61.19327
G1 X52.289 Y47.579 E61.26736
G1 X83.498 Y47.514 E62.72058
G1 X85.202 Y47.933 E62.80229
G1 X87.025 Y48.879 E62.89793
G1 X88.329 Y50.275 E62.98688
G1 X89.415 Y52.095 E63.08556
G1 X89.673 Y53.665 E63.15965
G1 X89.734 Y78.184 E64.30136
G1 X94.939 Y78.182 E64.54373
G1 X96.607 Y78.591 E64.6237
G1 X97.14 Y78.866 E64.65163
G1 X97.152 Y66.657 E65.22013
G1 X97.221 Y65.869 E65.25696
G1 X97.322 Y65.266 E65.28543
G1 X97.74 Y63.772 E65.35767
G1 X98.123 Y62.849 E65.4042
G1 X98.397 Y62.323 E65.43182
G1 X99.274 Y60.993 E65.506
G1 X99.566 Y60.639 E65.52737
G1 X100.573 Y59.642 E65.59335
G1 X101.491 Y58.922 E65.64768
G1 X101.892 Y58.662 E65.66993
G1 X103.386 Y57.913 E65.74775
G1 X104.236 Y57.607 E65.78982
G1 X104.948 Y57.422 E65.82407
G1 X105.924 Y57.259 E65.87015
G1 X107.124 Y57.18 E65.92615
G1 X197.523 Y57.193 E70.1355
G1 X198.282 Y57.252 E70.17095
G1 X199.65 Y57.502 E70.23571
G1 X200.319 Y57.7 E70.26819
G1 X201.315 Y58.101 E70.31819
G1 X202.235 Y58.588 E70.36666
G1 X203.27 Y59.294 E70.425
G1 X204.115 Y60.021 E70.4769
G1 X204.418 Y60.33 E70.49705
G1 X205.444 Y61.613 E70.57355
G1 X205.702 Y62.019 E70.59595
G1 X206.431 Y63.492 E70.67248
G1 X206.557 Y63.828 E70.68919
G1 X206.996 Y65.532 E70.77112
G1 X207.053 Y65.919 E70.78934
G1 X207.134 Y67.168 E70.84762
G1 X207.114 Y162.103 E75.26819
G1 X207.038 Y162.959 E75.30821
G1 X206.945 Y163.516 E75.3345
G1 X206.567 Y164.897 E75.40117
G1 X206.319 Y165.532 E75.43292
G1 X205.569 Y166.942 E75.50728
G1 X205.017 Y167.733 E75.5522
G1 X204.64 Y168.187 E75.57967
G1 X203.707 Y169.104 E75.64059
G1 X202.701 Y169.89 E75.70004
G1 X202.295 Y170.148 E75.72243
G1 X200.908 Y170.834 E75.79449
G1 X200.099 Y171.123 E75.83449
G1 X198.812 Y171.443 E75.89624
G1 X198.46 Y171.496 E75.91282
G1 X197.145 Y171.58 E75.97417
G1 X106.623 Y171.563 E80.18926
G1 X105.968 Y171.508 E80.21986
G1 X105.465 Y171.423 E80.24362
G1 X105.465 Y172.556 E80.29638
G1 X105.056 Y174.224 E80.37635
G1 X104.098 Y176.08 E80.4736
G1 X102.707 Y177.365 E80.56178
G1 X101.785 Y177.915 E80.61177
G1 X101.602 Y178.267 E80.63024
G1 X100.204 Y179.573 E80.71933
G1 X98.384 Y180.659 E80.81801
G1 X96.814 Y180.917 E80.8921
G1 X38.886 Y180.982 E83.58947
G1 X37.182 Y180.563 E83.67118
G1 X35.355 Y179.616 E83.767
G1 X34.089 Y178.258 E83.85345
G1 X33.921 Y177.99 E83.86818
G1 X32.823 Y177.421 E83.92577
G1 X31.496 Y175.994 E84.01651
G1 X30.433 Y174.211 E84.11316
G1 X30.175 Y172.631 E84.18771
G1 X30.111 Y155.129 E85.00268
G1 X29.809 Y154.808 E85.0232
G1 X28.733 Y153.005 E85.12097
G1 X28.475 Y151.431 E85.19524
G1 X28.41 Y138.209 E85.81092
G1 X28.816 Y136.546 E85.89063
G1 X29.779 Y134.681 E85.98837
G1 X30.11 Y134.377 E86.0093
G1 X30.11 Y110.334 E87.12884
G1 X29.804 Y110.006 E87.14973
G1 X28.733 Y108.211 E87.24706
G1 X28.475 Y106.631 E87.3216
G1 X28.41 Y93.409 E87.93728
G1 X28.816 Y91.746 E88.01699
G1 X29.779 Y89.881 E88.11473
G1 X30.11 Y89.577 E88.13565
G1 X30.11 Y86.122 E88.29653
G1 X30.529 Y84.418 E88.37824
G1 X31.475 Y82.595 E88.47388
G1 X32.883 Y81.279 E88.56362
G1 X34.351 Y80.412 E88.64301
G1 X34.998 Y80.153 E88.67546
G1 X36.577 Y79.918 E88.74979
G1 X36.83 Y79.91 E88.76158
G1 X37.189 Y79.574 E88.78448
G0 F6000 X37.428 Y79.898
G1 F1200 X39.121 Y78.888 E88.87627
G1 X40.626 Y78.642 E88.94728
G1 X46.57 Y78.603 E89.22406
G1 X46.538 Y53.8 E90.379
G1 X46.933 Y52.193 E90.45605
G1 X47.826 Y50.472 E90.54634
G1 X49.141 Y49.244 E90.63011
G1 X50.857 Y48.22 E90.72316
G1 X52.354 Y47.974 E90.79381
G1 X83.452 Y47.914 E92.24186
G1 X85.059 Y48.309 E92.31892
G1 X86.78 Y49.202 E92.4092
G1 X88.008 Y50.517 E92.49298
G1 X89.032 Y52.233 E92.58603
G1 X89.278 Y53.73 E92.65667
G1 X89.335 Y78.584 E93.81398
G1 X94.889 Y78.582 E94.0726
G1 X96.468 Y78.969 E94.1483
G1 X97.539 Y79.522 E94.20442
G1 X97.55 Y66.692 E94.80184
G1 X97.616 Y65.935 E94.83723
G1 X97.717 Y65.332 E94.8657
G1 X98.11 Y63.925 E94.93372
G1 X98.478 Y63.034 E94.97861
G1 X98.752 Y62.508 E95.00622
G1 X99.583 Y61.248 E95.07651
G1 X99.875 Y60.894 E95.09787
G1 X100.854 Y59.927 E95.16195
G1 X101.709 Y59.258 E95.2125
G1 X102.11 Y58.998 E95.23475
G1 X103.522 Y58.289 E95.30833
G1 X104.337 Y57.994 E95.34868
G1 X105.014 Y57.817 E95.38127
G1 X105.99 Y57.654 E95.42734
G1 X107.124 Y57.58 E95.48026
G1 X197.492 Y57.592 E99.68817
G1 X198.251 Y57.651 E99.72362
G1 X199.536 Y57.886 E99.78445
G1 X200.205 Y58.084 E99.81694
G1 X201.165 Y58.472 E99.86515
G1 X202.047 Y58.941 E99.91167
G1 X203.009 Y59.597 E99.96588
G1 X203.829 Y60.301 E100.01621
G1 X204.132 Y60.61 E100.03636
G1 X205.106 Y61.828 E100.10898
G1 X205.364 Y62.234 E100.13138
G1 X206.056 Y63.632 E100.20401
G1 X206.182 Y63.968 E100.22072
G1 X206.6 Y65.59 E100.29872
G1 X206.657 Y65.977 E100.31693
G1 X206.734 Y67.168 E100.37251
G1 X206.716 Y162.068 E104.79145
G1 X206.643 Y162.893 E104.83001
G1 X206.55 Y163.45 E104.85631
G1 X206.194 Y164.751 E104.91912
G1 X205.946 Y165.386 E104.95086
G1 X205.241 Y166.713 E105.02083
G1 X204.709 Y167.477 E105.06418
G1 X204.332 Y167.931 E105.09166
G1 X203.427 Y168.818 E105.15066
G1 X202.486 Y169.552 E105.20623
G1 X202.08 Y169.81 E105.22863
G1 X200.773 Y170.457 E105.29654
G1 X199.964 Y170.746 E105.33654
G1 X198.752 Y171.047 E105.39469
G1 X198.4 Y171.1 E105.41127
G1 X197.145 Y171.18 E105.46983
G1 X106.656 Y171.164 E109.68337
G1 X106.001 Y171.109 E109.71398
G1 X105.065 Y170.948 E109.7582
G1 X105.065 Y172.506 E109.83075
G1 X104.678 Y174.085 E109.90645
G1 X103.775 Y175.834 E109.99811
G1 X102.465 Y177.044 E110.08114
G1 X101.482 Y177.631 E110.13446
G1 X101.278 Y178.023 E110.15503
G1 X99.962 Y179.252 E110.23888
G1 X98.246 Y180.276 E110.33193
G1 X96.749 Y180.522 E110.40257
G1 X38.932 Y180.582 E113.09477
G1 X37.325 Y180.187 E113.17183
G1 X35.602 Y179.294 E113.2622
G1 X34.382 Y177.985 E113.34552
G1 X34.206 Y177.687 E113.36163
G1 X33.068 Y177.098 E113.4213
G1 X31.82 Y175.755 E113.50667
G1 X30.816 Y174.071 E113.59796
G1 X30.57 Y172.566 E113.66897
G1 X30.51 Y154.971 E114.48827
G1 X30.13 Y154.565 E114.51416
G1 X29.116 Y152.867 E114.60626
G1 X28.87 Y151.366 E114.67708
G1 X28.81 Y138.258 E115.28745
G1 X29.195 Y136.683 E115.36295
G1 X30.101 Y134.928 E115.45492
G1 X30.51 Y134.552 E115.48079
G1 X30.51 Y110.176 E116.61583
G1 X30.126 Y109.764 E116.64206
G1 X29.116 Y108.071 E116.73386
G1 X28.87 Y106.566 E116.80486
G1 X28.81 Y93.458 E117.41523
G1 X29.195 Y91.883 E117.49073
G1 X30.101 Y90.128 E117.5827
G1 X30.51 Y89.752 E117.60857
G1 X30.51 Y86.168 E117.77545
G1 X30.905 Y84.561 E117.85251
G1 X31.798 Y82.84 E117.94279
G1 X33.123 Y81.602 E118.02723
G1 X34.5 Y80.783 E118.10183
G1 X35.1 Y80.543 E118.13192
G1 X36.59 Y80.318 E118.20209
G1 X36.992 Y80.305 E118.22082
G1 X37.428 Y79.898 E118.24859
G0 F6000 X37.67 Y80.22
G1 F1200 X39.261 Y79.271 E118.33486
G1 X40.691 Y79.037 E118.40233
G1 X46.971 Y79.001 E118.69476
G1 X46.938 Y53.846 E119.86608
G1 X47.309 Y52.336 E119.93848
G1 X48.149 Y50.717 E120.02341
G1 X49.383 Y49.565 E120.10202
G1 X50.995 Y48.603 E120.18943
G1 X52.419 Y48.369 E120.25663
G1 X83.406 Y48.314 E121.69951
G1 X84.916 Y48.685 E121.77192
G1 X86.535 Y49.525 E121.85685
G1 X87.687 Y50.759 E121.93546
G1 X88.649 Y52.371 E122.02287
G1 X88.883 Y53.795 E122.09006
G1 X88.936 Y78.984 E123.26297
G1 X94.839 Y78.982 E123.53784
G1 X96.329 Y79.347 E123.60927
G1 X97.939 Y80.179 E123.69366
G1 X97.949 Y66.726 E124.32009
G1 X98.011 Y66.001 E124.35397
G1 X98.112 Y65.398 E124.38244
G1 X98.48 Y64.077 E124.44629
G1 X98.833 Y63.219 E124.48949
G1 X99.107 Y62.693 E124.51711
G1 X99.892 Y61.503 E124.58349
G1 X100.184 Y61.149 E124.60486
G1 X101.101 Y60.242 E124.66492
G1 X101.927 Y59.594 E124.7138
G1 X102.328 Y59.334 E124.73606
G1 X103.659 Y58.665 E124.80542
G1 X104.439 Y58.381 E124.84407
G1 X105.08 Y58.212 E124.87494
G1 X106.056 Y58.049 E124.92102
G1 X107.124 Y57.98 E124.97085
G1 X197.461 Y57.991 E129.17732
G1 X198.22 Y58.05 E129.21277
G1 X199.422 Y58.27 E129.26967
G1 X200.091 Y58.468 E129.30216
G1 X200.978 Y58.826 E129.3467
G1 X201.822 Y59.272 E129.39115
G1 X202.749 Y59.901 E129.44331
G1 X203.543 Y60.581 E129.49199
G1 X203.846 Y60.89 E129.51214
