;FLAVOR:Marlin
;TIME:13144
;Filament used: 7.97004m
;Layer height: 0.2
;MINX:0.22
;MINY:44.8
;MINZ:0.2
;MAXX:220
;MAXY:175.2
;MAXZ:8
;TARGET_MACHINE.NAME:Creality Ender-3 Pro
;Generated with Cura_SteamEngine 5.10.1
; Ender 3 Custom Start G-code
G92 E0 ; Reset Extruder
G28 ; Home all axes
M420 S1 Z10 ; use bed levelling
M104 S175 ; Start heating up the nozzle most of the way
M190 S60 ; Start heating the bed, wait until target temperature reached
M109 S200 ; Finish heating the nozzle

G1 Z2.0 F3000 ; Move Z Axis up little to prevent scratching of Heat Bed
G1 X0.1 Y20 Z0.3 F5000.0 ; Move to start position

G1 F3000 Z20 ; Move Z Axis up 20 mm to allow filament ooze freely
G1 F300 E50 ; Slowly extrude a 50mm spaghetti

G1 X0.1 Y20 Z0.3 F5000.0 ; Move to start position
; G1 X0.1 Y200.0 Z0.3 F1500.0 E15 ; Draw the first line
; G1 X0.4 Y200.0 Z0.3 F5000.0 ; Move to side a little
; G1 X0.4 Y20 Z0.3 F1500.0 E30 ; Draw the second line
; G92 E0 ; Reset Extruder
G1 Z2.0 F3000 ; Move Z Axis up little to prevent scratching of Heat Bed
G1 X5 Y20 Z0.3 F5000.0 ; Move over to prevent blob squish
M82 ;absolute extrusion mode
G92 E0
G92 E0
G1 F1500 E-6.5
;LAYER_COUNT:40
;LAYER:0
M107
G0 F6000 X220 Y67.682 Z0.2
;TYPE:SKIRT
G1 F1500 E0
G1 F1200 X219.949 Y67.168 E0.01718
G1 X219.776 Y64.71 E0.09914
G1 X219.667 Y62.142 E0.18462
G1 X219.63 Y59.529 E0.27154
G1 X219.629 Y58.871 E0.29343
G1 X219.604 Y58.07 E0.32008
G1 X219.499 Y57.02 E0.35518
G1 X219.384 Y56.329 E0.37848
G1 X219.126 Y55.215 E0.41651
G1 X218.813 Y54.285 E0.44915
G1 X218.588 Y53.725 E0.46922
G1 X218.337 Y53.173 E0.48939
G1 X218.141 Y52.782 E0.50394
G1 X217.852 Y52.253 E0.52398
G1 X217.579 Y51.802 E0.54152
G1 X217.32 Y51.405 E0.55728
G1 X216.732 Y50.613 E0.59009
G1 X216.379 Y50.198 E0.60821
G1 X215.674 Y49.48 E0.64168
G1 X214.989 Y48.861 E0.67239
G1 X214.513 Y48.467 E0.69294
G1 X213.784 Y47.943 E0.7228
G1 X212.685 Y47.305 E0.76507
G1 X212.301 Y47.119 E0.77926
G1 X211.46 Y46.752 E0.80978
G1 X210.865 Y46.518 E0.83104
G1 X210.003 Y46.247 E0.8611
G1 X209.053 Y46.036 E0.89346
G1 X208.37 Y45.921 E0.9165
G1 X207.79 Y45.84 E0.93598
G1 X205.26 Y45.44 E1.02117
G1 X203.837 Y45.174 E1.06932
G1 X202.778 Y44.988 E1.10508
G1 X202.21 Y44.904 E1.12418
G1 X201.284 Y44.823 E1.1551
G1 X200.226 Y44.801 E1.19029
G1 X124.254 Y44.8 E3.71713
G1 X122.947 Y44.824 E3.76061
G1 X121.999 Y44.885 E3.79221
G1 X121.439 Y44.945 E3.81094
G1 X117.699 Y45.284 E3.93584
G1 X115.245 Y45.421 E4.01759
G1 X112.713 Y45.491 E4.10184
G1 X110.225 Y45.489 E4.18459
G1 X107.656 Y45.415 E4.27007
G1 X105.209 Y45.276 E4.35159
G1 X102.636 Y45.053 E4.43749
G1 X101.891 Y44.969 E4.46242
G1 X100.495 Y44.835 E4.50907
G1 X99.931 Y44.811 E4.52784
G1 X99.063 Y44.8 E4.55671
G1 X22.589 Y44.8 E7.10025
G1 X21.982 Y44.814 E7.12044
G1 X21.351 Y44.853 E7.14147
G1 X20.365 Y44.984 E7.17455
G1 X18.703 Y45.285 E7.23073
G1 X15.456 Y45.814 E7.34015
G1 X14.874 Y45.899 E7.35971
G1 X13.992 Y46.052 E7.38949
G1 X13.288 Y46.203 E7.41343
G1 X12.362 Y46.478 E7.44556
G1 X11.958 Y46.617 E7.45977
G1 X10.749 Y47.121 E7.50334
G1 X9.919 Y47.571 E7.53474
G1 X9.53 Y47.805 E7.54984
G1 X8.701 Y48.357 E7.58296
G1 X7.995 Y48.921 E7.61302
G1 X7.384 Y49.475 E7.64045
G1 X6.683 Y50.188 E7.67371
G1 X6.063 Y50.94 E7.70612
G1 X5.513 Y51.744 E7.73852
G1 X5.282 Y52.155 E7.7542
G1 X5.229 Y52.228 E7.7572
G1 X4.957 Y52.72 E7.7759
G1 X4.519 Y53.606 E7.80878
G1 X4.178 Y54.48 E7.83998
G1 X3.938 Y55.219 E7.86582
G1 X3.744 Y55.965 E7.89146
G1 X3.584 Y56.854 E7.9215
G1 X3.522 Y57.322 E7.9372
G1 X3.432 Y58.529 E7.97746
G1 X3.411 Y60.844 E8.05446
G1 X3.337 Y63.41 E8.13984
G1 X3.197 Y65.915 E8.22329
G1 X2.98 Y68.422 E8.30698
G1 X2.695 Y70.935 E8.3911
G1 X2.342 Y73.418 E8.47452
G1 X1.919 Y75.887 E8.55783
G1 X1.426 Y78.337 E8.64095
G1 X0.83 Y80.924 E8.72925
G1 X0.548 Y82.075 E8.76867
G1 X0.447 Y82.533 E8.78427
G1 X0.303 Y83.45 E8.81514
G1 X0.233 Y84.512 E8.85054
G1 X0.221 Y85.249 E8.87505
G1 X0.22 Y90.97 E9.06534
G1 X0.233 Y91.594 E9.08609
G1 X0.27 Y92.23 E9.10728
G1 X0.383 Y93.126 E9.13732
G1 X0.914 Y96.211 E9.24144
G1 X1.267 Y98.693 E9.32482
G1 X1.555 Y101.213 E9.40918
G1 X1.765 Y103.702 E9.49226
G1 X1.908 Y106.217 E9.57604
G1 X1.981 Y108.733 E9.65976
G1 X1.981 Y111.245 E9.74331
G1 X1.91 Y113.771 E9.82736
G1 X1.77 Y116.267 E9.91051
G1 X1.552 Y118.82 E9.99573
G1 X1.271 Y121.305 E10.07891
G1 X0.923 Y123.754 E10.16118
G1 X0.413 Y126.709 E10.26092
G1 X0.29 Y127.572 E10.28991
G1 X0.233 Y128.516 E10.32136
G1 X0.221 Y129.249 E10.34575
G1 X0.22 Y134.97 E10.53603
G1 X0.243 Y135.838 E10.56491
G1 X0.333 Y136.791 E10.59675
G1 X0.515 Y137.793 E10.63062
G1 X1.148 Y140.381 E10.71923
G1 X1.682 Y142.857 E10.80348
G1 X2.14 Y145.322 E10.88687
G1 X2.53 Y147.805 E10.97047
G1 X2.851 Y150.313 E11.05456
G1 X3.099 Y152.81 E11.13802
G1 X3.274 Y155.29 E11.22071
G1 X3.383 Y157.836 E11.30547
G1 X3.434 Y161.5 E11.42735
G1 X3.508 Y162.474 E11.45984
G1 X3.573 Y163.005 E11.47763
G1 X3.821 Y164.335 E11.52263
G1 X4.09 Y165.243 E11.55412
G1 X4.241 Y165.679 E11.56947
G1 X4.597 Y166.567 E11.60129
G1 X5.017 Y167.406 E11.6325
G1 X5.452 Y168.153 E11.66125
G1 X6.073 Y169.073 E11.69817
G1 X6.698 Y169.831 E11.73084
G1 X7.422 Y170.563 E11.76509
G1 X8.088 Y171.147 E11.79455
G1 X9.123 Y171.939 E11.83789
G1 X9.927 Y172.434 E11.8693
G1 X10.316 Y172.65 E11.8841
G1 X11.551 Y173.235 E11.92955
G1 X12.442 Y173.549 E11.96097
G1 X12.942 Y173.699 E11.97833
G1 X14.241 Y174.005 E12.02272
G1 X14.863 Y174.106 E12.04368
G1 X15.433 Y174.184 E12.06281
G1 X17.987 Y174.591 E12.14883
G1 X19.51 Y174.877 E12.20037
G1 X20.733 Y175.082 E12.24162
G1 X21.767 Y175.177 E12.27615
G1 X22.825 Y175.199 E12.31135
G1 X98.796 Y175.2 E14.83815
G1 X100.103 Y175.176 E14.88163
G1 X101.051 Y175.115 E14.91323
G1 X101.611 Y175.055 E14.93196
G1 X105.351 Y174.716 E15.05686
G1 X107.805 Y174.579 E15.13861
G1 X110.337 Y174.509 E15.22286
G1 X112.825 Y174.511 E15.30561
G1 X115.394 Y174.585 E15.39109
G1 X117.841 Y174.724 E15.47261
G1 X120.414 Y174.947 E15.55851
G1 X121.159 Y175.031 E15.58344
G1 X122.555 Y175.165 E15.63009
G1 X123.119 Y175.189 E15.64886
G1 X123.839 Y175.199 E15.67281
G1 X199.782 Y175.2 E18.19869
G1 X201.065 Y175.177 E18.24137
G1 X201.842 Y175.133 E18.26725
G1 X202.799 Y175.004 E18.29937
G1 X205.411 Y174.525 E18.38769
G1 X208.305 Y174.084 E18.48506
G1 X208.915 Y173.976 E18.50566
G1 X209.822 Y173.787 E18.53648
G1 X210.921 Y173.473 E18.57449
G1 X211.836 Y173.113 E18.6072
G1 X212.707 Y172.677 E18.63959
G1 X213.516 Y172.21 E18.67066
G1 X213.956 Y171.933 E18.68796
G1 X214.776 Y171.335 E18.72171
G1 X215.233 Y170.947 E18.74165
G1 X215.955 Y170.238 E18.77531
G1 X216.601 Y169.515 E18.80755
G1 X217.282 Y168.65 E18.84417
G1 X217.813 Y167.828 E18.87672
G1 X218.267 Y166.966 E18.90912
G1 X218.685 Y166.017 E18.94361
G1 X218.914 Y165.435 E18.96441
G1 X219.184 Y164.573 E18.99446
G1 X219.395 Y163.623 E19.02683
G1 X219.52 Y162.824 E19.05372
G1 X219.607 Y161.869 E19.08562
G1 X219.619 Y161.509 E19.0976
G1 X219.639 Y159.156 E19.17586
G1 X219.713 Y156.59 E19.26124
G1 X219.853 Y154.085 E19.34469
G1 X220 Y152.387 E19.40138
G1 F1500 E12.90138
G0 F6000 X220 Y148.721
G1 F1500 E19.40138
G1 F1200 X219.959 Y149.009 E19.41105
G1 X219.671 Y151.544 E19.49591
G1 X219.455 Y154.051 E19.5796
G1 X219.313 Y156.578 E19.66378
G1 X219.239 Y159.144 E19.74916
G1 X219.219 Y161.496 E19.82739
G1 X219.207 Y161.856 E19.83937
G1 X219.125 Y162.762 E19.86963
G1 X219.004 Y163.537 E19.89572
G1 X218.802 Y164.453 E19.92692
G1 X218.532 Y165.315 E19.95696
G1 X218.319 Y165.856 E19.9763
G1 X217.913 Y166.78 E20.00987
G1 X217.477 Y167.612 E20.04111
G1 X216.968 Y168.403 E20.0724
G1 X216.303 Y169.248 E20.10816
G1 X215.657 Y169.971 E20.14041
G1 X214.974 Y170.642 E20.17225
G1 X214.517 Y171.03 E20.19219
G1 X213.742 Y171.595 E20.22409
G1 X213.316 Y171.864 E20.24085
G1 X212.527 Y172.32 E20.27116
G1 X211.689 Y172.741 E20.30235
G1 X210.811 Y173.088 E20.33375
G1 X209.74 Y173.395 E20.37081
G1 X208.845 Y173.582 E20.40122
G1 X208.245 Y173.689 E20.42149
G1 X205.345 Y174.131 E20.51906
G1 X202.745 Y174.608 E20.60698
G1 X201.819 Y174.734 E20.63806
G1 X201.058 Y174.777 E20.66341
G1 X199.782 Y174.8 E20.70586
G1 X123.845 Y174.799 E23.23153
G1 X123.136 Y174.789 E23.25512
G1 X122.572 Y174.765 E23.27389
G1 X121.204 Y174.634 E23.3196
G1 X120.448 Y174.548 E23.34491
G1 X117.875 Y174.326 E23.4308
G1 X115.406 Y174.185 E23.51306
G1 X112.837 Y174.111 E23.59854
G1 X110.326 Y174.109 E23.68205
G1 X107.794 Y174.179 E23.7663
G1 X105.321 Y174.317 E23.84868
G1 X101.568 Y174.657 E23.97402
G1 X101.025 Y174.716 E23.99218
G1 X100.096 Y174.776 E24.02315
G1 X98.796 Y174.8 E24.06639
G1 X22.833 Y174.799 E26.59293
G1 X21.775 Y174.777 E26.62813
G1 X20.799 Y174.687 E26.66073
G1 X19.584 Y174.484 E26.7017
G1 X18.05 Y174.196 E26.75361
G1 X15.496 Y173.789 E26.83963
G1 X14.927 Y173.711 E26.85873
G1 X14.305 Y173.61 E26.87969
G1 X13.057 Y173.316 E26.92233
G1 X12.574 Y173.171 E26.93911
G1 X11.722 Y172.873 E26.96913
G1 X10.51 Y172.3 E27.01372
G1 X10.137 Y172.093 E27.02791
G1 X9.333 Y171.598 E27.05931
G1 X8.352 Y170.846 E27.10042
G1 X7.686 Y170.262 E27.12988
G1 X7.006 Y169.576 E27.16201
G1 X6.405 Y168.849 E27.19338
G1 X5.784 Y167.929 E27.2303
G1 X5.375 Y167.227 E27.25732
G1 X4.955 Y166.388 E27.28853
G1 X4.619 Y165.548 E27.31862
G1 X4.474 Y165.129 E27.33337
G1 X4.205 Y164.221 E27.36486
G1 X3.97 Y162.956 E27.40766
G1 X3.907 Y162.443 E27.42485
G1 X3.834 Y161.494 E27.45651
G1 X3.783 Y157.83 E27.57838
G1 X3.674 Y155.273 E27.66351
G1 X3.498 Y152.782 E27.74656
G1 X3.248 Y150.262 E27.83079
G1 X2.927 Y147.754 E27.91489
G1 X2.535 Y145.26 E27.99886
G1 X2.075 Y142.784 E28.08262
G1 X1.537 Y140.286 E28.16761
G1 X0.904 Y137.698 E28.25622
G1 X0.731 Y136.753 E28.28817
G1 X0.643 Y135.827 E28.31911
G1 X0.62 Y134.97 E28.34763
G1 X0.621 Y129.255 E28.53771
G1 X0.632 Y128.54 E28.56149
G1 X0.686 Y127.628 E28.59188
G1 X0.807 Y126.777 E28.62047
G1 X1.317 Y123.822 E28.7202
G1 X1.667 Y121.361 E28.80288
G1 X1.951 Y118.854 E28.8868
G1 X2.168 Y116.301 E28.97202
G1 X2.31 Y113.782 E29.05593
G1 X2.381 Y111.256 E29.13998
G1 X2.381 Y108.733 E29.2239
G1 X2.308 Y106.205 E29.30801
G1 X2.164 Y103.668 E29.39253
G1 X1.953 Y101.179 E29.47561
G1 X1.663 Y98.637 E29.56071
G1 X1.31 Y96.155 E29.64409
G1 X0.78 Y93.076 E29.748
G1 X0.667 Y92.18 E29.77804
G1 X0.633 Y91.586 E29.79783
G1 X0.62 Y90.97 E29.81832
G1 X0.621 Y85.255 E30.0084
G1 X0.632 Y84.538 E30.03225
G1 X0.698 Y83.512 E30.06645
G1 X0.838 Y82.619 E30.09651
G1 X0.937 Y82.17 E30.11181
G1 X1.219 Y81.019 E30.15122
G1 X1.816 Y78.427 E30.23969
G1 X2.311 Y75.966 E30.32318
G1 X2.736 Y73.486 E30.40687
G1 X3.091 Y70.991 E30.49069
G1 X3.379 Y68.456 E30.57554
G1 X3.595 Y65.949 E30.65924
G1 X3.737 Y63.422 E30.74342
G1 X3.811 Y60.856 E30.8288
G1 X3.831 Y58.559 E30.9052
G1 X3.921 Y57.352 E30.94546
G1 X3.978 Y56.925 E30.95978
G1 X4.138 Y56.036 E30.98983
G1 X4.319 Y55.342 E31.01368
G1 X4.551 Y54.625 E31.03875
G1 X4.878 Y53.783 E31.06879
G1 X5.307 Y52.914 E31.10102
G1 X5.579 Y52.422 E31.11972
G1 X5.61 Y52.387 E31.12128
G1 X5.844 Y51.969 E31.13721
G1 X6.372 Y51.194 E31.1684
G1 X6.968 Y50.468 E31.19964
G1 X7.653 Y49.771 E31.23214
G1 X8.245 Y49.234 E31.25873
G1 X8.951 Y48.67 E31.28878
G1 X9.736 Y48.148 E31.32014
G1 X10.11 Y47.923 E31.33465
G1 X10.94 Y47.473 E31.36606
G1 X12.089 Y46.995 E31.40745
G1 X12.476 Y46.861 E31.42107
G1 X13.372 Y46.594 E31.45217
G1 X14.06 Y46.446 E31.47557
G1 X14.932 Y46.295 E31.50501
G1 X15.514 Y46.21 E31.52457
G1 X18.774 Y45.679 E31.63443
G1 X20.436 Y45.378 E31.6906
G1 X21.376 Y45.252 E31.72215
G1 X21.991 Y45.214 E31.74264
G1 X22.598 Y45.2 E31.76284
G1 X99.058 Y45.2 E34.30591
G1 X99.914 Y45.211 E34.33438
G1 X100.478 Y45.235 E34.35315
G1 X101.846 Y45.366 E34.39886
G1 X102.602 Y45.452 E34.42417
G1 X105.175 Y45.674 E34.51007
G1 X107.644 Y45.815 E34.59232
G1 X110.213 Y45.889 E34.6778
G1 X112.724 Y45.891 E34.76132
G1 X115.256 Y45.821 E34.84556
G1 X117.729 Y45.683 E34.92794
G1 X121.482 Y45.343 E35.05328
G1 X122.025 Y45.284 E35.07145
G1 X122.954 Y45.224 E35.10241
G1 X124.254 Y45.2 E35.14565
G1 X200.218 Y45.201 E37.67223
G1 X201.276 Y45.223 E37.70742
G1 X202.152 Y45.3 E37.73667
G1 X202.709 Y45.382 E37.7554
G1 X203.764 Y45.567 E37.79102
G1 X205.198 Y45.835 E37.83954
G1 X207.729 Y46.235 E37.92477
G1 X208.303 Y46.315 E37.94405
G1 X208.967 Y46.427 E37.96644
G1 X209.883 Y46.629 E37.99764
G1 X210.745 Y46.9 E38.02769
G1 X211.3 Y47.119 E38.04754
G1 X212.141 Y47.486 E38.07806
G1 X212.484 Y47.651 E38.09072
G1 X213.583 Y48.289 E38.13298
G1 X214.258 Y48.776 E38.16067
G1 X214.721 Y49.158 E38.18063
G1 X215.406 Y49.777 E38.21134
G1 X216.075 Y50.458 E38.24309
G1 X216.411 Y50.852 E38.26031
G1 X216.985 Y51.624 E38.29231
G1 X217.237 Y52.01 E38.30764
G1 X217.501 Y52.445 E38.32457
G1 X217.784 Y52.962 E38.34417
G1 X217.973 Y53.338 E38.35817
G1 X218.217 Y53.875 E38.37778
G1 X218.434 Y54.413 E38.39708
G1 X218.736 Y55.306 E38.42843
G1 X218.989 Y56.395 E38.46562
G1 X219.104 Y57.086 E38.48892
G1 X219.204 Y58.083 E38.52224
G1 X219.229 Y58.872 E38.5485
G1 X219.23 Y59.535 E38.57055
G1 X219.267 Y62.159 E38.65783
G1 X219.376 Y64.727 E38.74332
G1 X219.551 Y67.207 E38.82601
G1 X219.802 Y69.738 E38.91061
G1 X220 Y71.285 E38.96248
G1 F1500 E32.46248
G0 F6000 X220 Y74.039
G1 F1500 E38.96248
G1 F1200 X219.726 Y72.297 E39.02113
G1 X219.405 Y69.789 E39.10523
G1 X219.153 Y67.246 E39.19022
G1 X218.976 Y64.744 E39.27365
G1 X218.867 Y62.176 E39.35914
G1 X218.83 Y59.541 E39.44679
G1 X218.829 Y58.873 E39.469
G1 X218.804 Y58.096 E39.49486
G1 X218.709 Y57.152 E39.52642
G1 X218.594 Y56.461 E39.54971
G1 X218.346 Y55.397 E39.58605
G1 X218.055 Y54.542 E39.61609
G1 X217.846 Y54.025 E39.63464
G1 X217.609 Y53.504 E39.65368
G1 X217.427 Y53.142 E39.66715
G1 X217.15 Y52.638 E39.68628
G1 X216.895 Y52.217 E39.70265
G1 X216.65 Y51.843 E39.71752
G1 X216.09 Y51.091 E39.74871
G1 X215.771 Y50.718 E39.76503
G1 X215.138 Y50.074 E39.79507
G1 X214.453 Y49.455 E39.82577
G1 X214.004 Y49.085 E39.84512
G1 X213.382 Y48.635 E39.87066
G1 X212.283 Y47.997 E39.91292
G1 X211.969 Y47.847 E39.9245
G1 X211.14 Y47.486 E39.95457
G1 X210.625 Y47.282 E39.973
G1 X209.763 Y47.011 E40.00305
G1 X208.881 Y46.818 E40.03308
G1 X208.236 Y46.709 E40.05484
G1 X207.668 Y46.63 E40.07391
G1 X205.136 Y46.23 E40.15917
G1 X203.691 Y45.96 E40.20806
G1 X202.64 Y45.776 E40.24355
G1 X202.094 Y45.696 E40.2619
G1 X201.268 Y45.623 E40.28948
G1 X200.21 Y45.601 E40.32468
G1 X124.254 Y45.6 E42.85099
G1 X122.961 Y45.624 E42.894
G1 X122.051 Y45.683 E42.92433
G1 X121.526 Y45.741 E42.9419
G1 X117.759 Y46.082 E43.0677
G1 X115.267 Y46.221 E43.15071
G1 X112.735 Y46.291 E43.23496
G1 X110.201 Y46.289 E43.31924
G1 X107.632 Y46.215 E43.40472
G1 X105.141 Y46.072 E43.48771
G1 X102.568 Y45.851 E43.5736
G1 X101.8 Y45.763 E43.59931
G1 X100.461 Y45.635 E43.64405
G1 X99.897 Y45.611 E43.66283
G1 X99.053 Y45.6 E43.6909
G1 X22.607 Y45.6 E46.23351
G1 X22 Y45.614 E46.2537
G1 X21.401 Y45.651 E46.27366
G1 X20.507 Y45.772 E46.30367
G1 X18.845 Y46.073 E46.35984
G1 X15.572 Y46.606 E46.47014
G1 X14.99 Y46.691 E46.4897
G1 X14.128 Y46.84 E46.5188
G1 X13.456 Y46.985 E46.54166
G1 X12.591 Y47.244 E46.57169
G1 X12.22 Y47.373 E46.58476
G1 X11.094 Y47.842 E46.62533
G1 X10.301 Y48.274 E46.65536
G1 X9.943 Y48.49 E46.66927
G1 X9.201 Y48.983 E46.6989
G1 X8.495 Y49.547 E46.72895
G1 X7.922 Y50.067 E46.75469
G1 X7.254 Y50.748 E46.78642
G1 X6.682 Y51.447 E46.81646
G1 X6.175 Y52.194 E46.84649
G1 X5.938 Y52.621 E46.86273
G1 X5.929 Y52.616 E46.86307
G1 X5.657 Y53.108 E46.88177
G1 X5.251 Y53.928 E46.9122
G1 X4.924 Y54.77 E46.94225
G1 X4.7 Y55.465 E46.96653
G1 X4.532 Y56.107 E46.9886
G1 X4.372 Y56.996 E47.01865
G1 X4.32 Y57.382 E47.0316
G1 X4.23 Y58.589 E47.07186
G1 X4.211 Y60.868 E47.14766
G1 X4.137 Y63.434 E47.23304
G1 X3.993 Y65.983 E47.31796
G1 X3.778 Y68.49 E47.40165
G1 X3.487 Y71.047 E47.48724
G1 X3.13 Y73.554 E47.57147
G1 X2.703 Y76.045 E47.65553
G1 X2.206 Y78.517 E47.73939
G1 X1.608 Y81.114 E47.82803
G1 X1.326 Y82.265 E47.86744
G1 X1.233 Y82.681 E47.88162
G1 X1.093 Y83.574 E47.91168
G1 X1.031 Y84.563 E47.94464
G1 X1.021 Y85.261 E47.96786
G1 X1.02 Y90.97 E48.15774
G1 X1.033 Y91.577 E48.17794
G1 X1.064 Y92.131 E48.19639
G1 X1.177 Y93.027 E48.22643
G1 X1.706 Y96.099 E48.33011
G1 X2.059 Y98.581 E48.41349
