;FLAVOR:Marlin
;TIME:20398
;Filament used: 18.1309m
;Layer height: 0.28
;MINX:27.61
;MINY:46.714
;MINZ:0.28
;MAXX:210.275
;MAXY:181.782
;MAXZ:32.48
;TARGET_MACHINE.NAME:Creality Ender-3 Pro
;Generated with Cura_SteamEngine 5.9.0
M82 ;absolute extrusion mode
; Ender 3 Custom Start G-code
G92 E0 ; Reset Extruder
G28 ; Home all axes
M420 S1 Z10 ; use bed levelling
M104 S175 ; Start heating up the nozzle most of the way
M190 S60 ; Start heating the bed, wait until target temperature reached
M109 S200 ; Finish heating the nozzle

G1 Z2.0 F3000 ; Move Z Axis up little to prevent scratching of Heat Bed
G1 X0.1 Y20 Z0.3 F5000.0 ; Move to start position

G1 F3000 Z20 ; Move Z Axis up 20 mm to allow filament ooze freely
G1 F300 E50 ; Slowly extrude a 50mm spaghetti

G1 X0.1 Y20 Z0.3 F5000.0 ; Move to start position
; G1 X0.1 Y200.0 Z0.3 F1500.0 E15 ; Draw the first line
; G1 X0.4 Y200.0 Z0.3 F5000.0 ; Move to side a little
; G1 X0.4 Y20 Z0.3 F1500.0 E30 ; Draw the second line
; G92 E0 ; Reset Extruder
G1 Z2.0 F3000 ; Move Z Axis up little to prevent scratching of Heat Bed
G1 X5 Y20 Z0.3 F5000.0 ; Move over to prevent blob squish
G92 E0
G92 E0
G1 F1500 E-6.5
;LAYER_COUNT:116
;LAYER:0
M107
G0 F6000 X36.502 Y79.122 Z0.28
;TYPE:SKIRT
G1 F1500 E0
G1 F1200 X36.745 Y78.906 E0.01514
G1 X38.572 Y77.817 E0.11418
G1 X38.857 Y77.715 E0.12827
G1 X40.617 Y77.442 E0.21121
G1 X45.368 Y77.412 E0.43244
G1 X45.338 Y53.661 E1.53838
G1 X45.804 Y51.765 E1.6293
G1 X46.857 Y49.737 E1.7357
G1 X48.418 Y48.278 E1.83519
G1 X50.441 Y47.071 E1.94488
G1 X52.159 Y46.789 E2.02595
G1 X83.591 Y46.714 E3.48956
G1 X85.487 Y47.18 E3.58048
G1 X87.515 Y48.233 E3.68688
G1 X88.974 Y49.794 E3.78637
G1 X90.181 Y51.817 E3.89606
G1 X90.463 Y53.535 E3.97713
G1 X90.532 Y77.384 E5.08764
G1 X95.039 Y77.382 E5.29751
G1 X96.881 Y77.833 E5.38581
G1 X98.682 Y78.763 E5.4802
G1 X98.694 Y62.254 E6.24893
G1 X98.762 Y61.45 E6.2865
G1 X98.93 Y60.479 E6.33238
G1 X99.259 Y59.327 E6.38817
G1 X99.82 Y57.975 E6.45633
G1 X100.269 Y57.16 E6.49966
G1 X100.976 Y56.135 E6.55764
G1 X101.353 Y55.681 E6.58512
G1 X102.376 Y54.675 E6.65192
G1 X103.478 Y53.814 E6.71704
G1 X103.884 Y53.556 E6.73944
G1 X105.338 Y52.827 E6.81518
G1 X105.989 Y52.583 E6.84755
G1 X107.643 Y52.157 E6.92708
G1 X108.107 Y52.088 E6.94893
G1 X109.465 Y52 E7.01229
G1 X199.849 Y52.012 E11.22095
G1 X200.952 Y52.103 E11.27249
G1 X201.367 Y52.168 E11.29205
G1 X203.129 Y52.64 E11.37698
G1 X203.864 Y52.938 E11.41392
G1 X205.208 Y53.654 E11.48482
G1 X206.14 Y54.301 E11.53765
G1 X206.594 Y54.678 E11.56513
G1 X207.6 Y55.701 E11.63194
G1 X208.461 Y56.803 E11.69706
G1 X208.719 Y57.209 E11.71946
G1 X209.448 Y58.663 E11.7952
G1 X209.692 Y59.314 E11.82757
G1 X210.118 Y60.968 E11.9071
G1 X210.187 Y61.43 E11.92885
G1 X210.275 Y62.789 E11.99226
G1 X210.256 Y157.746 E16.41386
G1 X210.188 Y158.55 E16.45143
G1 X210.02 Y159.521 E16.49732
G1 X209.691 Y160.673 E16.5531
G1 X209.13 Y162.025 E16.62126
G1 X208.681 Y162.84 E16.66459
G1 X207.974 Y163.865 E16.72257
G1 X207.597 Y164.319 E16.75005
G1 X206.574 Y165.325 E16.81686
G1 X205.472 Y166.186 E16.88198
G1 X205.066 Y166.444 E16.90438
G1 X203.612 Y167.173 E16.98012
G1 X202.961 Y167.417 E17.01249
G1 X201.307 Y167.843 E17.09202
G1 X200.843 Y167.912 E17.11386
G1 X199.485 Y168 E17.17723
G1 X108.9 Y167.981 E21.39525
G1 X108.215 Y167.925 E21.42725
G1 X107.467 Y167.805 E21.46252
G1 X106.265 Y167.481 E21.52049
G1 X106.265 Y172.652 E21.76128
G1 X105.811 Y174.504 E21.85007
G1 X104.743 Y176.573 E21.95848
G1 X103.188 Y178.01 E22.05708
G1 X102.391 Y178.486 E22.1003
G1 X102.199 Y178.803 E22.11756
G1 X100.685 Y180.218 E22.21405
G1 X98.662 Y181.425 E22.32375
G1 X96.944 Y181.707 E22.40481
G1 X38.793 Y181.782 E25.11257
G1 X36.897 Y181.316 E25.20348
G1 X34.861 Y180.26 E25.31028
G1 X33.503 Y178.804 E25.40299
G1 X33.363 Y178.601 E25.41447
G1 X32.333 Y178.067 E25.4685
G1 X30.848 Y176.472 E25.56997
G1 X29.667 Y174.491 E25.67737
G1 X29.38 Y172.697 E25.76196
G1 X29.313 Y155.448 E26.56516
G1 X29.144 Y155.256 E26.57707
G1 X27.967 Y153.283 E26.68404
G1 X27.685 Y151.561 E26.76529
G1 X27.61 Y138.111 E27.39159
G1 X28.059 Y136.27 E27.47983
G1 X29.102 Y134.25 E27.58569
G1 X29.31 Y134.025 E27.59996
G1 X29.31 Y110.648 E28.68849
G1 X29.136 Y110.45 E28.70076
G1 X28.006 Y108.556 E28.80346
G1 X27.955 Y108.414 E28.81048
G1 X27.675 Y106.635 E28.89434
G1 X27.61 Y93.311 E29.51477
G1 X28.059 Y91.47 E29.60301
G1 X29.102 Y89.45 E29.70886
G1 X29.31 Y89.225 E29.72313
G1 X29.31 Y86.029 E29.87195
G1 X29.776 Y84.133 E29.96286
G1 X30.829 Y82.105 E30.06927
G1 X32.402 Y80.634 E30.16955
G1 X33.999 Y79.696 E30.25579
G1 X34.793 Y79.374 E30.29569
G1 X36.502 Y79.122 E30.37613
G0 F6000 X36.95 Y79.25
G1 F1200 X38.777 Y78.161 E30.47517
G1 X38.919 Y78.11 E30.48219
G1 X40.62 Y77.842 E30.56237
G1 X45.768 Y77.809 E30.80209
G1 X45.738 Y53.707 E31.92438
G1 X46.18 Y51.908 E32.01064
G1 X47.18 Y49.982 E32.11169
G1 X48.657 Y48.602 E32.20582
G1 X50.581 Y47.454 E32.31014
G1 X52.224 Y47.184 E32.38767
G1 X83.545 Y47.114 E33.84611
G1 X85.344 Y47.556 E33.93237
G1 X87.27 Y48.556 E34.03342
G1 X88.65 Y50.033 E34.12755
G1 X89.798 Y51.957 E34.23187
G1 X90.068 Y53.6 E34.3094
G1 X90.133 Y77.784 E35.43552
G1 X94.989 Y77.782 E35.66163
G1 X96.744 Y78.212 E35.74577
G1 X98.714 Y79.229 E35.849
G1 X98.947 Y79.482 E35.86502
G1 X99.081 Y79.482 E35.87126
G1 X99.093 Y62.288 E36.67188
G1 X99.161 Y61.484 E36.70945
G1 X99.315 Y60.589 E36.75174
G1 X99.644 Y59.437 E36.80753
G1 X100.171 Y58.167 E36.87155
G1 X100.599 Y57.387 E36.91298
G1 X101.284 Y56.391 E36.96927
G1 X101.661 Y55.937 E36.99675
G1 X102.656 Y54.961 E37.06165
G1 X103.693 Y54.152 E37.12289
G1 X104.099 Y53.894 E37.14529
G1 X105.478 Y53.202 E37.21713
G1 X106.129 Y52.958 E37.24951
G1 X107.702 Y52.553 E37.32514
G1 X108.166 Y52.484 E37.34698
G1 X109.465 Y52.4 E37.4076
G1 X199.816 Y52.411 E41.61472
G1 X200.919 Y52.502 E41.66625
G1 X201.304 Y52.563 E41.6844
G1 X203.025 Y53.026 E41.76739
G1 X203.676 Y53.291 E41.80012
G1 X204.98 Y53.983 E41.86886
G1 X205.884 Y54.609 E41.92006
G1 X206.338 Y54.986 E41.94754
G1 X207.314 Y55.981 E42.01244
G1 X208.123 Y57.018 E42.07368
G1 X208.381 Y57.424 E42.09608
G1 X209.073 Y58.803 E42.16792
G1 X209.317 Y59.454 E42.2003
G1 X209.722 Y61.027 E42.27593
G1 X209.791 Y61.489 E42.29768
G1 X209.875 Y62.789 E42.35834
G1 X209.857 Y157.712 E46.77836
G1 X209.789 Y158.516 E46.81593
G1 X209.635 Y159.411 E46.85821
G1 X209.306 Y160.563 E46.914
G1 X208.779 Y161.833 E46.97803
G1 X208.351 Y162.613 E47.01945
G1 X207.666 Y163.609 E47.07574
G1 X207.289 Y164.063 E47.10322
G1 X206.294 Y165.039 E47.16812
G1 X205.257 Y165.848 E47.22936
G1 X204.851 Y166.106 E47.25176
G1 X203.472 Y166.798 E47.32361
G1 X202.821 Y167.042 E47.35598
G1 X201.248 Y167.447 E47.43161
G1 X200.784 Y167.516 E47.45346
G1 X199.485 Y167.6 E47.51407
G1 X108.933 Y167.582 E51.73055
G1 X108.248 Y167.526 E51.76255
G1 X107.571 Y167.419 E51.79447
G1 X105.865 Y166.959 E51.87674
G1 X105.865 Y172.602 E52.13951
G1 X105.433 Y174.365 E52.22403
G1 X104.42 Y176.327 E52.32684
G1 X102.946 Y177.689 E52.4203
G1 X102.088 Y178.201 E52.46682
G1 X101.926 Y178.511 E52.48311
G1 X100.446 Y179.894 E52.57743
G1 X98.522 Y181.042 E52.68175
G1 X96.879 Y181.312 E52.75928
G1 X38.839 Y181.382 E55.46187
G1 X37.04 Y180.94 E55.54813
G1 X35.108 Y179.938 E55.64947
G1 X33.796 Y178.531 E55.73905
G1 X33.64 Y178.295 E55.75223
G1 X32.578 Y177.744 E55.80794
G1 X31.172 Y176.233 E55.90404
G1 X30.05 Y174.351 E56.00607
G1 X29.78 Y172.695 E56.0842
G1 X29.712 Y155.288 E56.89475
G1 X29.488 Y155.051 E56.90993
G1 X28.35 Y153.143 E57.01338
G1 X28.08 Y151.496 E57.09109
G1 X28.01 Y138.16 E57.71208
G1 X28.438 Y136.407 E57.79611
G1 X29.457 Y134.433 E57.89955
G1 X29.71 Y134.2 E57.91556
G1 X29.71 Y110.491 E59.01956
G1 X29.48 Y110.245 E59.03524
G1 X28.35 Y108.351 E59.13793
G1 X28.075 Y106.633 E59.21895
G1 X28.01 Y93.36 E59.837
G1 X28.438 Y91.607 E59.92103
G1 X29.457 Y89.633 E60.02447
G1 X29.71 Y89.4 E60.04049
G1 X29.71 Y86.075 E60.19531
G1 X30.152 Y84.276 E60.28157
G1 X31.152 Y82.35 E60.38262
G1 X32.641 Y80.958 E60.47753
G1 X34.202 Y80.041 E60.56184
G1 X34.895 Y79.764 E60.59659
G1 X36.518 Y79.522 E60.673
G1 X36.667 Y79.515 E60.67994
G1 X36.95 Y79.25 E60.69799
G0 F6000 X37.189 Y79.574
G1 F1200 X38.982 Y78.505 E60.7952
G1 X40.623 Y78.242 E60.87258
G1 X46.169 Y78.206 E61.13083
G1 X46.138 Y53.754 E62.26942
G1 X46.557 Y52.05 E62.35113
G1 X47.503 Y50.227 E62.44677
G1 X48.899 Y48.923 E62.53572
G1 X50.719 Y47.837 E62.63441
G1 X52.289 Y47.579 E62.70849
G1 X83.498 Y47.514 E64.16172
G1 X85.202 Y47.933 E64.24343
G1 X87.025 Y48.879 E64.33906
G1 X88.329 Y50.275 E64.42801
G1 X89.415 Y52.095 E64.5267
G1 X89.673 Y53.665 E64.60079
G1 X89.734 Y78.184 E65.7425
G1 X94.939 Y78.182 E65.98486
G1 X96.605 Y78.59 E66.06473
G1 X98.466 Y79.551 E66.16226
G1 X98.77 Y79.882 E66.18319
G1 X99.186 Y79.882 E66.20256
G1 X99.481 Y79.943 E66.21658
G1 X99.492 Y62.322 E67.03709
G1 X99.56 Y61.518 E67.07466
G1 X99.7 Y60.699 E67.11335
G1 X100.029 Y59.547 E67.16914
G1 X100.522 Y58.359 E67.22903
G1 X100.95 Y57.579 E67.27046
G1 X101.592 Y56.647 E67.32316
G1 X101.969 Y56.193 E67.35064
G1 X102.902 Y55.276 E67.41155
G1 X103.908 Y54.49 E67.471
G1 X104.314 Y54.232 E67.4934
G1 X105.618 Y53.577 E67.56135
G1 X106.269 Y53.333 E67.59372
G1 X107.761 Y52.949 E67.66546
G1 X108.225 Y52.88 E67.6873
G1 X109.465 Y52.8 E67.74516
G1 X199.783 Y52.81 E71.95074
G1 X200.886 Y52.901 E72.00228
G1 X201.24 Y52.958 E72.01898
G1 X202.921 Y53.412 E72.10005
G1 X203.488 Y53.644 E72.12858
G1 X204.792 Y54.336 E72.19732
G1 X205.628 Y54.917 E72.24473
G1 X206.082 Y55.294 E72.2722
G1 X206.999 Y56.227 E72.33312
G1 X207.785 Y57.233 E72.39257
G1 X208.043 Y57.639 E72.41496
G1 X208.698 Y58.943 E72.48291
G1 X208.942 Y59.594 E72.51529
G1 X209.326 Y61.086 E72.58702
G1 X209.395 Y61.548 E72.60878
G1 X209.475 Y62.789 E72.66668
G1 X209.458 Y157.678 E77.08511
G1 X209.39 Y158.482 E77.12268
G1 X209.25 Y159.301 E77.16137
G1 X208.921 Y160.453 E77.21716
G1 X208.428 Y161.641 E77.27705
G1 X208 Y162.421 E77.31848
G1 X207.358 Y163.353 E77.37118
G1 X206.981 Y163.807 E77.39866
G1 X206.048 Y164.724 E77.45957
G1 X205.042 Y165.51 E77.51902
G1 X204.636 Y165.768 E77.54142
G1 X203.332 Y166.423 E77.60937
G1 X202.681 Y166.667 E77.64174
G1 X201.189 Y167.051 E77.71348
G1 X200.725 Y167.12 E77.73532
G1 X199.485 Y167.2 E77.79318
G1 X108.966 Y167.183 E82.00812
G1 X108.281 Y167.127 E82.04013
G1 X107.634 Y167.024 E82.07063
G1 X106.007 Y166.585 E82.1491
G1 X105.465 Y166.373 E82.1762
G1 X105.465 Y172.556 E82.46411
G1 X105.056 Y174.224 E82.54408
G1 X104.098 Y176.08 E82.64133
G1 X102.707 Y177.365 E82.72951
G1 X101.785 Y177.915 E82.7795
G1 X101.602 Y178.267 E82.79798
G1 X100.204 Y179.573 E82.88706
G1 X98.384 Y180.659 E82.98575
G1 X96.814 Y180.917 E83.05983
G1 X38.886 Y180.982 E85.75721
G1 X37.182 Y180.563 E85.83891
G1 X35.355 Y179.616 E85.93474
G1 X34.089 Y178.258 E86.02119
G1 X33.921 Y177.99 E86.03592
G1 X32.823 Y177.421 E86.0935
G1 X31.496 Y175.994 E86.18424
G1 X30.433 Y174.211 E86.2809
G1 X30.175 Y172.631 E86.35544
G1 X30.111 Y155.129 E87.17041
G1 X29.809 Y154.808 E87.19094
G1 X28.733 Y153.005 E87.28871
G1 X28.475 Y151.431 E87.36298
G1 X28.41 Y138.209 E87.97866
G1 X28.816 Y136.546 E88.05837
G1 X29.779 Y134.681 E88.1561
G1 X30.11 Y134.377 E88.17703
G1 X30.11 Y110.334 E89.29657
G1 X29.804 Y110.006 E89.31746
G1 X28.733 Y108.211 E89.41479
G1 X28.475 Y106.631 E89.48933
G1 X28.41 Y93.409 E90.10501
G1 X28.816 Y91.746 E90.18472
G1 X29.779 Y89.881 E90.28246
G1 X30.11 Y89.577 E90.30339
G1 X30.11 Y86.122 E90.46427
G1 X30.529 Y84.418 E90.54598
G1 X31.475 Y82.595 E90.64161
G1 X32.883 Y81.279 E90.73135
G1 X34.351 Y80.412 E90.81074
G1 X34.998 Y80.153 E90.84319
G1 X36.577 Y79.918 E90.91753
G1 X36.83 Y79.91 E90.92931
G1 X37.189 Y79.574 E90.95221
G0 F6000 X37.428 Y79.898
G1 F1200 X39.121 Y78.888 E91.044
G1 X40.626 Y78.642 E91.11501
G1 X46.57 Y78.603 E91.3918
G1 X46.538 Y53.8 E92.54673
G1 X46.933 Y52.193 E92.62378
G1 X47.826 Y50.472 E92.71407
G1 X49.141 Y49.244 E92.79785
G1 X50.857 Y48.22 E92.8909
G1 X52.354 Y47.974 E92.96154
G1 X83.452 Y47.914 E94.40959
G1 X85.059 Y48.309 E94.48665
G1 X86.78 Y49.202 E94.57693
G1 X88.008 Y50.517 E94.66071
G1 X89.032 Y52.233 E94.75376
G1 X89.278 Y53.73 E94.8244
G1 X89.335 Y78.584 E95.98171
G1 X94.889 Y78.582 E96.24033
G1 X96.468 Y78.969 E96.31603
G1 X98.219 Y79.873 E96.40779
G1 X98.595 Y80.282 E96.43366
G1 X99.186 Y80.282 E96.46118
G1 X99.881 Y80.453 E96.49451
G1 X99.891 Y62.355 E97.33723
G1 X99.955 Y61.584 E97.37325
G1 X100.085 Y60.808 E97.40989
G1 X100.399 Y59.7 E97.46351
G1 X100.873 Y58.551 E97.52139
G1 X101.301 Y57.771 E97.56282
G1 X101.9 Y56.903 E97.61192
G1 X102.277 Y56.449 E97.6394
G1 X103.182 Y55.562 E97.69841
G1 X104.123 Y54.828 E97.75398
G1 X104.529 Y54.57 E97.77638
G1 X105.758 Y53.952 E97.84043
G1 X106.409 Y53.708 E97.87281
G1 X107.82 Y53.345 E97.94065
G1 X108.284 Y53.276 E97.96249
G1 X109.465 Y53.2 E98.0176
G1 X199.751 Y53.209 E102.22169
G1 X200.822 Y53.296 E102.27173
G1 X201.176 Y53.353 E102.28842
G1 X202.771 Y53.783 E102.36534
G1 X203.301 Y53.998 E102.39198
G1 X204.564 Y54.665 E102.45848
G1 X205.372 Y55.225 E102.50426
G1 X205.826 Y55.602 E102.53174
G1 X206.713 Y56.507 E102.59075
G1 X207.447 Y57.448 E102.64632
G1 X207.705 Y57.854 E102.66871
G1 X208.323 Y59.083 E102.73277
G1 X208.567 Y59.734 E102.76514
G1 X208.93 Y61.145 E102.83298
G1 X208.999 Y61.607 E102.85474
G1 X209.075 Y62.789 E102.90989
G1 X209.059 Y157.645 E107.32678
G1 X208.995 Y158.416 E107.36281
G1 X208.865 Y159.192 E107.39944
G1 X208.551 Y160.3 E107.45307
G1 X208.077 Y161.449 E107.51094
G1 X207.649 Y162.229 E107.55237
G1 X207.05 Y163.097 E107.60148
G1 X206.673 Y163.551 E107.62896
G1 X205.768 Y164.438 E107.68796
G1 X204.827 Y165.172 E107.74353
G1 X204.421 Y165.43 E107.76593
G1 X203.192 Y166.048 E107.82999
G1 X202.541 Y166.292 E107.86236
G1 X201.13 Y166.655 E107.9302
G1 X200.666 Y166.724 E107.95205
G1 X199.485 Y166.8 E108.00715
G1 X108.999 Y166.784 E112.22056
G1 X108.314 Y166.728 E112.25256
G1 X107.697 Y166.629 E112.28166
G1 X106.153 Y166.212 E112.35613
G1 X105.818 Y166.081 E112.37288
G1 X105.065 Y165.693 E112.41232
G1 X105.065 Y172.506 E112.72957
G1 X104.678 Y174.085 E112.80527
G1 X103.775 Y175.834 E112.89692
G1 X102.465 Y177.044 E112.97996
G1 X101.482 Y177.631 E113.03327
G1 X101.278 Y178.023 E113.05385
G1 X99.962 Y179.252 E113.1377
G1 X98.246 Y180.276 E113.23074
G1 X96.749 Y180.522 E113.30139
G1 X38.932 Y180.582 E115.99359
G1 X37.325 Y180.187 E116.07065
G1 X35.602 Y179.294 E116.16101
G1 X34.382 Y177.985 E116.24433
G1 X34.206 Y177.687 E116.26045
G1 X33.068 Y177.098 E116.32011
G1 X31.82 Y175.755 E116.40548
G1 X30.816 Y174.071 E116.49678
G1 X30.57 Y172.566 E116.56778
G1 X30.51 Y154.971 E117.38709
G1 X30.13 Y154.565 E117.41298
G1 X29.116 Y152.867 E117.50507
G1 X28.87 Y151.366 E117.5759
G1 X28.81 Y138.258 E118.18627
G1 X29.195 Y136.683 E118.26176
G1 X30.101 Y134.928 E118.35373
G1 X30.51 Y134.552 E118.3796
G1 X30.51 Y110.176 E119.51465
G1 X30.126 Y109.764 E119.54087
G1 X29.116 Y108.071 E119.63267
G1 X28.87 Y106.566 E119.70368
G1 X28.81 Y93.458 E120.31405
G1 X29.195 Y91.883 E120.38955
G1 X30.101 Y90.128 E120.48151
G1 X30.51 Y89.752 E120.50738
G1 X30.51 Y86.168 E120.67427
G1 X30.905 Y84.561 E120.75133
G1 X31.798 Y82.84 E120.84161
G1 X33.123 Y81.602 E120.92605
G1 X34.5 Y80.783 E121.00065
G1 X35.1 Y80.543 E121.03074
G1 X36.59 Y80.318 E121.10091
G1 X36.992 Y80.305 E121.11964
G1 X37.428 Y79.898 E121.14741
G0 F6000 X37.67 Y80.22
G1 F1200 X39.261 Y79.271 E121.23367
G1 X40.691 Y79.037 E121.30114
G1 X46.971 Y79.001 E121.59357
G1 X46.938 Y53.846 E122.76489
G1 X47.309 Y52.336 E122.8373
G1 X48.149 Y50.717 E122.92223
G1 X49.383 Y49.565 E123.00083
G1 X50.995 Y48.603 E123.08825
G1 X52.419 Y48.369 E123.15544
G1 X83.406 Y48.314 E124.59833
G1 X84.916 Y48.685 E124.67073
G1 X86.535 Y49.525 E124.75566
G1 X87.687 Y50.759 E124.83427
G1 X88.649 Y52.371 E124.92168
G1 X88.883 Y53.795 E124.98888
G1 X88.936 Y78.984 E126.16179
G1 X94.839 Y78.982 E126.43666
G1 X96.329 Y79.347 E126.50809
G1 X97.973 Y80.196 E126.59424
G1 X98.42 Y80.682 E126.62499
G1 X99.14 Y80.682 E126.65852
G1 X100.281 Y80.962 E126.71322
G1 X100.29 Y62.387 E127.57815
G1 X100.35 Y61.65 E127.61258
