;FLAVOR:Marlin
;TIME:10273
;Filament used: 8.72483m
;Layer height: 0.28
;MINX:2.65
;MINY:48.473
;MINZ:0.28
;MAXX:217.4
;MAXY:173.872
;MAXZ:8.12
;TARGET_MACHINE.NAME:Creality Ender-3 Pro
;Generated with Cura_SteamEngine 5.9.0
M82 ;absolute extrusion mode
; Ender 3 Custom Start G-code
G92 E0 ; Reset Extruder
G28 ; Home all axes
M420 S1 Z10 ; use bed levelling
M104 S175 ; Start heating up the nozzle most of the way
M190 S60 ; Start heating the bed, wait until target temperature reached
M109 S200 ; Finish heating the nozzle

G1 Z2.0 F3000 ; Move Z Axis up little to prevent scratching of Heat Bed
G1 X0.1 Y20 Z0.3 F5000.0 ; Move to start position

G1 F3000 Z20 ; Move Z Axis up 20 mm to allow filament ooze freely
G1 F300 E50 ; Slowly extrude a 50mm spaghetti

G1 X0.1 Y20 Z0.3 F5000.0 ; Move to start position
; G1 X0.1 Y200.0 Z0.3 F1500.0 E15 ; Draw the first line
; G1 X0.4 Y200.0 Z0.3 F5000.0 ; Move to side a little
; G1 X0.4 Y20 Z0.3 F1500.0 E30 ; Draw the second line
; G92 E0 ; Reset Extruder
G1 Z2.0 F3000 ; Move Z Axis up little to prevent scratching of Heat Bed
G1 X5 Y20 Z0.3 F5000.0 ; Move over to prevent blob squish
G92 E0
G92 E0
G1 F1500 E-6.5
;LAYER_COUNT:29
;LAYER:0
M107
G0 F6000 X20.689 Y49.88 Z0.28
;TYPE:SKIRT
G1 F1500 E0
G1 F1200 X100.121 Y49.966 E3.69869
G1 X101.65 Y50.208 E3.77077
G1 X103.177 Y50.891 E3.84866
G1 X105.925 Y50.945 E3.97665
G1 X107.623 Y51.2 E4.0566
G1 X109.437 Y52.01 E4.14911
G1 X110.251 Y51.277 E4.20011
G1 X112.422 Y50.028 E4.31674
G1 X115.024 Y49.473 E4.44062
G1 X117.655 Y49.469 E4.56313
G1 X118.423 Y49.027 E4.60439
G1 X121.024 Y48.473 E4.72823
G1 X200.471 Y48.559 E8.42761
G1 X202 Y48.801 E8.4997
G1 X203.528 Y49.485 E8.57765
G1 X206.336 Y49.542 E8.70843
G1 X207.991 Y49.792 E8.78637
G1 X210.637 Y50.98 E8.92142
G1 X212.542 Y52.719 E9.04153
G1 X213.73 Y54.353 E9.1356
G1 X214.555 Y56.215 E9.23043
G1 X214.996 Y58.275 E9.32853
G1 X214.998 Y67.64 E9.7646
G1 X215.852 Y68.557 E9.82295
G1 X217.043 Y70.553 E9.93118
G1 X217.325 Y72.285 E10.01289
G1 X217.4 Y92.314 E10.94553
G1 X216.934 Y94.211 E11.03649
G1 X215.878 Y96.245 E11.14321
G1 X215 Y97.065 E11.19915
G1 X215 Y123.857 E12.44669
G1 X215.847 Y124.766 E12.50455
G1 X217.043 Y126.77 E12.61322
G1 X217.325 Y128.5 E12.69484
G1 X217.4 Y148.529 E13.62748
G1 X216.934 Y150.426 E13.71844
G1 X215.878 Y152.46 E13.82515
G1 X214.984 Y153.294 E13.88208
G1 X214.923 Y162.751 E14.32245
G1 X214.669 Y164.161 E14.38916
G1 X214.237 Y165.583 E14.45836
G1 X213.162 Y167.462 E14.55916
G1 X211.432 Y169.385 E14.67961
G1 X208.774 Y170.914 E14.82239
G1 X206.176 Y171.465 E14.94606
G1 X203.542 Y171.469 E15.06871
G1 X202.76 Y171.917 E15.11067
G1 X200.161 Y172.465 E15.23436
G1 X120.73 Y172.379 E18.933
G1 X119.205 Y172.138 E19.00489
G1 X117.679 Y171.456 E19.08272
G1 X114.919 Y171.405 E19.21126
G1 X113.257 Y171.155 E19.28952
G1 X111.466 Y170.359 E19.38078
G1 X111.078 Y170.794 E19.40792
G1 X108.425 Y172.32 E19.55044
G1 X105.826 Y172.872 E19.67416
G1 X103.192 Y172.876 E19.79681
G1 X102.41 Y173.324 E19.83877
G1 X99.811 Y173.872 E19.96245
G1 X20.38 Y173.786 E23.6611
G1 X18.842 Y173.543 E23.7336
G1 X17.324 Y172.86 E23.81111
G1 X14.575 Y172.807 E23.93914
G1 X12.877 Y172.552 E24.01909
G1 X10.248 Y171.378 E24.15316
G1 X7.931 Y169.302 E24.29802
G1 X6.405 Y166.65 E24.44049
G1 X5.854 Y164.052 E24.56416
G1 X5.85 Y143.558 E25.51844
G1 X5.626 Y143.416 E25.53079
G1 X4.209 Y141.893 E25.62766
G1 X3.124 Y140.072 E25.72636
G1 X2.985 Y139.735 E25.74334
G1 X2.7 Y137.843 E25.83243
G1 X2.65 Y129.736 E26.20993
G1 X3.119 Y127.824 E26.3016
G1 X4.169 Y125.799 E26.40782
G1 X5.711 Y124.357 E26.50612
G1 X5.85 Y124.264 E26.51391
G1 X5.85 Y99.558 E27.66433
G1 X5.626 Y99.416 E27.67667
G1 X4.209 Y97.893 E27.77354
G1 X3.124 Y96.072 E27.87224
G1 X2.985 Y95.735 E27.88922
G1 X2.7 Y93.843 E27.97831
G1 X2.65 Y85.736 E28.35581
G1 X3.119 Y83.824 E28.44748
G1 X4.169 Y81.799 E28.5537
G1 X5.706 Y80.362 E28.65168
G1 X5.861 Y80.259 E28.66034
G1 X5.94 Y59.414 E29.63098
G1 X6.18 Y57.881 E29.70323
G1 X7.349 Y55.254 E29.83712
G1 X9.433 Y52.953 E29.98168
G1 X12.072 Y51.435 E30.12344
G1 X14.674 Y50.88 E30.24732
G1 X17.308 Y50.876 E30.36997
G1 X18.09 Y50.428 E30.41194
G1 X20.689 Y49.88 E30.53562
G0 F6000 X20.729 Y50.28
G1 F1200 X100.058 Y50.361 E34.22951
G1 X101.536 Y50.595 E34.29919
G1 X103.089 Y51.29 E34.37842
G1 X105.866 Y51.341 E34.50775
G1 X107.512 Y51.588 E34.58525
G1 X109.512 Y52.481 E34.68724
G1 X110.486 Y51.604 E34.74827
G1 X112.569 Y50.405 E34.86018
G1 X115.065 Y49.873 E34.97902
G1 X117.762 Y49.869 E35.1046
G1 X118.569 Y49.405 E35.14795
G1 X121.065 Y48.873 E35.26678
G1 X200.408 Y48.954 E38.96133
G1 X201.886 Y49.188 E39.03101
G1 X203.44 Y49.883 E39.11028
G1 X206.276 Y49.938 E39.24236
G1 X207.878 Y50.18 E39.3178
G1 X210.415 Y51.319 E39.44729
G1 X212.241 Y52.986 E39.56242
G1 X213.381 Y54.554 E39.65269
G1 X214.173 Y56.341 E39.74371
G1 X214.596 Y58.317 E39.8378
G1 X214.598 Y67.798 E40.27928
G1 X215.53 Y68.799 E40.34296
G1 X216.66 Y70.693 E40.44566
G1 X216.93 Y72.349 E40.52379
G1 X217 Y92.269 E41.45135
G1 X216.558 Y94.068 E41.53761
G1 X215.555 Y96 E41.63898
G1 X214.6 Y96.891 E41.69979
G1 X214.6 Y124.015 E42.9628
G1 X215.528 Y125.011 E43.02619
G1 X216.66 Y126.908 E43.12905
G1 X216.93 Y128.564 E43.20718
G1 X217 Y148.484 E44.13475
G1 X216.558 Y150.283 E44.22101
G1 X215.556 Y152.213 E44.32226
G1 X214.585 Y153.118 E44.38407
G1 X214.523 Y162.748 E44.83249
G1 X214.286 Y164.045 E44.89389
G1 X213.867 Y165.424 E44.961
G1 X212.836 Y167.226 E45.05767
G1 X211.178 Y169.069 E45.1731
G1 X208.627 Y170.537 E45.31015
G1 X206.135 Y171.065 E45.42877
G1 X203.435 Y171.069 E45.55449
G1 X202.615 Y171.539 E45.5985
G1 X200.121 Y172.065 E45.71719
G1 X120.792 Y171.984 E49.41108
G1 X119.319 Y171.751 E49.48052
G1 X117.767 Y171.057 E49.55969
G1 X114.978 Y171.009 E49.68957
G1 X113.368 Y170.767 E49.76538
G1 X111.362 Y169.875 E49.86761
G1 X110.823 Y170.478 E49.90527
G1 X108.278 Y171.943 E50.04201
G1 X105.785 Y172.472 E50.16068
G1 X103.085 Y172.476 E50.2864
G1 X102.265 Y172.946 E50.33041
G1 X99.771 Y173.472 E50.44909
G1 X20.443 Y173.391 E54.14294
G1 X18.958 Y173.156 E54.21295
G1 X17.413 Y172.462 E54.29182
G1 X14.634 Y172.411 E54.42124
G1 X12.988 Y172.164 E54.49874
G1 X10.469 Y171.039 E54.6272
G1 X8.246 Y169.047 E54.76619
G1 X6.783 Y166.504 E54.9028
G1 X6.254 Y164.011 E55.02147
G1 X6.25 Y143.313 E55.98526
G1 X5.919 Y143.144 E56.00256
G1 X4.533 Y141.654 E56.09732
G1 X3.468 Y139.867 E56.19419
G1 X3.373 Y139.624 E56.20634
G1 X3.1 Y137.841 E56.29033
G1 X3.05 Y129.781 E56.66564
G1 X3.495 Y127.967 E56.75262
G1 X4.492 Y126.044 E56.85348
G1 X5.984 Y124.649 E56.94859
G1 X6.25 Y124.49 E56.96302
G1 X6.25 Y99.313 E58.13536
G1 X5.919 Y99.144 E58.15267
G1 X4.533 Y97.654 E58.24743
G1 X3.468 Y95.867 E58.34429
G1 X3.373 Y95.624 E58.35644
G1 X3.1 Y93.841 E58.44043
G1 X3.05 Y85.781 E58.81575
G1 X3.495 Y83.967 E58.90272
G1 X4.492 Y82.044 E59.00358
G1 X5.979 Y80.654 E59.09836
G1 X6.26 Y80.487 E59.11359
G1 X6.335 Y59.476 E60.09195
G1 X6.567 Y57.995 E60.16175
G1 X7.689 Y55.474 E60.29024
G1 X9.684 Y53.271 E60.42864
G1 X12.219 Y51.812 E60.56483
G1 X14.715 Y51.28 E60.68367
G1 X17.415 Y51.276 E60.80939
G1 X18.235 Y50.806 E60.8534
G1 X20.729 Y50.28 E60.97208
G0 F6000 X20.769 Y50.68
G1 F1200 X99.995 Y50.756 E64.66118
G1 X101.422 Y50.982 E64.72846
G1 X103.001 Y51.689 E64.80901
G1 X105.807 Y51.737 E64.93969
G1 X107.401 Y51.976 E65.01475
G1 X109.587 Y52.952 E65.12622
G1 X110.721 Y51.931 E65.19727
G1 X112.716 Y50.782 E65.30447
G1 X115.106 Y50.273 E65.41826
G1 X117.87 Y50.269 E65.54696
G1 X118.716 Y49.782 E65.59242
G1 X121.106 Y49.273 E65.7062
G1 X200.345 Y49.349 E69.3959
G1 X201.772 Y49.575 E69.46318
G1 X203.352 Y50.282 E69.54378
G1 X206.216 Y50.334 E69.67716
G1 X207.765 Y50.568 E69.75011
G1 X210.193 Y51.658 E69.87403
G1 X211.94 Y53.253 E69.98419
G1 X213.032 Y54.755 E70.07066
G1 X213.791 Y56.467 E70.15786
G1 X214.196 Y58.359 E70.24795
G1 X214.198 Y67.956 E70.69483
G1 X215.208 Y69.041 E70.76385
G1 X216.277 Y70.833 E70.86101
G1 X216.535 Y72.413 E70.93556
G1 X216.6 Y92.222 E71.85796
G1 X216.181 Y93.926 E71.93966
G1 X215.232 Y95.755 E72.03561
G1 X214.2 Y96.718 E72.10134
G1 X214.2 Y124.173 E73.37976
G1 X215.206 Y125.253 E73.44848
G1 X216.277 Y127.048 E73.54581
G1 X216.535 Y128.628 E73.62036
G1 X216.6 Y148.437 E74.54276
G1 X216.181 Y150.141 E74.62446
G1 X215.234 Y151.966 E74.7202
G1 X214.186 Y152.942 E74.78689
G1 X214.129 Y162.677 E75.2402
G1 X213.903 Y163.929 E75.29944
G1 X213.497 Y165.265 E75.36446
G1 X212.51 Y166.99 E75.457
G1 X210.923 Y168.754 E75.56749
G1 X208.481 Y170.159 E75.69867
G1 X206.094 Y170.665 E75.81229
G1 X203.328 Y170.669 E75.94109
G1 X202.47 Y171.161 E75.98714
G1 X200.081 Y171.665 E76.10083
G1 X120.855 Y171.589 E79.78993
G1 X119.433 Y171.364 E79.85697
G1 X117.855 Y170.658 E79.93747
G1 X115.037 Y170.613 E80.0687
G1 X113.479 Y170.379 E80.14206
G1 X111.258 Y169.391 E80.25525
G1 X110.569 Y170.163 E80.30343
G1 X108.132 Y171.565 E80.43435
G1 X105.744 Y172.072 E80.54802
G1 X102.978 Y172.076 E80.67682
G1 X102.12 Y172.568 E80.72287
G1 X99.731 Y173.072 E80.83656
G1 X20.505 Y172.996 E84.52566
G1 X19.074 Y172.77 E84.59312
G1 X17.502 Y172.063 E84.67338
G1 X14.693 Y172.015 E84.8042
G1 X13.099 Y171.776 E84.87925
G1 X10.69 Y170.7 E85.00211
G1 X8.562 Y168.793 E85.13516
G1 X7.16 Y166.357 E85.26604
G1 X6.654 Y163.97 E85.37965
G1 X6.65 Y143.069 E86.35289
G1 X6.164 Y142.82 E86.37832
G1 X4.857 Y141.415 E86.46767
G1 X3.812 Y139.662 E86.5627
G1 X3.761 Y139.519 E86.56977
G1 X3.5 Y137.839 E86.64894
G1 X3.45 Y129.826 E87.02207
G1 X3.871 Y128.11 E87.10434
G1 X4.815 Y126.289 E87.19985
G1 X6.226 Y124.97 E87.28979
G1 X6.65 Y124.717 E87.31278
G1 X6.65 Y99.069 E88.50706
G1 X6.164 Y98.82 E88.53248
G1 X4.857 Y97.415 E88.62184
G1 X3.812 Y95.662 E88.71687
G1 X3.761 Y95.519 E88.72394
G1 X3.5 Y93.839 E88.8031
G1 X3.45 Y85.826 E89.17623
G1 X3.871 Y84.11 E89.2585
G1 X4.815 Y82.289 E89.35401
G1 X6.22 Y80.976 E89.44356
G1 X6.659 Y80.715 E89.46734
G1 X6.73 Y59.538 E90.45343
G1 X6.954 Y58.109 E90.52079
G1 X8.028 Y55.696 E90.64377
G1 X9.937 Y53.587 E90.77623
G1 X12.366 Y52.189 E90.90673
G1 X14.756 Y51.68 E91.02052
G1 X17.522 Y51.676 E91.14931
G1 X18.38 Y51.184 E91.19537
G1 X20.769 Y50.68 E91.30906
G0 F6000 X20.809 Y51.08
G1 F1200 X99.933 Y51.151 E94.9934
G1 X101.306 Y51.368 E95.05813
G1 X102.912 Y52.088 E95.14008
G1 X105.748 Y52.133 E95.27216
G1 X107.29 Y52.364 E95.34476
G1 X109.531 Y53.365 E95.45905
G1 X109.643 Y53.44 E95.46532
G1 X110.957 Y52.256 E95.54768
G1 X112.862 Y51.16 E95.65002
G1 X115.147 Y50.673 E95.75881
G1 X117.977 Y50.669 E95.89059
G1 X118.862 Y50.16 E95.93813
G1 X121.147 Y49.673 E96.04692
G1 X200.283 Y49.744 E99.73182
G1 X201.656 Y49.961 E99.79655
G1 X203.263 Y50.681 E99.87854
G1 X206.156 Y50.73 E100.01327
G1 X207.652 Y50.956 E100.08372
G1 X209.971 Y51.997 E100.20209
G1 X211.639 Y53.52 E100.30726
G1 X212.683 Y54.956 E100.38993
G1 X213.409 Y56.593 E100.47332
G1 X213.796 Y58.401 E100.55941
G1 X213.798 Y68.114 E101.01169
G1 X214.886 Y69.283 E101.08605
G1 X215.894 Y70.973 E101.17768
G1 X216.14 Y72.478 E101.24869
G1 X216.2 Y92.176 E102.16591
G1 X215.805 Y93.783 E102.24297
G1 X214.91 Y95.508 E102.33346
G1 X213.8 Y96.543 E102.40413
G1 X213.8 Y124.331 E103.69806
G1 X214.884 Y125.495 E103.77212
G1 X215.894 Y127.188 E103.86392
G1 X216.14 Y128.693 E103.93492
G1 X216.2 Y148.391 E104.85215
G1 X215.805 Y149.998 E104.92921
G1 X214.912 Y151.719 E105.01949
G1 X213.787 Y152.766 E105.09105
G1 X213.729 Y162.675 E105.55246
G1 X213.52 Y163.813 E105.60634
G1 X213.127 Y165.106 E105.66927
G1 X212.184 Y166.754 E105.75768
G1 X210.668 Y168.439 E105.86322
G1 X208.335 Y169.781 E105.98855
G1 X206.053 Y170.265 E106.09717
G1 X203.221 Y170.269 E106.22904
G1 X202.325 Y170.783 E106.27714
G1 X200.041 Y171.265 E106.38583
G1 X120.917 Y171.194 E110.07018
G1 X119.549 Y170.978 E110.13467
G1 X117.944 Y170.259 E110.21656
G1 X115.096 Y170.217 E110.34919
G1 X113.59 Y169.991 E110.4201
G1 X111.318 Y168.98 E110.5359
G1 X111.178 Y168.881 E110.54388
G1 X110.316 Y169.846 E110.60413
G1 X107.985 Y171.188 E110.72937
G1 X105.703 Y171.672 E110.838
G1 X102.871 Y171.676 E110.96987
G1 X101.975 Y172.19 E111.01797
G1 X99.691 Y172.672 E111.12666
G1 X20.568 Y172.601 E114.81096
G1 X19.19 Y172.383 E114.87592
G1 X17.591 Y171.664 E114.95756
G1 X14.752 Y171.619 E115.08977
G1 X13.21 Y171.388 E115.16238
G1 X10.911 Y170.361 E115.27962
G1 X8.877 Y168.538 E115.40681
G1 X7.538 Y166.211 E115.53182
G1 X7.054 Y163.929 E115.64045
G1 X7.05 Y142.825 E116.62314
G1 X6.408 Y142.495 E116.65675
G1 X5.181 Y141.176 E116.74063
G1 X4.156 Y139.457 E116.83383
G1 X3.9 Y137.836 E116.91024
G1 X3.85 Y129.871 E117.28113
G1 X4.247 Y128.253 E117.35871
G1 X5.138 Y126.534 E117.44887
G1 X6.465 Y125.294 E117.53343
G1 X7.05 Y124.945 E117.56515
G1 X7.05 Y98.825 E118.78141
G1 X6.408 Y98.495 E118.81502
G1 X5.181 Y97.176 E118.89891
G1 X4.156 Y95.457 E118.9921
G1 X3.9 Y93.836 E119.06852
G1 X3.85 Y85.871 E119.43941
G1 X4.247 Y84.253 E119.51698
G1 X5.138 Y82.534 E119.60714
G1 X6.461 Y81.298 E119.69145
G1 X7.058 Y80.943 E119.72379
G1 X7.125 Y59.6 E120.71761
G1 X7.341 Y58.223 E120.78252
G1 X8.367 Y55.918 E120.9
G1 X10.19 Y53.903 E121.02653
G1 X12.513 Y52.566 E121.15133
G1 X14.797 Y52.08 E121.26006
G1 X17.629 Y52.076 E121.39193
G1 X18.525 Y51.562 E121.44003
G1 X20.809 Y51.08 E121.54873
G0 F6000 X20.849 Y51.48
G1 F1200 X99.87 Y51.546 E125.22828
G1 X101.19 Y51.755 E125.29051
G1 X102.823 Y52.487 E125.37384
G1 X105.689 Y52.529 E125.50731
G1 X107.179 Y52.752 E125.57746
G1 X109.368 Y53.73 E125.6891
G1 X109.693 Y54.02 E125.70938
G1 X109.875 Y53.769 E125.72382
G1 X111.192 Y52.583 E125.80634
G1 X113.009 Y51.537 E125.90397
G1 X115.188 Y51.073 E126.00771
G1 X118.085 Y51.069 E126.1426
G1 X119.009 Y50.537 E126.19225
G1 X121.188 Y50.073 E126.29599
G1 X200.22 Y50.139 E129.97605
G1 X201.54 Y50.348 E130.03828
G1 X203.174 Y51.08 E130.12165
G1 X206.096 Y51.126 E130.25773
G1 X207.539 Y51.344 E130.32569
G1 X209.749 Y52.336 E130.43848
G1 X211.338 Y53.787 E130.53868
G1 X212.334 Y55.157 E130.61755
G1 X213.027 Y56.719 E130.69712
G1 X213.396 Y58.443 E130.77922
G1 X213.398 Y68.271 E131.23685
G1 X214.562 Y69.522 E131.31642
G1 X215.511 Y71.113 E131.40268
G1 X215.745 Y72.543 E131.47015
G1 X215.8 Y92.13 E132.38221
G1 X215.429 Y93.64 E132.45461
G1 X214.588 Y95.261 E132.53965
G1 X213.4 Y96.368 E132.61526
G1 X213.4 Y124.489 E133.92469
G1 X214.562 Y125.737 E134.00409
G1 X215.511 Y127.328 E134.09035
G1 X215.745 Y128.758 E134.15782
G1 X215.8 Y148.345 E135.06988
G1 X215.429 Y149.855 E135.14228
G1 X214.589 Y151.474 E135.22721
G1 X213.388 Y152.591 E135.30359
G1 X213.335 Y162.604 E135.76984
G1 X213.137 Y163.697 E135.82156
G1 X212.757 Y164.947 E135.8824
G1 X211.858 Y166.518 E135.96668
G1 X210.414 Y168.123 E136.06721
G1 X208.188 Y169.404 E136.1868
G1 X206.012 Y169.865 E136.29037
G1 X203.114 Y169.869 E136.42532
G1 X202.18 Y170.405 E136.47546
G1 X200.001 Y170.865 E136.57916
G1 X120.979 Y170.799 E140.25876
G1 X119.664 Y170.591 E140.32075
G1 X118.031 Y169.86 E140.40406
G1 X115.155 Y169.821 E140.53799
G1 X113.701 Y169.603 E140.60645
G1 X111.481 Y168.615 E140.7196
G1 X111.147 Y168.316 E140.74047
G1 X110.06 Y169.532 E140.81642
G1 X107.839 Y170.81 E140.93574
G1 X105.662 Y171.272 E141.03937
G1 X102.764 Y171.276 E141.17431
G1 X101.83 Y171.812 E141.22445
G1 X99.651 Y172.272 E141.32815
G1 X20.631 Y172.206 E145.00766
G1 X19.306 Y171.996 E145.07013
G1 X17.68 Y171.265 E145.15314
G1 X14.811 Y171.223 E145.28675
G1 X13.321 Y171 E145.3569
G1 X11.132 Y170.022 E145.46854
G1 X9.192 Y168.283 E145.58985
G1 X7.916 Y166.065 E145.709
G1 X7.454 Y163.888 E145.81263
G1 X7.45 Y142.58 E146.80482
G1 X6.652 Y142.17 E146.8466
G1 X5.505 Y140.937 E146.92501
G1 X4.539 Y139.318 E147.0128
G1 X4.3 Y137.833 E147.08284
G1 X4.25 Y129.916 E147.45149
G1 X4.623 Y128.396 E147.52437
G1 X5.461 Y126.779 E147.60917
G1 X6.704 Y125.618 E147.68837
G1 X7.45 Y125.173 E147.72882
G1 X7.45 Y98.58 E148.9671
G1 X6.652 Y98.17 E149.00888
G1 X5.505 Y96.937 E149.08729
G1 X4.539 Y95.318 E149.17508
G1 X4.3 Y93.833 E149.24512
G1 X4.25 Y85.916 E149.61377
G1 X4.623 Y84.396 E149.68665
G1 X5.461 Y82.779 E149.77146
G1 X6.702 Y81.62 E149.85052
G1 X7.457 Y81.171 E149.89143
G1 X7.52 Y59.662 E150.89298
