;FLAVOR:Marlin
;TIME:11855
;Filament used: 8.6082m
;Layer height: 0.28
;MINX:13.782
;MINY:60.955
;MINZ:0.28
;MAXX:207.5
;MAXY:161.984
;MAXZ:17.08
;TARGET_MACHINE.NAME:Creality Ender-3 Pro
;Generated with Cura_SteamEngine 5.9.0
M82 ;absolute extrusion mode
; Ender 3 Custom Start G-code
G92 E0 ; Reset Extruder
G28 ; Home all axes
M420 S1 Z10 ; use bed levelling
M104 S175 ; Start heating up the nozzle most of the way
M190 S60 ; Start heating the bed, wait until target temperature reached
M109 S200 ; Finish heating the nozzle

G1 Z2.0 F3000 ; Move Z Axis up little to prevent scratching of Heat Bed
G1 X0.1 Y20 Z0.3 F5000.0 ; Move to start position

G1 F3000 Z20 ; Move Z Axis up 20 mm to allow filament ooze freely
G1 F300 E50 ; Slowly extrude a 50mm spaghetti

G1 X0.1 Y20 Z0.3 F5000.0 ; Move to start position
; G1 X0.1 Y200.0 Z0.3 F1500.0 E15 ; Draw the first line
; G1 X0.4 Y200.0 Z0.3 F5000.0 ; Move to side a little
; G1 X0.4 Y20 Z0.3 F1500.0 E30 ; Draw the second line
; G92 E0 ; Reset Extruder
G1 Z2.0 F3000 ; Move Z Axis up little to prevent scratching of Heat Bed
G1 X5 Y20 Z0.3 F5000.0 ; Move over to prevent blob squish
G92 E0
G92 E0
G1 F1500 E-6.5
;LAYER_COUNT:61
;LAYER:0
M107
G0 F6000 X17.168 Y63.57 Z0.28
;TYPE:SKIRT
G1 F1500 E0
G1 F1200 X19.615 Y62.169 E0.1313
G1 X21.44 Y61.869 E0.21742
G1 X100.93 Y61.789 E3.91881
G1 X103.458 Y62.605 E4.0425
G1 X105.774 Y64.156 E4.17229
G1 X107.525 Y66.591 E4.31195
G1 X108.382 Y69.195 E4.4396
G1 X108.372 Y154.271 E8.40109
G1 X107.824 Y156.451 E8.50576
G1 X106.405 Y158.933 E8.63889
G1 X104.325 Y160.671 E8.7651
G1 X101.964 Y161.727 E8.88554
G1 X100.611 Y161.928 E8.94923
G1 X21.148 Y161.984 E12.64936
G1 X18.81 Y161.191 E12.76432
G1 X16.819 Y159.944 E12.87371
G1 X15.334 Y158.16 E12.9818
G1 X14.62 Y157.067 E13.04259
G1 X13.787 Y154.515 E13.16759
G1 X13.782 Y69.206 E17.13993
G1 X14.673 Y66.487 E17.27317
G1 X16.002 Y64.767 E17.37438
G1 X17.168 Y63.57 E17.45219
G0 F6000 X17.416 Y63.889
G1 F1200 X19.75 Y62.552 E17.57744
G1 X21.505 Y62.264 E17.66025
G1 X100.866 Y62.189 E21.35563
G1 X103.283 Y62.969 E21.47389
G1 X105.49 Y64.447 E21.59758
G1 X107.165 Y66.776 E21.73116
G1 X107.982 Y69.259 E21.85288
G1 X107.972 Y154.221 E25.80906
G1 X107.449 Y156.301 E25.90893
G1 X106.093 Y158.673 E26.03616
G1 X104.111 Y160.329 E26.15642
G1 X101.853 Y161.339 E26.2716
G1 X100.552 Y161.532 E26.33284
G1 X21.214 Y161.584 E30.02715
G1 X18.982 Y160.827 E30.1369
G1 X17.085 Y159.639 E30.24113
G1 X15.669 Y157.941 E30.34408
G1 X14.983 Y156.891 E30.40248
G1 X14.187 Y154.452 E30.52194
G1 X14.182 Y69.27 E34.48837
G1 X15.031 Y66.679 E34.61533
G1 X16.319 Y65.012 E34.71343
G1 X17.416 Y63.889 E34.78653
G0 F6000 X17.664 Y64.208
G1 F1200 X19.885 Y62.935 E34.90573
G1 X21.57 Y62.659 E34.98524
G1 X100.802 Y62.589 E38.67461
G1 X103.108 Y63.333 E38.78744
G1 X105.208 Y64.739 E38.90512
G1 X106.804 Y66.959 E39.03243
G1 X107.582 Y69.323 E39.14832
G1 X107.572 Y154.172 E43.09924
G1 X107.075 Y156.15 E43.19421
G1 X105.782 Y158.411 E43.31549
G1 X103.895 Y159.988 E43.43
G1 X101.742 Y160.951 E43.53982
G1 X100.493 Y161.136 E43.59862
G1 X21.28 Y161.184 E47.28711
G1 X19.154 Y160.463 E47.39164
G1 X17.351 Y159.334 E47.4907
G1 X16.004 Y157.722 E47.58851
G1 X15.346 Y156.715 E47.64453
G1 X14.587 Y154.389 E47.75846
G1 X14.582 Y69.334 E51.71897
G1 X15.389 Y66.871 E51.83966
G1 X16.636 Y65.257 E51.93463
G1 X17.664 Y64.208 E52.00302
G0 F6000 X17.909 Y64.528
G1 F1200 X20.02 Y63.318 E52.11632
G1 X21.635 Y63.054 E52.19252
G1 X100.738 Y62.989 E55.87589
G1 X102.933 Y63.697 E55.98328
G1 X104.924 Y65.03 E56.09485
G1 X106.444 Y67.144 E56.21609
G1 X107.182 Y69.387 E56.32605
G1 X107.172 Y154.122 E60.27166
G1 X106.7 Y156 E60.36183
G1 X105.47 Y158.151 E60.47721
G1 X103.681 Y159.646 E60.58577
G1 X101.631 Y160.563 E60.69034
G1 X100.434 Y160.74 E60.74668
G1 X21.346 Y160.784 E64.42935
G1 X19.326 Y160.099 E64.52867
G1 X17.619 Y159.03 E64.62246
G1 X16.339 Y157.503 E64.71524
G1 X15.709 Y156.539 E64.76886
G1 X14.987 Y154.326 E64.87725
G1 X14.982 Y69.398 E68.83186
G1 X15.747 Y67.063 E68.94627
G1 X16.953 Y65.502 E69.03812
G1 X17.909 Y64.528 E69.10167
G0 F6000 X18.154 Y64.848
G1 F1200 X20.156 Y63.701 E69.20911
G1 X21.699 Y63.449 E69.28191
G1 X100.674 Y63.389 E72.95932
G1 X102.758 Y64.061 E73.06128
G1 X104.64 Y65.321 E73.16674
G1 X106.084 Y67.329 E73.28191
G1 X106.782 Y69.451 E73.38593
G1 X106.772 Y154.072 E77.32623
G1 X106.325 Y155.85 E77.4116
G1 X105.158 Y157.891 E77.52108
G1 X103.467 Y159.304 E77.62369
G1 X101.52 Y160.175 E77.72301
G1 X100.376 Y160.344 E77.77685
G1 X21.413 Y160.384 E81.4537
G1 X19.497 Y159.734 E81.54791
G1 X17.884 Y158.724 E81.63653
G1 X16.674 Y157.284 E81.72411
G1 X16.072 Y156.363 E81.77535
G1 X15.387 Y154.263 E81.8782
G1 X15.382 Y69.462 E85.82689
G1 X16.105 Y67.255 E85.93503
G1 X17.27 Y65.747 E86.02377
G1 X18.154 Y64.848 E86.08247
G0 F6000 X18.401 Y65.167
G1 F1200 X20.292 Y64.084 E86.18395
G1 X21.763 Y63.844 E86.25335
G1 X100.61 Y63.789 E89.92479
G1 X102.585 Y64.426 E90.02142
G1 X104.357 Y65.612 E90.12071
G1 X105.723 Y67.512 E90.22968
G1 X106.382 Y69.515 E90.32786
G1 X106.372 Y154.022 E94.26286
G1 X105.95 Y155.7 E94.34343
G1 X104.846 Y157.631 E94.447
G1 X103.253 Y158.962 E94.54366
G1 X101.409 Y159.787 E94.63773
G1 X100.318 Y159.948 E94.68908
G1 X21.479 Y159.984 E98.36016
G1 X19.669 Y159.37 E98.44915
G1 X18.151 Y158.419 E98.53256
G1 X17.009 Y157.065 E98.61504
G1 X16.435 Y156.187 E98.66389
G1 X15.787 Y154.2 E98.76121
G1 X15.782 Y69.526 E102.70398
G1 X16.463 Y67.447 E102.80585
G1 X17.587 Y65.992 E102.89146
G1 X18.401 Y65.167 E102.94543
G0 F6000 X18.648 Y65.487
G1 F1200 X20.427 Y64.468 E103.04089
G1 X21.828 Y64.239 E103.107
G1 X100.546 Y64.189 E106.77244
G1 X102.412 Y64.791 E106.86374
G1 X104.074 Y65.903 E106.95685
G1 X105.362 Y67.695 E107.05961
G1 X105.982 Y69.579 E107.15197
G1 X105.972 Y153.973 E111.0817
G1 X105.576 Y155.549 E111.15737
G1 X104.534 Y157.371 E111.25511
G1 X103.039 Y158.62 E111.34582
G1 X101.298 Y159.399 E111.43463
G1 X100.26 Y159.552 E111.48349
G1 X21.545 Y159.584 E115.14879
G1 X19.841 Y159.006 E115.23257
G1 X18.417 Y158.114 E115.31081
G1 X17.315 Y156.807 E115.39042
G1 X16.799 Y156.013 E115.43451
G1 X16.187 Y154.137 E115.5264
G1 X16.182 Y69.59 E119.46326
G1 X16.821 Y67.639 E119.55886
G1 X17.904 Y66.237 E119.64135
G1 X18.648 Y65.487 E119.69054
G0 F6000 X18.892 Y65.808
G1 F1200 X20.563 Y64.851 E119.7802
G1 X21.892 Y64.634 E119.84291
G1 X100.482 Y64.589 E123.50239
G1 X102.239 Y65.156 E123.58836
G1 X103.789 Y66.193 E123.67519
G1 X105.002 Y67.88 E123.77195
G1 X105.582 Y69.643 E123.85837
G1 X105.572 Y153.923 E127.7828
G1 X105.201 Y155.399 E127.85366
G1 X104.223 Y157.109 E127.94539
G1 X102.823 Y158.279 E128.03035
G1 X101.184 Y159.012 E128.11395
G1 X100.26 Y159.152 E128.15747
G1 X21.611 Y159.184 E131.8197
G1 X20.013 Y158.642 E131.89827
G1 X18.683 Y157.809 E131.97134
G1 X17.621 Y156.549 E132.04807
G1 X17.162 Y155.838 E132.08748
G1 X16.587 Y154.074 E132.17387
G1 X16.582 Y69.653 E136.10487
G1 X17.179 Y67.829 E136.19424
G1 X18.22 Y66.482 E136.27351
G1 X18.892 Y65.808 E136.31782
G0 F6000 X19.136 Y66.129
G1 F1200 X20.699 Y65.234 E136.40169
G1 X21.956 Y65.029 E136.461
G1 X100.418 Y64.989 E140.11452
G1 X102.066 Y65.521 E140.19515
G1 X103.504 Y66.483 E140.27571
G1 X104.642 Y68.065 E140.36646
G1 X105.182 Y69.707 E140.44694
G1 X105.172 Y153.873 E144.36607
G1 X104.826 Y155.249 E144.43213
G1 X103.911 Y156.849 E144.51796
G1 X102.609 Y157.937 E144.59697
G1 X101.073 Y158.624 E144.67532
G1 X100.2 Y158.756 E144.71643
G1 X21.677 Y158.784 E148.37279
G1 X20.185 Y158.278 E148.44615
G1 X18.947 Y157.503 E148.51416
G1 X17.957 Y156.332 E148.58556
G1 X17.526 Y155.664 E148.62258
G1 X16.987 Y154.011 E148.70354
G1 X16.982 Y69.716 E152.62867
G1 X17.537 Y68.019 E152.7118
G1 X18.536 Y66.727 E152.78785
G1 X19.136 Y66.129 E152.8273
G0 F6000 X19.379 Y66.451
G1 F1200 X20.834 Y65.618 E152.90537
G1 X22.021 Y65.424 E152.96137
G1 X100.354 Y65.389 E156.60888
G1 X101.893 Y65.886 E156.68419
G1 X103.219 Y66.773 E156.75848
G1 X104.282 Y68.25 E156.84321
G1 X104.782 Y69.771 E156.91776
G1 X104.772 Y153.823 E160.83158
G1 X104.451 Y155.099 E160.89284
G1 X103.599 Y156.589 E160.97277
G1 X102.395 Y157.595 E161.04582
G1 X100.962 Y158.236 E161.11892
G1 X100.14 Y158.36 E161.15763
G1 X21.743 Y158.384 E164.80812
G1 X20.357 Y157.914 E164.87627
G1 X19.213 Y157.198 E164.93911
G1 X18.293 Y156.115 E165.00528
G1 X17.89 Y155.49 E165.03991
G1 X17.387 Y153.948 E165.11544
G1 X17.382 Y69.779 E169.0347
G1 X17.895 Y68.209 E169.11161
G1 X18.852 Y66.972 E169.18443
G1 X19.379 Y66.451 E169.21894
G0 F6000 X19.624 Y66.772
G1 F1200 X20.97 Y66.001 E169.29117
G1 X22.085 Y65.819 E169.34377
G1 X100.29 Y65.789 E172.98533
G1 X101.72 Y66.251 E173.0553
G1 X102.934 Y67.063 E173.12331
G1 X103.922 Y68.435 E173.20204
G1 X104.382 Y69.835 E173.27066
G1 X104.372 Y153.774 E177.17921
G1 X104.077 Y154.948 E177.23557
G1 X103.287 Y156.329 E177.30966
G1 X102.181 Y157.253 E177.37676
G1 X100.851 Y157.848 E177.44461
G1 X100.08 Y157.964 E177.48091
G1 X21.809 Y157.984 E181.12554
G1 X20.529 Y157.55 E181.18848
G1 X19.478 Y156.892 E181.24621
G1 X18.629 Y155.898 E181.30708
G1 X18.254 Y155.316 E181.33932
G1 X17.787 Y153.885 E181.40941
G1 X17.782 Y69.842 E185.32281
G1 X18.253 Y68.4 E185.39345
G1 X19.133 Y67.257 E185.46061
G1 X19.624 Y66.772 E185.49275
G0 F6000 X19.869 Y67.093
G1 F1200 X21.107 Y66.383 E185.55921
G1 X22.085 Y66.219 E185.60538
G1 X100.226 Y66.189 E189.24395
G1 X101.547 Y66.616 E189.3086
G1 X102.649 Y67.353 E189.37033
G1 X103.562 Y68.62 E189.44305
G1 X103.982 Y69.899 E189.50573
G1 X103.972 Y153.724 E193.40898
G1 X103.702 Y154.798 E193.46054
G1 X102.975 Y156.069 E193.52872
G1 X101.967 Y156.911 E193.58988
G1 X100.74 Y157.46 E193.65247
G1 X100.021 Y157.568 E193.68633
G1 X21.875 Y157.584 E197.32513
G1 X20.701 Y157.186 E197.38286
G1 X19.742 Y156.586 E197.43553
G1 X18.965 Y155.681 E197.49107
G1 X18.618 Y155.142 E197.52092
G1 X18.187 Y153.822 E197.58558
G1 X18.182 Y69.905 E201.49311
G1 X18.611 Y68.591 E201.55747
G1 X19.414 Y67.542 E201.61898
G1 X19.869 Y67.093 E201.64875
G0 F6000 X21.243 Y66.766
G1 F1200 X22.151 Y66.614 E201.69162
G1 X100.162 Y66.589 E205.32414
G1 X101.371 Y66.98 E205.38331
G1 X102.366 Y67.645 E205.43903
G1 X103.202 Y68.805 E205.50561
G1 X103.582 Y69.963 E205.56236
G1 X103.572 Y153.674 E209.4603
G1 X103.327 Y154.648 E209.50706
G1 X102.664 Y155.807 E209.56924
G1 X101.751 Y156.57 E209.62464
G1 X100.629 Y157.072 E209.68188
G1 X99.962 Y157.172 E209.71328
G1 X21.942 Y157.184 E213.34622
G1 X20.872 Y156.821 E213.39883
G1 X20.008 Y156.281 E213.44628
G1 X19.269 Y155.42 E213.49911
G1 X18.982 Y154.968 E213.52404
G1 X18.587 Y153.759 E213.58327
G1 X18.582 Y69.968 E217.48493
G1 X18.969 Y68.781 E217.54306
G1 X19.732 Y67.785 E217.60148
G1 X20.114 Y67.414 E217.62628
G1 X21.243 Y66.766 E217.6869
G0 F6000 X22.217 Y67.009
G1 F1200 X100.098 Y66.989 E221.31336
G1 X101.198 Y67.345 E221.3672
G1 X102.083 Y67.937 E221.41678
G1 X102.841 Y68.988 E221.47712
G1 X103.182 Y70.027 E221.52803
G1 X103.172 Y153.624 E225.42066
G1 X102.952 Y154.498 E225.46263
G1 X102.352 Y155.547 E225.5189
G1 X101.537 Y156.228 E225.56835
G1 X100.518 Y156.684 E225.62034
G1 X99.903 Y156.776 E225.64929
G1 X22.008 Y156.784 E229.27641
G1 X21.044 Y156.457 E229.32381
G1 X20.272 Y155.974 E229.36621
G1 X19.607 Y155.206 E229.41352
G1 X19.346 Y154.795 E229.43619
G1 X18.987 Y153.696 E229.49002
G1 X18.982 Y70.031 E233.38582
G1 X19.328 Y68.97 E233.43778
G1 X20.011 Y68.072 E233.49032
G1 X20.358 Y67.735 E233.51284
G1 X21.379 Y67.149 E233.56766
G1 X22.217 Y67.009 E233.60722
G0 F6000 X22.283 Y67.404
G1 F1200 X100.034 Y67.389 E237.22763
G1 X101.023 Y67.709 E237.27603
G1 X101.801 Y68.23 E237.31963
G1 X102.48 Y69.171 E237.37367
G1 X102.782 Y70.091 E237.41875
G1 X102.772 Y153.575 E241.30612
G1 X102.578 Y154.347 E241.34318
G1 X102.04 Y155.287 E241.39362
G1 X101.323 Y155.886 E241.43712
G1 X100.407 Y156.296 E241.48385
G1 X99.844 Y156.38 E241.51036
G1 X22.074 Y156.384 E245.13165
G1 X21.216 Y156.093 E245.17384
G1 X20.535 Y155.667 E245.21124
G1 X19.945 Y154.992 E245.25299
G1 X19.71 Y154.622 E245.2734
G1 X19.387 Y153.633 E245.32185
G1 X19.382 Y70.094 E249.21177
G1 X19.687 Y69.158 E249.25761
G1 X20.29 Y68.359 E249.30422
G1 X20.602 Y68.056 E249.32447
G1 X21.515 Y67.532 E249.37349
G1 X22.283 Y67.404 E249.40975
G0 F6000 X22.349 Y67.799
G1 F1200 X99.97 Y67.789 E253.0241
G1 X100.847 Y68.073 E253.06703
G1 X101.52 Y68.523 E253.10473
G1 X102.119 Y69.354 E253.15243
G1 X102.382 Y70.155 E253.19168
G1 X102.372 Y153.525 E257.07374
G1 X102.203 Y154.197 E257.10601
G1 X101.729 Y155.025 E257.15043
G1 X101.107 Y155.545 E257.18818
G1 X100.296 Y155.908 E257.22956
G1 X99.785 Y155.984 E257.25361
G1 X22.14 Y155.984 E260.86909
G1 X21.388 Y155.729 E260.90606
G1 X20.797 Y155.359 E260.93853
G1 X20.246 Y154.729 E260.9775
G1 X20.074 Y154.449 E260.9928
G1 X19.787 Y153.57 E261.03586
G1 X19.782 Y70.157 E264.91992
G1 X20.046 Y69.347 E264.95959
G1 X20.569 Y68.646 E265.00031
G1 X20.846 Y68.377 E265.01829
G1 X21.651 Y67.915 E265.06151
G1 X22.349 Y67.799 E265.09446
G0 F6000 X22.414 Y68.194
G1 F1200 X99.906 Y68.189 E268.70281
G1 X100.672 Y68.437 E268.7403
G1 X101.238 Y68.816 E268.77202
G1 X101.758 Y69.537 E268.81341
G1 X101.982 Y70.219 E268.84684
G1 X101.972 Y153.475 E272.72359
G1 X101.828 Y154.047 E272.75105
G1 X101.417 Y154.765 E272.78958
G1 X100.894 Y155.202 E272.82131
G1 X100.182 Y155.521 E272.85764
G1 X99.785 Y155.584 E272.87636
G1 X22.206 Y155.584 E276.48876
G1 X21.56 Y155.365 E276.52052
G1 X21.058 Y155.051 E276.5481
G1 X20.587 Y154.52 E276.58115
G1 X20.439 Y154.279 E276.59432
G1 X20.187 Y153.507 E276.63213
G1 X20.182 Y70.22 E280.51032
G1 X20.406 Y69.534 E280.54392
G1 X20.848 Y68.933 E280.57866
G1 X21.09 Y68.698 E280.59437
G1 X21.787 Y68.298 E280.63179
G1 X22.414 Y68.194 E280.66139
G0 F6000 X22.479 Y68.589
G1 F1200 X99.842 Y68.589 E284.26373
G1 X100.499 Y68.802 E284.29589
G1 X100.955 Y69.107 E284.32144
G1 X101.397 Y69.72 E284.35663
G1 X101.582 Y70.283 E284.38422
G1 X101.572 Y153.426 E288.25571
G1 X101.454 Y153.896 E288.27827
G1 X101.105 Y154.505 E288.31096
G1 X100.681 Y154.859 E288.33668
G1 X100.067 Y155.134 E288.368
G1 X99.785 Y155.184 E288.38134
G1 X22.273 Y155.184 E291.99062
G1 X21.731 Y155 E292.01727
G1 X21.32 Y154.743 E292.03985
G1 X20.886 Y154.254 E292.07029
G1 X20.805 Y154.112 E292.0779
G1 X20.587 Y153.444 E292.11062
G1 X20.582 Y70.283 E295.98295
G1 X20.766 Y69.719 E296.01057
G1 X21.127 Y69.22 E296.03925
G1 X21.334 Y69.019 E296.05268
G1 X21.923 Y68.681 E296.08431
G1 X22.479 Y68.589 E296.11055
G0 F6000 X22.479 Y69.389
G1 F1200 X99.718 Y69.389 E299.70712
G1 X100.145 Y69.528 E299.72803
G1 X100.391 Y69.693 E299.74182
G1 X100.675 Y70.086 E299.7644
G1 X100.782 Y70.411 E299.78033
G1 X100.772 Y153.327 E303.64125
G1 X100.705 Y153.595 E303.65411
G1 X100.482 Y153.983 E303.67495
G1 X100.251 Y154.176 E303.68897
G1 X99.785 Y154.384 E303.71273
G1 X22.407 Y154.384 E307.31577
G1 X22.073 Y154.27 E307.33221
G1 X21.844 Y154.127 E307.34478
G1 X21.539 Y153.784 E307.36615
G1 X21.387 Y153.318 E307.38897
G1 X21.382 Y70.409 E311.24956
G1 X21.488 Y70.085 E311.26544
G1 X21.775 Y69.688 E311.28825
G1 X22.199 Y69.445 E311.311
G1 X22.479 Y69.389 E311.3243
G0 F6000 X22.479 Y68.989
G1 F1200 X99.78 Y68.989 E314.92376
G1 X100.322 Y69.165 E314.95029
G1 X100.673 Y69.4 E314.96996
G1 X101.036 Y69.903 E314.99885
G1 X101.182 Y70.347 E315.02061
G1 X101.172 Y153.376 E318.88679
G1 X101.079 Y153.746 E318.90455
G1 X100.794 Y154.243 E318.93123
G1 X100.465 Y154.518 E318.9512
G1 X99.948 Y154.749 E318.97756
G1 X99.785 Y154.784 E318.98533
G1 X22.34 Y154.784 E322.59149
G1 X21.902 Y154.635 E322.61303
G1 X21.582 Y154.435 E322.63061
G1 X21.185 Y153.988 E322.65844
G1 X20.987 Y153.381 E322.68817
G1 X20.982 Y70.346 E326.55463
G1 X21.127 Y69.902 E326.57638
G1 X21.451 Y69.454 E326.60212
G1 X21.576 Y69.341 E326.60997
G1 X22.059 Y69.064 E326.6359
G1 X22.479 Y68.989 E326.65576
G1 F1500 E320.15576
G0 F6000 X22.479 Y68.924
G0 X99.792 Y68.925
G0 X100.388 Y69.119
G0 X100.727 Y69.365
G0 X101.094 Y69.873
G0 X101.18 Y70.136
G0 X117.878 Y160.335
G1 F1500 E326.65576
G1 F1200 X115.948 Y159.125 E326.76183
G1 X114.439 Y157.314 E326.8716
G1 X113.742 Y156.248 E326.93091
G1 X112.905 Y153.706 E327.05552
