;FLAVOR:Marlin
;TIME:9830
;Filament used: 8.08797m
;Layer height: 0.28
;MINX:18.795
;MINY:56.705
;MINZ:0.28
;MAXX:208.615
;MAXY:163.3
;MAXZ:17.08
;TARGET_MACHINE.NAME:Creality Ender-3 Pro
;Generated with Cura_SteamEngine 5.10.1
; Ender 3 Custom Start G-code
G92 E0 ; Reset Extruder
G28 ; Home all axes
M420 S1 Z10 ; use bed levelling
M104 S175 ; Start heating up the nozzle most of the way
M190 S60 ; Start heating the bed, wait until target temperature reached
M109 S200 ; Finish heating the nozzle

G1 Z2.0 F3000 ; Move Z Axis up little to prevent scratching of Heat Bed
G1 X0.1 Y20 Z0.3 F5000.0 ; Move to start position

G1 F3000 Z20 ; Move Z Axis up 20 mm to allow filament ooze freely
G1 F300 E50 ; Slowly extrude a 50mm spaghetti

G1 X0.1 Y20 Z0.3 F5000.0 ; Move to start position
; G1 X0.1 Y200.0 Z0.3 F1500.0 E15 ; Draw the first line
; G1 X0.4 Y200.0 Z0.3 F5000.0 ; Move to side a little
; G1 X0.4 Y20 Z0.3 F1500.0 E30 ; Draw the second line
; G92 E0 ; Reset Extruder
G1 Z2.0 F3000 ; Move Z Axis up little to prevent scratching of Heat Bed
G1 X5 Y20 Z0.3 F5000.0 ; Move over to prevent blob squish
M82 ;absolute extrusion mode
G92 E0
G92 E0
G1 F1500 E-6.5
;LAYER_COUNT:61
;LAYER:0
M107
G0 F6000 X25.838 Y57.785 Z0.28
;TYPE:SKIRT
G1 F1500 E0
G1 F1200 X26.494 Y57.515 E0.03303
G1 X26.889 Y57.379 E0.05248
G1 X27.02 Y57.32 E0.05917
G1 X27.444 Y57.189 E0.07984
G1 X27.551 Y57.17 E0.0849
G1 X28.015 Y57.041 E0.10732
G1 X28.544 Y56.926 E0.13253
G1 X28.879 Y56.865 E0.14839
G1 X29.824 Y56.75 E0.19272
G1 X30.419 Y56.717 E0.22046
G1 X31.093 Y56.705 E0.25185
G1 X107.353 Y56.706 E3.80284
G1 X108.369 Y56.724 E3.85015
G1 X110.024 Y56.797 E3.92729
G1 X112.529 Y56.867 E4.04398
G1 X115.027 Y56.865 E4.1603
G1 X117.917 Y56.776 E4.29493
G1 X119.247 Y56.72 E4.35692
G1 X120.117 Y56.706 E4.39744
G1 X196.027 Y56.705 E7.93212
G1 X196.894 Y56.718 E7.9725
G1 X197.866 Y56.777 E8.01784
G1 X198.76 Y56.91 E8.05993
G1 X199.956 Y57.208 E8.11732
G1 X200.411 Y57.352 E8.13954
G1 X201.327 Y57.684 E8.18491
G1 X202.177 Y58.08 E8.22858
G1 X203.062 Y58.592 E8.27619
G1 X204.053 Y59.311 E8.3332
G1 X204.391 Y59.596 E8.35378
G1 X204.881 Y60.038 E8.38451
G1 X205.619 Y60.791 E8.43361
G1 X206.192 Y61.488 E8.47562
G1 X206.584 Y62.041 E8.50718
G1 X206.886 Y62.52 E8.53355
G1 X207.133 Y62.952 E8.55672
G1 X207.377 Y63.419 E8.58126
G1 X207.881 Y64.606 E8.64131
G1 X208.113 Y65.308 E8.67573
G1 X208.37 Y66.303 E8.72358
G1 X208.527 Y67.259 E8.7687
G1 X208.59 Y68.009 E8.80374
G1 X208.615 Y69.208 E8.85958
G1 X208.609 Y150.825 E12.66001
G1 X208.597 Y151.579 E12.69513
G1 X208.539 Y152.552 E12.74051
G1 X208.406 Y153.446 E12.7826
G1 X208.112 Y154.629 E12.83936
G1 X207.85 Y155.423 E12.8783
G1 X207.543 Y156.215 E12.91785
G1 X207.113 Y157.088 E12.96316
G1 X206.625 Y157.893 E13.007
G1 X205.891 Y158.874 E13.06405
G1 X205.272 Y159.569 E13.10738
G1 X204.561 Y160.271 E13.15391
G1 X203.803 Y160.896 E13.19965
G1 X202.879 Y161.519 E13.25155
G1 X202.447 Y161.771 E13.27483
G1 X201.558 Y162.222 E13.32125
G1 X200.683 Y162.572 E13.36513
G1 X199.511 Y162.913 E13.42197
G1 X198.679 Y163.093 E13.46161
G1 X197.662 Y163.233 E13.50941
G1 X196.875 Y163.278 E13.54612
G1 X195.631 Y163.3 E13.60405
G1 X120.023 Y163.299 E17.12468
G1 X119.009 Y163.281 E17.1719
G1 X117.216 Y163.2 E17.25548
G1 X114.655 Y163.132 E17.37477
G1 X112.2 Y163.137 E17.48908
G1 X108.3 Y163.273 E17.67079
G1 X106.81 Y163.3 E17.74019
G1 X31.202 Y163.299 E21.26081
G1 X30.475 Y163.287 E21.29467
G1 X29.64 Y163.242 E21.33361
G1 X28.456 Y163.067 E21.38934
G1 X27.447 Y162.811 E21.43781
G1 X26.898 Y162.636 E21.46464
G1 X26.115 Y162.337 E21.50367
G1 X25.07 Y161.833 E21.55769
G1 X24.589 Y161.555 E21.58356
G1 X23.805 Y161.042 E21.62719
G1 X23.085 Y160.48 E21.66972
G1 X22.664 Y160.106 E21.69594
G1 X22.249 Y159.706 E21.72278
G1 X21.406 Y158.753 E21.78202
G1 X21.122 Y158.381 E21.80382
G1 X20.875 Y158.032 E21.82373
G1 X20.454 Y157.368 E21.86033
G1 X20.008 Y156.532 E21.90446
G1 X19.634 Y155.678 E21.94787
G1 X19.334 Y154.824 E21.99002
G1 X19.204 Y154.362 E22.01236
G1 X19.034 Y153.618 E22.0479
G1 X18.88 Y152.597 E22.09598
G1 X18.823 Y151.685 E22.13853
G1 X18.799 Y150.37 E22.19977
G1 X18.795 Y69.079 E25.98502
G1 X18.807 Y68.366 E26.01823
G1 X18.868 Y67.39 E26.06376
G1 X19.028 Y66.36 E26.1123
G1 X19.269 Y65.396 E26.15857
G1 X19.452 Y64.841 E26.18578
G1 X19.718 Y64.109 E26.22204
G1 X20.084 Y63.312 E26.26288
G1 X20.422 Y62.709 E26.29507
G1 X20.473 Y62.594 E26.30093
G1 X21.101 Y61.644 E26.35396
G1 X21.688 Y60.906 E26.39787
G1 X22.016 Y60.542 E26.42068
G1 X22.393 Y60.152 E26.44594
G1 X23.423 Y59.248 E26.50975
G1 X23.992 Y58.831 E26.5426
G1 X24.775 Y58.331 E26.58586
G1 X25.411 Y57.988 E26.61951
G1 X25.838 Y57.785 E26.64152
G0 F6000 X25.991 Y58.155
G1 F1200 X26.625 Y57.893 E26.67347
G1 X27.045 Y57.748 E26.69416
G1 X27.138 Y57.702 E26.69899
G1 X27.562 Y57.571 E26.71965
G1 X27.62 Y57.566 E26.72236
G1 X28.1 Y57.432 E26.74557
G1 X28.616 Y57.32 E26.77015
G1 X28.951 Y57.259 E26.78601
G1 X29.872 Y57.147 E26.82921
G1 X30.426 Y57.117 E26.85505
G1 X31.093 Y57.105 E26.88611
G1 X107.346 Y57.106 E30.43677
G1 X108.351 Y57.124 E30.48357
G1 X110.006 Y57.197 E30.56071
G1 X112.518 Y57.267 E30.67773
G1 X115.039 Y57.265 E30.79511
G1 X117.934 Y57.176 E30.92998
G1 X119.253 Y57.12 E30.99145
G1 X120.117 Y57.106 E31.03169
G1 X196.021 Y57.105 E34.5661
G1 X196.87 Y57.117 E34.60564
G1 X197.807 Y57.173 E34.64934
G1 X198.701 Y57.306 E34.69143
G1 X199.836 Y57.59 E34.74591
G1 X200.275 Y57.728 E34.76734
G1 X201.158 Y58.047 E34.81106
G1 X202.008 Y58.443 E34.85472
G1 X202.827 Y58.916 E34.89876
G1 X203.818 Y59.635 E34.95577
G1 X204.123 Y59.893 E34.97437
G1 X204.613 Y60.335 E35.0051
G1 X205.31 Y61.045 E35.05143
G1 X205.883 Y61.742 E35.09344
G1 X206.246 Y62.254 E35.12267
G1 X206.539 Y62.719 E35.14826
G1 X206.779 Y63.138 E35.17074
G1 X207.009 Y63.576 E35.19378
G1 X207.501 Y64.732 E35.25228
G1 X207.733 Y65.434 E35.28671
G1 X207.975 Y66.368 E35.33164
G1 X208.128 Y67.292 E35.37525
G1 X208.191 Y68.042 E35.41029
G1 X208.215 Y69.208 E35.4646
G1 X208.209 Y150.819 E39.26475
G1 X208.198 Y151.556 E39.29907
G1 X208.143 Y152.493 E39.34278
G1 X208.01 Y153.387 E39.38486
G1 X207.732 Y154.504 E39.43846
G1 X207.477 Y155.279 E39.47645
G1 X207.184 Y156.039 E39.51438
G1 X206.771 Y156.881 E39.55805
G1 X206.304 Y157.654 E39.6001
G1 X205.592 Y158.608 E39.65553
G1 X204.973 Y159.303 E39.69887
G1 X204.306 Y159.963 E39.74256
G1 X203.579 Y160.564 E39.78648
G1 X202.655 Y161.187 E39.83837
G1 X202.246 Y161.425 E39.86041
G1 X201.409 Y161.851 E39.90414
G1 X200.571 Y162.188 E39.9462
G1 X199.399 Y162.529 E40.00304
G1 X198.595 Y162.702 E40.04133
G1 X197.639 Y162.834 E40.08627
G1 X196.868 Y162.878 E40.12223
G1 X195.631 Y162.9 E40.17984
G1 X120.03 Y162.899 E43.70013
G1 X119.027 Y162.881 E43.74685
G1 X117.234 Y162.8 E43.83042
G1 X114.665 Y162.732 E43.95009
G1 X112.186 Y162.737 E44.06552
G1 X108.293 Y162.873 E44.2469
G1 X106.81 Y162.9 E44.31597
G1 X31.208 Y162.899 E47.83632
G1 X30.496 Y162.888 E47.86947
G1 X29.698 Y162.846 E47.90668
G1 X28.554 Y162.679 E47.96052
G1 X27.545 Y162.423 E48.00899
G1 X27.04 Y162.262 E48.03367
G1 X26.289 Y161.977 E48.07107
G1 X25.27 Y161.486 E48.12374
G1 X24.808 Y161.22 E48.14857
G1 X24.024 Y160.707 E48.19219
G1 X23.351 Y160.181 E48.23197
G1 X22.941 Y159.817 E48.2575
G1 X22.549 Y159.441 E48.28279
G1 X21.706 Y158.488 E48.34204
G1 X21.448 Y158.149 E48.36187
G1 X21.213 Y157.818 E48.38077
G1 X20.792 Y157.154 E48.41738
G1 X20.374 Y156.371 E48.45871
G1 X20.011 Y155.545 E48.50073
G1 X19.719 Y154.715 E48.5417
G1 X19.594 Y154.273 E48.56309
G1 X19.424 Y153.529 E48.59862
G1 X19.279 Y152.572 E48.64369
G1 X19.223 Y151.678 E48.6854
G1 X19.199 Y150.37 E48.74632
G1 X19.195 Y69.085 E52.53129
G1 X19.206 Y68.39 E52.56365
G1 X19.263 Y67.451 E52.60746
G1 X19.416 Y66.457 E52.65429
G1 X19.649 Y65.521 E52.6992
G1 X19.828 Y64.978 E52.72583
G1 X20.094 Y64.246 E52.76209
G1 X20.433 Y63.508 E52.79991
G1 X20.795 Y62.863 E52.83435
G1 X20.807 Y62.814 E52.8367
G1 X21.414 Y61.893 E52.88806
G1 X21.986 Y61.173 E52.93088
G1 X22.304 Y60.819 E52.95304
G1 X22.657 Y60.452 E52.97675
G1 X23.659 Y59.571 E53.03887
G1 X24.228 Y59.154 E53.07172
G1 X24.99 Y58.668 E53.11381
G1 X25.583 Y58.349 E53.14516
G1 X25.991 Y58.155 E53.1662
G0 F6000 X26.144 Y58.525
G1 F1200 X26.778 Y58.263 E53.19814
G1 X27.26 Y58.097 E53.22188
G1 X27.256 Y58.084 E53.22251
G1 X27.68 Y57.953 E53.24318
G1 X27.683 Y57.964 E53.24371
G1 X28.185 Y57.823 E53.26799
G1 X28.688 Y57.714 E53.29195
G1 X29.023 Y57.653 E53.30781
G1 X29.92 Y57.544 E53.34988
G1 X30.433 Y57.517 E53.3738
G1 X31.093 Y57.505 E53.40454
G1 X107.339 Y57.506 E56.95487
G1 X108.333 Y57.524 E57.00117
G1 X109.988 Y57.597 E57.07831
G1 X112.507 Y57.667 E57.19565
G1 X115.051 Y57.665 E57.31411
G1 X117.951 Y57.576 E57.4492
G1 X119.26 Y57.52 E57.51021
G1 X120.117 Y57.506 E57.55012
G1 X196.016 Y57.505 E61.0843
G1 X196.847 Y57.516 E61.123
G1 X197.748 Y57.569 E61.16502
G1 X198.642 Y57.702 E61.20711
G1 X199.717 Y57.972 E61.25872
G1 X200.14 Y58.104 E61.27936
G1 X200.99 Y58.41 E61.32142
G1 X201.809 Y58.79 E61.36346
G1 X202.592 Y59.24 E61.40551
G1 X203.583 Y59.959 E61.46253
G1 X203.855 Y60.19 E61.47914
G1 X204.345 Y60.632 E61.50987
G1 X205.001 Y61.299 E61.55343
G1 X205.574 Y61.996 E61.59545
G1 X205.908 Y62.467 E61.62233
G1 X206.192 Y62.918 E61.64715
G1 X206.425 Y63.325 E61.66899
G1 X206.641 Y63.733 E61.69048
G1 X207.121 Y64.858 E61.74744
G1 X207.353 Y65.56 E61.78187
G1 X207.58 Y66.434 E61.82391
G1 X207.729 Y67.325 E61.86598
G1 X207.792 Y68.075 E61.90102
G1 X207.815 Y69.208 E61.95379
G1 X207.809 Y150.813 E65.75366
G1 X207.799 Y151.533 E65.78719
G1 X207.747 Y152.434 E65.82922
G1 X207.614 Y153.328 E65.8713
G1 X207.352 Y154.379 E65.92174
G1 X207.097 Y155.154 E65.95973
G1 X206.825 Y155.863 E65.99509
G1 X206.429 Y156.674 E66.03711
G1 X205.962 Y157.447 E66.07917
G1 X205.293 Y158.342 E66.1312
G1 X204.691 Y159.019 E66.17338
G1 X204.05 Y159.655 E66.21543
G1 X203.355 Y160.232 E66.25749
G1 X202.431 Y160.855 E66.30938
G1 X202.064 Y161.069 E66.32916
G1 X201.26 Y161.48 E66.37121
G1 X200.422 Y161.817 E66.41327
G1 X199.315 Y162.138 E66.46694
G1 X198.511 Y162.311 E66.50523
G1 X197.616 Y162.435 E66.54731
G1 X196.861 Y162.478 E66.58252
G1 X195.631 Y162.5 E66.6398
G1 X120.037 Y162.499 E70.15978
G1 X119.045 Y162.481 E70.20597
G1 X117.252 Y162.4 E70.28955
G1 X114.675 Y162.332 E70.40959
G1 X112.172 Y162.337 E70.52614
G1 X108.286 Y162.473 E70.7072
G1 X106.81 Y162.5 E70.77594
G1 X31.214 Y162.499 E74.296
G1 X30.516 Y162.489 E74.32851
G1 X29.755 Y162.45 E74.36399
G1 X28.652 Y162.291 E74.41588
G1 X27.643 Y162.035 E74.46435
G1 X27.181 Y161.888 E74.48693
G1 X26.462 Y161.617 E74.52271
G1 X25.469 Y161.139 E74.57402
G1 X25.026 Y160.885 E74.5978
G1 X24.27 Y160.392 E74.63983
G1 X23.616 Y159.881 E74.67847
G1 X23.217 Y159.528 E74.70328
G1 X22.848 Y159.176 E74.72703
G1 X22.024 Y158.246 E74.78488
G1 X21.774 Y157.917 E74.80413
G1 X21.551 Y157.604 E74.82202
G1 X21.13 Y156.94 E74.85863
G1 X20.74 Y156.21 E74.89717
G1 X20.377 Y155.384 E74.93918
G1 X20.104 Y154.605 E74.97762
G1 X19.984 Y154.184 E74.998
G1 X19.814 Y153.44 E75.03354
G1 X19.678 Y152.547 E75.0756
G1 X19.623 Y151.671 E75.11647
G1 X19.599 Y150.37 E75.17706
G1 X19.595 Y69.091 E78.96175
G1 X19.605 Y68.413 E78.99333
G1 X19.658 Y67.511 E79.0354
G1 X19.804 Y66.553 E79.08052
G1 X20.029 Y65.646 E79.12404
G1 X20.204 Y65.114 E79.15011
G1 X20.458 Y64.412 E79.18488
G1 X20.782 Y63.704 E79.22113
G1 X21.153 Y63.042 E79.25647
G1 X21.141 Y63.034 E79.25714
G1 X21.727 Y62.142 E79.30684
G1 X22.299 Y61.422 E79.34965
G1 X22.593 Y61.095 E79.37013
G1 X22.921 Y60.752 E79.39223
G1 X23.896 Y59.893 E79.45274
G1 X24.443 Y59.491 E79.48434
G1 X25.205 Y59.005 E79.52643
G1 X25.755 Y58.71 E79.55549
G1 X26.144 Y58.525 E79.57555
G1 F1500 E73.07555
;MESH:3.2_etho_v1.8_SSD_Adapter.stl
G0 F6000 X36.879 Y69.889
G0 X38.927 Y73.862
;TYPE:WALL-INNER
G1 F1500 E79.57555
G1 F1200 X38.319 Y73.898 E79.60391
G1 X37.842 Y73.822 E79.6264
G1 X37.397 Y73.645 E79.6487
G1 X36.91 Y73.314 E79.67612
G1 X36.473 Y72.745 E79.70953
G1 X36.244 Y72.049 E79.74364
G1 X36.242 Y71.474 E79.77042
G1 X36.341 Y71 E79.79297
G1 X36.586 Y70.465 E79.82037
G1 X36.997 Y70.028 E79.8483
G1 X37.392 Y69.755 E79.87066
G1 X37.934 Y69.535 E79.8979
G1 X38.545 Y69.498 E79.9264
G1 X39.017 Y69.573 E79.94865
G1 X39.464 Y69.748 E79.97101
G1 X39.959 Y70.082 E79.99881
G1 X40.394 Y70.656 E80.03235
G1 X40.624 Y71.325 E80.06529
G1 X40.624 Y71.94 E80.09393
G1 X40.52 Y72.408 E80.11625
G1 X40.276 Y72.932 E80.14316
G1 X39.867 Y73.368 E80.171
G1 X39.476 Y73.639 E80.19315
G1 X38.927 Y73.862 E80.22074
G1 F1500 E73.72074
G0 F6000 X39.985 Y73.507
G0 X67.231 Y76.28
G0 X69.861 Y77.32
G1 F1500 E80.22074
G1 F1200 X69.451 Y77.393 E80.24014
G1 X68.955 Y77.378 E80.26324
G1 X68.529 Y77.256 E80.28388
G1 X68.126 Y77.052 E80.30491
G1 X67.68 Y76.679 E80.33198
G1 X67.385 Y76.175 E80.35918
G1 X67.237 Y75.747 E80.38026
G1 X67.181 Y75.159 E80.40777
G1 X67.305 Y74.622 E80.43343
G1 X67.489 Y74.22 E80.45402
G1 X67.754 Y73.859 E80.47487
G1 X68.193 Y73.483 E80.50178
G1 X68.713 Y73.276 E80.52784
G1 X69.15 Y73.198 E80.54851
G1 X69.632 Y73.223 E80.57099
G1 X70.069 Y73.346 E80.59213
G1 X70.457 Y73.548 E80.6125
G1 X70.899 Y73.917 E80.63931
G1 X71.19 Y74.4 E80.66556
G1 X71.345 Y74.841 E80.68733
G1 X71.409 Y75.427 E80.71478
G1 X71.282 Y75.978 E80.74111
G1 X71.098 Y76.377 E80.76157
G1 X70.827 Y76.739 E80.78262
G1 X70.387 Y77.115 E80.80957
G1 X69.861 Y77.32 E80.83586
G1 F1500 E74.33586
G0 F6000 X69.428 Y77.581
G0 X70.068 Y98.72
G0 X70.461 Y103.958
G1 F1500 E80.83586
G1 F1200 X69.739 Y104.163 E80.87081
G1 X69.147 Y104.198 E80.89842
G1 X68.563 Y104.099 E80.92601
G1 X68.046 Y103.894 E80.9519
G1 X67.545 Y103.566 E80.97979
G1 X67.133 Y103.12 E81.00806
G1 X66.762 Y102.501 E81.04166
G1 X66.608 Y101.812 E81.07454
G1 X66.603 Y101.06 E81.10955
G1 X66.84 Y100.362 E81.14388
G1 X67.138 Y99.868 E81.17074
G1 X67.535 Y99.444 E81.19779
G1 X68.141 Y99.032 E81.23191
G1 X68.838 Y98.833 E81.26566
G1 X69.439 Y98.797 E81.2937
G1 X70.017 Y98.894 E81.32099
G1 X70.562 Y99.11 E81.34829
G1 X71.045 Y99.437 E81.37545
G1 X71.446 Y99.864 E81.40272
G1 X71.821 Y100.491 E81.43674
G1 X71.98 Y101.188 E81.47003
G1 X71.979 Y101.941 E81.50509
G1 X71.747 Y102.644 E81.53956
G1 X71.438 Y103.137 E81.56666
G1 X71.025 Y103.571 E81.59455
G1 X70.461 Y103.958 E81.6264
G1 F1500 E75.1264
G0 F6000 X69.765 Y104.343
G0 X70.074 Y111.122
G0 X71.371 Y115.612
G1 F1500 E81.6264
G1 F1200 X71.046 Y115.958 E81.64851
G1 X70.442 Y116.369 E81.68253
G1 X69.743 Y116.563 E81.71631
G1 X69.149 Y116.599 E81.74402
G1 X68.569 Y116.501 E81.77141
G1 X68.023 Y116.287 E81.79871
G1 X67.542 Y115.963 E81.82572
G1 X67.14 Y115.534 E81.85309
G1 X66.763 Y114.911 E81.887
G1 X66.604 Y114.204 E81.92074
G1 X66.604 Y113.462 E81.95529
G1 X66.84 Y112.756 E81.98996
G1 X67.145 Y112.264 E82.01691
G1 X67.559 Y111.829 E82.04487
G1 X68.125 Y111.441 E82.07683
G1 X68.845 Y111.233 E82.11172
G1 X69.44 Y111.198 E82.13948
G1 X70.021 Y111.296 E82.16691
G1 X70.539 Y111.502 E82.19287
G1 X71.045 Y111.835 E82.22108
G1 X71.451 Y112.276 E82.24899
G1 X71.826 Y112.907 E82.28317
G1 X71.979 Y113.612 E82.31676
G1 X71.98 Y114.319 E82.34968
G1 X71.75 Y115.035 E82.3847
G1 X71.446 Y115.532 E82.41183
G1 X71.371 Y115.612 E82.41693
G1 F1500 E75.91693
G0 F6000 X70.381 Y116.229
G0 X69.718 Y116.416
G0 X69.156 Y116.448
G0 X68.611 Y116.358
G0 X68.099 Y116.155
G0 X67.642 Y115.845
G0 X67.263 Y115.445
G0 X66.974 Y114.965
G0 X66.423 Y113.545
G0 X50.641 Y109.12
G0 X50.175 Y109.43
G1 F1500 E82.41693
G1 F1200 X49.973 Y109.5 E82.42689
G1 X44.692 Y109.5 E82.67279
G1 X44.409 Y109.43 E82.68637
G1 X44.212 Y109.26 E82.69849
G1 X44.092 Y109.021 E82.71094
G1 X44.092 Y104.3 E82.93077
G1 X35.594 Y104.299 E83.32647
G1 X34.853 Y104.147 E83.36169
G1 X34.153 Y103.743 E83.39933
G1 X33.598 Y103.136 E83.43762
G1 X33.268 Y102.394 E83.47544
G1 X33.195 Y101.777 E83.50437
G1 X33.192 Y77.696 E84.62568
G1 X33.245 Y77.165 E84.65053
G1 X33.453 Y76.513 E84.6824
G1 X33.855 Y75.959 E84.71427
G1 X34.364 Y75.498 E84.74625
G1 X35.124 Y75.167 E84.78485
G1 X35.72 Y75.103 E84.81276
G1 X62.516 Y75.1 E86.06049
G1 X63.221 Y75.25 E86.09405
G1 X63.935 Y75.657 E86.13232
G1 X64.493 Y76.282 E86.17134
